(.../EAGLE-7.7.0/ulp/pcb-gcode-3/pcb-gcode.ulp)
(Copyright 2005 - 2012 by John Johnson)
(See readme.txt for licensing terms.)
(This file generated from the board:)
(.../Documents/eagle/Mixer/Board.brd)
(Current profile is .../pcb-gcode-3/profiles/mach.pp  )
(This file generated 03/01/2017 19:43)
(Settings from pcb-machine.h)
(spindle on time = 3.0000)
(  Tool Size)
(0.1778  )
(spindle speed = 30000.0000)
(tool change at 0.0000  0.0000  25.4000 )
(feed rate xy = F508   )
(feed rate z  = F254   )
(Z Axis Settings)
(  High     Up        Down     Drill)
(12.7000 	2.5400  	-0.1778 	-2.0000 )
(Settings from pcb-defaults.h)
(isolate min = 0.0254)
(isolate max = 0.3080)
(isolate step = 0.1270)
(Generated bottom outlines, bottom drill, )
(Unit of measure: mm)
(Metric Mode)
G21
(Absolute Coordinates)
G90
S30000
G00 Z12.7000 
G00 X0.0000  Y0.0000  
M03
G04 P3.000000
G00 Z2.5400  
G00 X-1.4656 Y1.7030  
G01 Z-0.1778 F254   
G01 X-1.7030 Y1.4656  F508   
G01 X-1.9625 Y1.2527  
G01 X-2.2416 Y1.0662  
G01 X-2.5376 Y0.9080  
G01 X-2.8477 Y0.7795  
G01 X-3.1689 Y0.6821  
G01 X-3.4981 Y0.6166  
G01 X-3.8322 Y0.5837  
G01 X-4.1678 Y0.5837  
G01 X-4.5019 Y0.6166  
G01 X-4.8311 Y0.6821  
G01 X-5.1523 Y0.7795  
G01 X-5.4624 Y0.9080  
G01 X-5.6677 Y1.0177  
G01 X-5.6784 Y0.9919  
G01 X-5.7101 Y0.9445  
G01 X-5.7764 Y0.8453  
G01 X-5.9011 Y0.7206  
G01 X-5.9524 Y0.6863  
G01 X-6.0477 Y0.6226  
G01 X-6.2107 Y0.5551  
G01 X-6.2959 Y0.5381  
G01 X-6.3836 Y0.5207  
G01 X-77.6164 Y0.5207  
G01 X-77.7008 Y0.5375  
G01 X-77.7893 Y0.5551  
G01 X-77.9523 Y0.6226  
G01 X-78.0515 Y0.6889  
G01 X-78.0989 Y0.7206  
G01 X-78.2217 Y0.8433  
G01 X-78.2873 Y0.9406  
G01 X-78.3216 Y0.9919  
G01 X-78.3323 Y1.0177  
G01 X-78.5376 Y0.9080  
G01 X-78.8477 Y0.7795  
G01 X-79.1689 Y0.6821  
G01 X-79.4981 Y0.6166  
G01 X-79.8322 Y0.5837  
G01 X-80.1678 Y0.5837  
G01 X-80.5019 Y0.6166  
G01 X-80.8311 Y0.6821  
G01 X-81.1523 Y0.7795  
G01 X-81.4624 Y0.9080  
G01 X-81.6677 Y1.0177  
G01 X-81.6784 Y0.9919  
G01 X-81.7101 Y0.9445  
G01 X-81.7764 Y0.8453  
G01 X-81.9011 Y0.7206  
G01 X-81.9524 Y0.6863  
G01 X-82.0477 Y0.6226  
G01 X-82.2107 Y0.5551  
G01 X-82.2959 Y0.5381  
G01 X-82.3836 Y0.5207  
G01 X-95.9371 Y0.5207  
G01 X-95.9622 Y0.5172  
G01 X-96.0251 Y0.5207  
G01 X-96.0882 Y0.5207  
G01 X-96.1130 Y0.5256  
G01 X-96.3269 Y0.5376  
G01 X-96.4026 Y0.5398  
G01 X-96.4149 Y0.5426  
G01 X-96.4275 Y0.5433  
G01 X-96.5007 Y0.5622  
G01 X-96.9790 Y0.6713  
G01 X-96.9917 Y0.6721  
G01 X-97.0649 Y0.6909  
G01 X-97.1386 Y0.7078  
G01 X-97.1502 Y0.7129  
G01 X-97.1624 Y0.7161  
G01 X-97.2305 Y0.7489  
G01 X-97.2996 Y0.7798  
G01 X-97.3099 Y0.7871  
G01 X-97.6952 Y0.9727  
G01 X-97.7074 Y0.9762  
G01 X-97.7745 Y1.0109  
G01 X-97.8427 Y1.0437  
G01 X-97.8528 Y1.0513  
G01 X-97.8640 Y1.0571  
G01 X-97.9232 Y1.1043  
G01 X-97.9836 Y1.1497  
G01 X-97.9920 Y1.1592  
G01 X-98.3263 Y1.4258  
G01 X-98.3374 Y1.4319  
G01 X-98.3952 Y1.4807  
G01 X-98.4543 Y1.5278  
G01 X-98.4625 Y1.5375  
G01 X-98.4722 Y1.5457  
G01 X-98.5193 Y1.6048  
G01 X-98.5681 Y1.6626  
G01 X-98.5742 Y1.6737  
G01 X-98.8408 Y2.0080  
G01 X-98.8503 Y2.0164  
G01 X-98.8957 Y2.0768  
G01 X-98.9429 Y2.1360  
G01 X-98.9487 Y2.1472  
G01 X-98.9563 Y2.1573  
G01 X-98.9891 Y2.2255  
G01 X-99.0238 Y2.2926  
G01 X-99.0273 Y2.3048  
G01 X-99.2129 Y2.6901  
G01 X-99.2202 Y2.7004  
G01 X-99.2511 Y2.7694  
G01 X-99.2839 Y2.8375  
G01 X-99.2870 Y2.8498  
G01 X-99.2922 Y2.8614  
G01 X-99.3091 Y2.9351  
G01 X-99.3279 Y3.0083  
G01 X-99.3286 Y3.0210  
G01 X-99.4378 Y3.4993  
G01 X-99.4567 Y3.5724  
G01 X-99.4574 Y3.5851  
G01 X-99.4602 Y3.5974  
G01 X-99.4623 Y3.6731  
G01 X-99.4744 Y3.8870  
G01 X-99.4793 Y3.9118  
G01 X-99.4793 Y3.9749  
G01 X-99.4828 Y4.0378  
G01 X-99.4793 Y4.0629  
G01 X-99.4793 Y41.6164 
G01 X-99.4625 Y41.7008 
G01 X-99.4449 Y41.7893 
G01 X-99.3774 Y41.9523 
G01 X-99.3111 Y42.0515 
G01 X-99.2794 Y42.0989 
G01 X-99.1567 Y42.2217 
G01 X-99.0593 Y42.2873 
G01 X-99.0081 Y42.3216 
G01 X-98.9823 Y42.3323 
G01 X-99.0920 Y42.5376 
G01 X-99.2205 Y42.8477 
G01 X-99.3179 Y43.1689 
G01 X-99.3834 Y43.4981 
G01 X-99.4163 Y43.8322 
G01 X-99.4163 Y44.1678 
G01 X-99.3834 Y44.5019 
G01 X-99.3179 Y44.8311 
G01 X-99.2205 Y45.1523 
G01 X-99.0920 Y45.4624 
G01 X-98.9823 Y45.6677 
G01 X-99.0081 Y45.6784 
G01 X-99.0554 Y45.7101 
G01 X-99.1547 Y45.7764 
G01 X-99.2794 Y45.9011 
G01 X-99.3137 Y45.9524 
G01 X-99.3774 Y46.0477 
G01 X-99.4449 Y46.2107 
G01 X-99.4618 Y46.2959 
G01 X-99.4793 Y46.3836 
G01 X-99.4793 Y66.9371 
G01 X-99.4828 Y66.9622 
G01 X-99.4793 Y67.0251 
G01 X-99.4793 Y67.0882 
G01 X-99.4744 Y67.1130 
G01 X-99.4623 Y67.3269 
G01 X-99.4602 Y67.4026 
G01 X-99.4574 Y67.4149 
G01 X-99.4567 Y67.4275 
G01 X-99.4378 Y67.5007 
G01 X-99.3286 Y67.9790 
G01 X-99.3279 Y67.9917 
G01 X-99.3091 Y68.0649 
G01 X-99.2922 Y68.1386 
G01 X-99.2870 Y68.1502 
G01 X-99.2839 Y68.1624 
G01 X-99.2511 Y68.2305 
G01 X-99.2202 Y68.2996 
G01 X-99.2129 Y68.3099 
G01 X-99.0273 Y68.6952 
G01 X-99.0238 Y68.7074 
G01 X-98.9891 Y68.7745 
G01 X-98.9563 Y68.8427 
G01 X-98.9487 Y68.8528 
G01 X-98.9429 Y68.8640 
G01 X-98.8957 Y68.9232 
G01 X-98.8503 Y68.9836 
G01 X-98.8408 Y68.9920 
G01 X-98.5742 Y69.3263 
G01 X-98.5681 Y69.3374 
G01 X-98.5193 Y69.3952 
G01 X-98.4722 Y69.4543 
G01 X-98.4625 Y69.4625 
G01 X-98.4543 Y69.4722 
G01 X-98.3952 Y69.5193 
G01 X-98.3374 Y69.5681 
G01 X-98.3263 Y69.5742 
G01 X-97.9920 Y69.8408 
G01 X-97.9836 Y69.8503 
G01 X-97.9232 Y69.8957 
G01 X-97.8640 Y69.9429 
G01 X-97.8528 Y69.9487 
G01 X-97.8427 Y69.9563 
G01 X-97.7745 Y69.9891 
G01 X-97.7074 Y70.0238 
G01 X-97.6952 Y70.0273 
G01 X-97.3099 Y70.2129 
G01 X-97.2996 Y70.2202 
G01 X-97.2305 Y70.2511 
G01 X-97.1624 Y70.2839 
G01 X-97.1502 Y70.2870 
G01 X-97.1386 Y70.2922 
G01 X-97.0649 Y70.3091 
G01 X-96.9917 Y70.3279 
G01 X-96.9790 Y70.3286 
G01 X-96.5007 Y70.4378 
G01 X-96.4275 Y70.4567 
G01 X-96.4149 Y70.4574 
G01 X-96.4026 Y70.4602 
G01 X-96.3269 Y70.4623 
G01 X-96.1130 Y70.4744 
G01 X-96.0882 Y70.4793 
G01 X-96.0251 Y70.4793 
G01 X-95.9622 Y70.4828 
G01 X-95.9371 Y70.4793 
G01 X-82.3836 Y70.4793 
G01 X-82.2991 Y70.4625 
G01 X-82.2107 Y70.4449 
G01 X-82.0477 Y70.3774 
G01 X-81.9485 Y70.3111 
G01 X-81.9011 Y70.2794 
G01 X-81.7783 Y70.1567 
G01 X-81.7127 Y70.0593 
G01 X-81.6784 Y70.0081 
G01 X-81.6677 Y69.9823 
G01 X-81.4624 Y70.0920 
G01 X-81.1523 Y70.2205 
G01 X-80.8311 Y70.3179 
G01 X-80.5019 Y70.3834 
G01 X-80.1678 Y70.4163 
G01 X-79.8322 Y70.4163 
G01 X-79.4981 Y70.3834 
G01 X-79.1689 Y70.3179 
G01 X-78.8477 Y70.2205 
G01 X-78.5376 Y70.0920 
G01 X-78.3323 Y69.9823 
G01 X-78.3216 Y70.0081 
G01 X-78.2899 Y70.0554 
G01 X-78.2236 Y70.1547 
G01 X-78.0989 Y70.2794 
G01 X-78.0476 Y70.3137 
G01 X-77.9523 Y70.3774 
G01 X-77.7893 Y70.4449 
G01 X-77.7041 Y70.4618 
G01 X-77.6164 Y70.4793 
G01 X-6.3836 Y70.4793 
G01 X-6.2992 Y70.4625 
G01 X-6.2107 Y70.4449 
G01 X-6.0477 Y70.3774 
G01 X-5.9485 Y70.3111 
G01 X-5.9011 Y70.2794 
G01 X-5.7783 Y70.1567 
G01 X-5.7127 Y70.0593 
G01 X-5.6784 Y70.0081 
G01 X-5.6677 Y69.9823 
G01 X-5.4624 Y70.0920 
G01 X-5.1523 Y70.2205 
G01 X-4.8311 Y70.3179 
G01 X-4.5019 Y70.3834 
G01 X-4.1678 Y70.4163 
G01 X-3.8322 Y70.4163 
G01 X-3.4981 Y70.3834 
G01 X-3.1689 Y70.3179 
G01 X-2.8477 Y70.2205 
G01 X-2.5376 Y70.0920 
G01 X-2.2416 Y69.9338 
G01 X-1.9625 Y69.7473 
G01 X-1.7030 Y69.5344 
G01 X-1.4656 Y69.2970 
G01 X-1.2527 Y69.0375 
G01 X-1.0662 Y68.7584 
G01 X-0.9080 Y68.4624 
G01 X-0.7795 Y68.1523 
G01 X-0.6821 Y67.8311 
G01 X-0.6166 Y67.5019 
G01 X-0.5837 Y67.1678 
G01 X-0.5837 Y66.8322 
G01 X-0.6166 Y66.4981 
G01 X-0.6821 Y66.1689 
G01 X-0.7795 Y65.8477 
G01 X-0.9080 Y65.5376 
G01 X-1.0177 Y65.3323 
G01 X-0.9919 Y65.3216 
G01 X-0.9445 Y65.2899 
G01 X-0.8453 Y65.2236 
G01 X-0.7206 Y65.0989 
G01 X-0.6863 Y65.0476 
G01 X-0.6226 Y64.9523 
G01 X-0.5551 Y64.7893 
G01 X-0.5381 Y64.7041 
G01 X-0.5207 Y64.6164 
G01 X-0.5207 Y53.7913 
G01 X-0.5489 Y53.6494 
G01 X-0.5551 Y53.6183 
G01 X-0.5826 Y53.5521 
G01 X-0.6226 Y53.4554 
G01 X-0.6706 Y53.3835 
G01 X-0.7206 Y53.3088 
G01 X-0.7820 Y53.2474 
G01 X-0.8453 Y53.1841 
G01 X-0.8913 Y53.1533 
G01 X-0.9919 Y53.0861 
G01 X-1.1222 Y53.0321 
G01 X-1.1548 Y53.0186 
G01 X-1.2408 Y53.0015 
G01 X-1.3278 Y52.9842 
G01 X-1.5042 Y52.9842 
G01 X-1.6461 Y53.0124 
G01 X-1.6771 Y53.0186 
G01 X-1.7434 Y53.0461 
G01 X-1.8401 Y53.0861 
G01 X-1.9120 Y53.1341 
G01 X-1.9867 Y53.1841 
G01 X-2.0481 Y53.2455 
G01 X-2.1114 Y53.3088 
G01 X-2.1422 Y53.3548 
G01 X-2.2094 Y53.4554 
G01 X-2.2330 Y53.5125 
G01 X-7.7955 Y59.0750 
G01 X-8.1280 Y59.2127 
G01 X-14.8720 Y59.2127 
G01 X-15.2045 Y59.0750 
G01 X-15.6472 Y58.6322 
G01 X-20.1749 Y54.1046 
G01 X-20.3215 Y54.0066 
G01 X-20.4844 Y53.9391 
G01 X-20.6574 Y53.9047 
G01 X-25.2107 Y53.9047 
G01 X-25.3836 Y53.9391 
G01 X-25.4492 Y53.9663 
G01 X-25.5466 Y54.0066 
G01 X-25.6932 Y54.1046 
G01 X-25.8179 Y54.2293 
G01 X-25.8553 Y54.2667 
G01 X-26.9047 Y54.2667 
G01 X-27.6467 Y53.5247 
G01 X-27.6467 Y52.4753 
G01 X-26.9047 Y51.7333 
G01 X-25.8553 Y51.7333 
G01 X-25.8179 Y51.7707 
G01 X-25.7008 Y51.8878 
G01 X-25.6932 Y51.8954 
G01 X-25.5466 Y51.9934 
G01 X-25.4531 Y52.0321 
G01 X-25.3836 Y52.0609 
G01 X-25.2107 Y52.0953 
G01 X-19.8200 Y52.0953 
G01 X-19.4875 Y52.2330 
G01 X-19.1695 Y52.5511 
G01 X-19.0448 Y52.6758 
G01 X-14.5171 Y57.2034 
G01 X-14.3705 Y57.3014 
G01 X-14.3658 Y57.3034 
G01 X-14.2076 Y57.3689 
G01 X-14.0444 Y57.4013 
G01 X-14.0346 Y57.4033 
G01 X-13.1546 Y57.4033 
G01 X-12.9816 Y57.3689 
G01 X-12.8698 Y57.3225 
G01 X-12.8187 Y57.3014 
G01 X-12.7478 Y57.2540 
G01 X-12.6721 Y57.2034 
G01 X-12.5474 Y57.0787 
G01 X-12.4494 Y56.9321 
G01 X-12.3819 Y56.7691 
G01 X-12.3616 Y56.6669 
G01 X-12.3475 Y56.5962 
G01 X-12.3475 Y56.4198 
G01 X-12.3819 Y56.2468 
G01 X-12.4227 Y56.1482 
G01 X-12.4494 Y56.0839 
G01 X-12.5047 Y55.9504 
G01 X-12.5047 Y53.3496 
G01 X-12.4070 Y53.1138 
G01 X-12.3978 Y53.0987 
G01 X-12.3951 Y53.0913 
G01 X-12.3626 Y53.0696 
G01 X-12.3024 Y53.0327 
G01 X-12.2949 Y53.0259 
G01 X-12.1004 Y52.9453 
G01 X-9.4996 Y52.9453 
G01 X-9.3141 Y53.0221 
G01 X-9.1721 Y53.1641 
G01 X-9.0953 Y53.3496 
G01 X-9.0953 Y55.7426 
G01 X-9.0609 Y55.9156 
G01 X-8.9934 Y56.0785 
G01 X-8.8954 Y56.2251 
G01 X-8.7707 Y56.3498 
G01 X-8.6241 Y56.4478 
G01 X-8.4611 Y56.5153 
G01 X-8.2882 Y56.5497 
G01 X-8.1118 Y56.5497 
G01 X-7.9388 Y56.5153 
G01 X-7.7759 Y56.4478 
G01 X-7.6293 Y56.3498 
G01 X-7.5046 Y56.2251 
G01 X-4.7581 Y53.4787 
G01 X-4.6602 Y53.3321 
G01 X-4.5927 Y53.1691 
G01 X-4.5583 Y52.9962 
G01 X-4.5583 Y52.8198 
G01 X-4.5723 Y52.7493 
G01 X-4.4825 Y52.7493 
G01 X-3.8953 Y52.1621 
G01 X-3.8953 Y52.6292 
G01 X-8.6788 Y57.4127 
G01 X-14.3212 Y57.4127 
G01 X-19.3046 Y52.4293 
G01 X-19.4293 Y52.3046 
G01 X-19.5759 Y52.2066 
G01 X-19.7388 Y52.1391 
G01 X-19.9118 Y52.1047 
G01 X-25.4972 Y52.1047 
G01 X-25.8592 Y51.7427 
G01 X-26.9008 Y51.7427 
G01 X-27.6373 Y52.4792 
G01 X-27.6373 Y53.5208 
G01 X-26.9008 Y54.2573 
G01 X-25.8592 Y54.2573 
G01 X-25.4972 Y53.8953 
G01 X-20.3708 Y53.8953 
G01 X-15.3874 Y58.8787 
G01 X-15.2627 Y59.0034 
G01 X-15.1161 Y59.1014 
G01 X-14.9532 Y59.1689 
G01 X-14.7802 Y59.2033 
G01 X-8.2198 Y59.2033 
G01 X-8.0468 Y59.1689 
G01 X-7.8839 Y59.1014 
G01 X-7.7373 Y59.0034 
G01 X-2.3046 Y53.5707 
G01 X-2.2066 Y53.4241 
G01 X-2.1391 Y53.2612 
G01 X-2.1047 Y53.0882 
G01 X-2.1047 Y49.9118 
G01 X-2.1391 Y49.7388 
G01 X-2.2066 Y49.5759 
G01 X-2.3046 Y49.4293 
G01 X-3.3046 Y48.4293 
G01 X-3.4293 Y48.3046 
G01 X-3.5759 Y48.2066 
G01 X-3.7388 Y48.1391 
G01 X-3.9118 Y48.1047 
G01 X-4.1285 Y48.1047 
G01 X-4.4825 Y47.7507 
G01 X-5.5175 Y47.7507 
G01 X-6.2493 Y48.4825 
G01 X-6.2493 Y49.5175 
G01 X-5.5175 Y50.2493 
G01 X-4.4825 Y50.2493 
G01 X-4.2497 Y50.0165 
G01 X-3.8953 Y50.3708 
G01 X-3.8953 Y50.8379 
G01 X-4.4825 Y50.2507 
G01 X-5.5175 Y50.2507 
G01 X-5.8715 Y50.6047 
G01 X-6.6285 Y50.6047 
G01 X-6.9825 Y50.2507 
G01 X-8.0175 Y50.2507 
G01 X-8.0558 Y50.2891 
G01 X-8.0958 Y50.2293 
G01 X-8.2205 Y50.1046 
G01 X-8.3671 Y50.0066 
G01 X-8.4592 Y49.9684 
G01 X-8.5300 Y49.9391 
G01 X-8.5866 Y49.9279 
G01 X-8.7030 Y49.9047 
G01 X-12.1370 Y49.9047 
G01 X-12.1520 Y49.8998 
G01 X-12.2046 Y49.8936 
G01 X-12.2566 Y49.8833 
G01 X-12.2920 Y49.8833 
G01 X-12.3271 Y49.8791 
G01 X-12.3799 Y49.8833 
G01 X-12.4329 Y49.8833 
G01 X-12.4677 Y49.8902 
G01 X-12.5029 Y49.8929 
G01 X-12.5539 Y49.9073 
G01 X-12.6059 Y49.9177 
G01 X-12.6386 Y49.9312 
G01 X-12.6727 Y49.9408 
G01 X-12.7199 Y49.9649 
G01 X-12.7689 Y49.9852 
G01 X-12.7983 Y50.0048 
G01 X-12.8298 Y50.0209 
G01 X-12.8714 Y50.0537 
G01 X-12.9155 Y50.0831 
G01 X-12.9405 Y50.1082 
G01 X-12.9683 Y50.1301 
G01 X-13.0027 Y50.1704 
G01 X-13.0402 Y50.2079 
G01 X-13.0598 Y50.2373 
G01 X-13.0828 Y50.2642 
G01 X-13.1087 Y50.3104 
G01 X-13.1382 Y50.3545 
G01 X-13.1517 Y50.3872 
G01 X-13.1690 Y50.4180 
G01 X-13.1854 Y50.4684 
G01 X-13.2057 Y50.5174 
G01 X-13.2126 Y50.5521 
G01 X-13.2235 Y50.5858 
G01 X-13.2297 Y50.6384 
G01 X-13.2401 Y50.6904 
G01 X-13.2401 Y50.7258 
G01 X-13.2442 Y50.7609 
G01 X-13.2401 Y50.8137 
G01 X-13.2401 Y51.0760 
G01 X-13.3926 Y51.5456 
G01 X-13.5282 Y51.7322 
G01 X-13.5408 Y51.7448 
G01 X-13.5800 Y51.8035 
G01 X-13.6215 Y51.8605 
G01 X-13.6289 Y51.8766 
G01 X-13.6388 Y51.8914 
G01 X-13.6530 Y51.9257 
G01 X-13.6621 Y51.9299 
G01 X-13.7192 Y51.9714 
G01 X-13.7779 Y52.0107 
G01 X-13.7905 Y52.0232 
G01 X-14.0823 Y52.2352 
G01 X-14.5519 Y52.3878 
G01 X-15.3383 Y52.3878 
G01 X-15.8078 Y52.2352 
G01 X-16.2073 Y51.9450 
G01 X-16.4975 Y51.5456 
G01 X-16.6501 Y51.0760 
G01 X-16.6501 Y50.8137 
G01 X-16.6459 Y50.7609 
G01 X-16.6501 Y50.7258 
G01 X-16.6501 Y50.6904 
G01 X-16.6604 Y50.6384 
G01 X-16.6667 Y50.5857 
G01 X-16.6776 Y50.5521 
G01 X-16.6845 Y50.5174 
G01 X-16.7048 Y50.4684 
G01 X-16.7212 Y50.4180 
G01 X-16.7384 Y50.3872 
G01 X-16.7520 Y50.3545 
G01 X-16.7814 Y50.3104 
G01 X-16.8073 Y50.2641 
G01 X-16.8303 Y50.2372 
G01 X-16.8500 Y50.2078 
G01 X-16.8875 Y50.1703 
G01 X-16.9219 Y50.1300 
G01 X-16.9497 Y50.1082 
G01 X-16.9747 Y50.0831 
G01 X-17.0188 Y50.0537 
G01 X-17.0604 Y50.0209 
G01 X-17.0919 Y50.0048 
G01 X-17.1213 Y49.9852 
G01 X-17.1703 Y49.9649 
G01 X-17.2175 Y49.9408 
G01 X-17.2516 Y49.9312 
G01 X-17.2842 Y49.9177 
G01 X-17.3362 Y49.9073 
G01 X-17.3873 Y49.8929 
G01 X-17.4225 Y49.8902 
G01 X-17.4572 Y49.8833 
G01 X-17.5102 Y49.8833 
G01 X-17.5631 Y49.8791 
G01 X-17.5982 Y49.8833 
G01 X-17.6336 Y49.8833 
G01 X-17.6856 Y49.8936 
G01 X-17.7382 Y49.8999 
G01 X-17.7531 Y49.9047 
G01 X-18.1800 Y49.9047 
G01 X-18.5125 Y49.7670 
G01 X-22.1749 Y46.1046 
G01 X-22.3215 Y46.0066 
G01 X-22.4844 Y45.9391 
G01 X-22.6574 Y45.9047 
G01 X-25.2106 Y45.9047 
G01 X-25.3836 Y45.9391 
G01 X-25.5465 Y46.0066 
G01 X-25.6932 Y46.1046 
G01 X-25.8179 Y46.2293 
G01 X-25.8553 Y46.2667 
G01 X-26.9047 Y46.2667 
G01 X-27.6467 Y45.5247 
G01 X-27.6467 Y44.4753 
G01 X-26.9047 Y43.7333 
G01 X-25.8553 Y43.7333 
G01 X-25.6932 Y43.8954 
G01 X-25.5465 Y43.9934 
G01 X-25.3836 Y44.0609 
G01 X-25.2106 Y44.0953 
G01 X-21.8200 Y44.0953 
G01 X-21.4875 Y44.2330 
G01 X-21.0448 Y44.6758 
G01 X-19.3433 Y46.3772 
G01 X-19.2954 Y46.4291 
G01 X-19.2810 Y46.4395 
G01 X-19.2685 Y46.4520 
G01 X-19.2098 Y46.4913 
G01 X-19.1527 Y46.5328 
G01 X-19.1366 Y46.5402 
G01 X-19.1219 Y46.5500 
G01 X-19.0566 Y46.5770 
G01 X-18.9925 Y46.6066 
G01 X-18.9753 Y46.6107 
G01 X-18.9589 Y46.6175 
G01 X-18.8897 Y46.6313 
G01 X-18.8210 Y46.6478 
G01 X-18.8033 Y46.6485 
G01 X-18.7860 Y46.6519 
G01 X-18.7154 Y46.6519 
G01 X-18.6448 Y46.6547 
G01 X-18.6273 Y46.6519 
G01 X-18.6096 Y46.6519 
G01 X-18.5404 Y46.6382 
G01 X-18.4706 Y46.6271 
G01 X-18.4540 Y46.6210 
G01 X-18.4366 Y46.6175 
G01 X-18.3714 Y46.5905 
G01 X-18.3052 Y46.5661 
G01 X-18.2901 Y46.5568 
G01 X-18.2737 Y46.5500 
G01 X-18.2150 Y46.5108 
G01 X-18.1548 Y46.4739 
G01 X-18.1418 Y46.4619 
G01 X-18.1271 Y46.4520 
G01 X-18.0772 Y46.4022 
G01 X-18.0253 Y46.3542 
G01 X-18.0149 Y46.3399 
G01 X-18.0024 Y46.3273 
G01 X-17.9632 Y46.2687 
G01 X-17.8079 Y46.0550 
G01 X-17.4084 Y45.7647 
G01 X-16.9389 Y45.6122 
G01 X-16.1525 Y45.6122 
G01 X-15.6829 Y45.7647 
G01 X-15.5140 Y45.8875 
G01 X-15.4881 Y45.9115 
G01 X-15.4429 Y45.9392 
G01 X-15.4000 Y45.9703 
G01 X-15.3679 Y45.9851 
G01 X-15.3377 Y46.0036 
G01 X-15.2879 Y46.0220 
G01 X-15.2398 Y46.0442 
G01 X-15.2054 Y46.0524 
G01 X-15.1722 Y46.0647 
G01 X-15.1199 Y46.0730 
G01 X-15.0683 Y46.0853 
G01 X-15.0330 Y46.0867 
G01 X-14.9980 Y46.0923 
G01 X-14.9451 Y46.0902 
G01 X-14.8921 Y46.0923 
G01 X-14.8572 Y46.0867 
G01 X-14.8218 Y46.0853 
G01 X-14.7703 Y46.0730 
G01 X-14.7179 Y46.0647 
G01 X-14.6847 Y46.0524 
G01 X-14.6503 Y46.0442 
G01 X-14.6022 Y46.0220 
G01 X-14.5525 Y46.0036 
G01 X-14.5223 Y45.9851 
G01 X-14.4902 Y45.9703 
G01 X-14.4473 Y45.9392 
G01 X-14.4021 Y45.9115 
G01 X-14.3761 Y45.8875 
G01 X-14.2072 Y45.7647 
G01 X-13.7376 Y45.6122 
G01 X-13.3118 Y45.6122 
G01 X-13.1388 Y45.5778 
G01 X-12.9759 Y45.5103 
G01 X-12.8293 Y45.4123 
G01 X-12.7046 Y45.2876 
G01 X-12.6066 Y45.1410 
G01 X-12.5391 Y44.9780 
G01 X-12.5047 Y44.8051 
G01 X-12.5047 Y42.0496 
G01 X-12.4279 Y41.8641 
G01 X-12.2859 Y41.7221 
G01 X-12.1004 Y41.6453 
G01 X-9.4330 Y41.6453 
G01 X-9.3882 Y41.6542 
G01 X-9.3010 Y41.6542 
G01 X-9.2119 Y41.6542 
G01 X-9.1101 Y41.6340 
G01 X-9.0389 Y41.6198 
G01 X-8.9347 Y41.5766 
G01 X-8.8759 Y41.5523 
G01 X-8.7842 Y41.4911 
G01 X-8.7293 Y41.4544 
G01 X-8.6468 Y41.3719 
G01 X-8.6046 Y41.3297 
G01 X-8.5358 Y41.2267 
G01 X-8.5066 Y41.1830 
G01 X-8.4651 Y41.0828 
G01 X-8.4391 Y41.0201 
G01 X-8.4235 Y40.9415 
G01 X-8.4047 Y40.8471 
G01 X-8.4047 Y40.7599 
G01 X-8.4047 Y40.6708 
G01 X-8.4047 Y40.1574 
G01 X-8.4391 Y39.9844 
G01 X-8.5066 Y39.8215 
G01 X-8.6046 Y39.6749 
G01 X-8.7293 Y39.5502 
G01 X-11.1749 Y37.1046 
G01 X-11.3215 Y37.0066 
G01 X-11.4844 Y36.9391 
G01 X-11.6574 Y36.9047 
G01 X-18.9491 Y36.9047 
G01 X-19.1122 Y36.9372 
G01 X-19.1220 Y36.9391 
G01 X-19.2850 Y37.0066 
G01 X-19.3356 Y37.0404 
G01 X-19.4316 Y37.1046 
G01 X-19.5544 Y37.2273 
G01 X-19.6504 Y37.3700 
G01 X-19.6543 Y37.3759 
G01 X-19.7076 Y37.5047 
G01 X-20.6194 Y37.5047 
G01 X-21.2193 Y38.1047 
G01 X-21.7806 Y38.1047 
G01 X-22.3806 Y37.5047 
G01 X-23.6194 Y37.5047 
G01 X-24.2193 Y38.1047 
G01 X-24.7806 Y38.1047 
G01 X-25.3806 Y37.5047 
G01 X-26.2923 Y37.5047 
G01 X-26.3437 Y37.3806 
G01 X-26.3457 Y37.3759 
G01 X-26.4437 Y37.2293 
G01 X-26.5684 Y37.1046 
G01 X-26.6683 Y37.0378 
G01 X-26.7150 Y37.0066 
G01 X-26.8746 Y36.9405 
G01 X-26.8779 Y36.9391 
G01 X-27.0509 Y36.9047 
G01 X-32.1800 Y36.9047 
G01 X-32.5125 Y36.7670 
G01 X-36.3266 Y32.9529 
G01 X-36.6293 Y32.6502 
G01 X-36.6805 Y32.6159 
G01 X-36.7759 Y32.5522 
G01 X-36.9388 Y32.4847 
G01 X-37.0241 Y32.4677 
G01 X-37.1118 Y32.4503 
G01 X-37.2882 Y32.4503 
G01 X-37.3716 Y32.4669 
G01 X-37.4611 Y32.4847 
G01 X-37.5519 Y32.5223 
G01 X-37.6241 Y32.5522 
G01 X-37.6715 Y32.5838 
G01 X-37.7707 Y32.6501 
G01 X-37.8954 Y32.7748 
G01 X-37.9297 Y32.8261 
G01 X-37.9934 Y32.9215 
G01 X-38.0609 Y33.0844 
G01 X-38.0778 Y33.1697 
G01 X-38.0953 Y33.2574 
G01 X-38.0953 Y44.1800 
G01 X-38.2559 Y44.5678 
G01 X-38.3217 Y44.7266 
G01 X-38.3234 Y44.7307 
G01 X-38.3578 Y44.9037 
G01 X-38.3578 Y45.0800 
G01 X-38.3234 Y45.2530 
G01 X-38.2579 Y45.4112 
G01 X-38.2559 Y45.4160 
G01 X-38.1580 Y45.5626 
G01 X-38.0333 Y45.6873 
G01 X-37.2330 Y46.4875 
G01 X-37.0953 Y46.8200 
G01 X-37.0953 Y60.1800 
G01 X-37.2330 Y60.5125 
G01 X-37.6758 Y60.9552 
G01 X-39.3775 Y62.6570 
G01 X-39.7100 Y62.7947 
G01 X-78.7373 Y62.7947 
G01 X-78.8505 Y62.8172 
G01 X-78.9103 Y62.8291 
G01 X-78.9479 Y62.8447 
G01 X-79.0732 Y62.8966 
G01 X-79.2199 Y62.9946 
G01 X-79.3446 Y63.1193 
G01 X-79.4425 Y63.2659 
G01 X-79.5100 Y63.4288 
G01 X-79.5183 Y63.4705 
G01 X-79.5444 Y63.6018 
G01 X-79.5444 Y63.6120 
G01 X-79.8322 Y63.5837 
G01 X-80.1678 Y63.5837 
G01 X-80.4556 Y63.6120 
G01 X-80.4556 Y63.6018 
G01 X-80.4725 Y63.5168 
G01 X-80.4900 Y63.4289 
G01 X-80.4996 Y63.4056 
G01 X-80.5574 Y63.2659 
G01 X-80.6221 Y63.1692 
G01 X-80.6554 Y63.1193 
G01 X-80.7168 Y63.0579 
G01 X-80.7801 Y62.9946 
G01 X-80.8490 Y62.9485 
G01 X-80.9268 Y62.8966 
G01 X-81.0210 Y62.8576 
G01 X-81.0897 Y62.8291 
G01 X-81.1175 Y62.8236 
G01 X-81.2627 Y62.7947 
G01 X-88.3637 Y62.7947 
G01 X-88.5366 Y62.8291 
G01 X-88.6996 Y62.8966 
G01 X-88.8462 Y62.9946 
G01 X-88.9709 Y63.1193 
G01 X-89.0954 Y63.2438 
G01 X-89.6824 Y63.4869 
G01 X-89.9222 Y63.4869 
G01 X-90.0952 Y63.5213 
G01 X-90.2581 Y63.5888 
G01 X-90.4047 Y63.6868 
G01 X-90.5294 Y63.8115 
G01 X-90.6274 Y63.9581 
G01 X-90.6949 Y64.1210 
G01 X-90.7293 Y64.2940 
G01 X-90.7293 Y66.1636 
G01 X-90.8086 Y66.3550 
G01 X-90.9550 Y66.5014 
G01 X-91.1464 Y66.5807 
G01 X-94.3536 Y66.5807 
G01 X-94.5450 Y66.5014 
G01 X-94.6914 Y66.3550 
G01 X-94.7707 Y66.1636 
G01 X-94.7707 Y64.2814 
G01 X-94.6914 Y64.0900 
G01 X-94.5450 Y63.9436 
G01 X-94.3536 Y63.8643 
G01 X-92.1624 Y63.8643 
G01 X-91.9894 Y63.8299 
G01 X-91.8776 Y63.7835 
G01 X-91.8265 Y63.7624 
G01 X-91.7556 Y63.7150 
G01 X-91.6799 Y63.6644 
G01 X-91.5552 Y63.5397 
G01 X-91.5240 Y63.4930 
G01 X-91.4572 Y63.3931 
G01 X-91.4081 Y63.2745 
G01 X-91.3897 Y63.2301 
G01 X-91.3643 Y63.1026 
G01 X-91.3553 Y63.0572 
G01 X-91.3553 Y62.8808 
G01 X-91.3897 Y62.7078 
G01 X-91.4338 Y62.6015 
G01 X-91.4572 Y62.5449 
G01 X-91.5969 Y62.2076 
G01 X-91.5969 Y61.5724 
G01 X-91.3538 Y60.9854 
G01 X-90.9046 Y60.5362 
G01 X-90.3176 Y60.2931 
G01 X-89.6824 Y60.2931 
G01 X-89.0954 Y60.5362 
G01 X-88.8462 Y60.7854 
G01 X-88.6996 Y60.8834 
G01 X-88.5366 Y60.9509 
G01 X-88.3637 Y60.9853 
G01 X-40.5474 Y60.9853 
G01 X-40.3744 Y60.9509 
G01 X-40.2115 Y60.8834 
G01 X-40.0649 Y60.7854 
G01 X-39.9402 Y60.6607 
G01 X-39.1046 Y59.8251 
G01 X-39.0066 Y59.6785 
G01 X-38.9391 Y59.5156 
G01 X-38.9047 Y59.3426 
G01 X-38.9047 Y54.1493 
G01 X-38.9372 Y53.9862 
G01 X-38.9391 Y53.9764 
G01 X-39.0066 Y53.8134 
G01 X-39.1046 Y53.6668 
G01 X-39.2293 Y53.5421 
G01 X-39.3740 Y53.4454 
G01 X-39.5388 Y53.3766 
G01 X-39.7118 Y53.3422 
G01 X-39.8882 Y53.3422 
G01 X-40.0513 Y53.3747 
G01 X-40.0611 Y53.3766 
G01 X-40.2241 Y53.4441 
G01 X-40.3707 Y53.5421 
G01 X-40.4954 Y53.6668 
G01 X-41.0953 Y54.2667 
G01 X-42.1447 Y54.2667 
G01 X-42.1821 Y54.2293 
G01 X-42.2992 Y54.1122 
G01 X-42.3068 Y54.1046 
G01 X-42.4534 Y54.0066 
G01 X-42.5469 Y53.9679 
G01 X-42.6164 Y53.9391 
G01 X-42.7893 Y53.9047 
G01 X-47.4063 Y53.9047 
G01 X-47.8759 Y53.7521 
G01 X-48.2753 Y53.4619 
G01 X-48.5644 Y53.0641 
G01 X-48.5703 Y53.0345 
G01 X-48.5905 Y52.9855 
G01 X-48.6069 Y52.9351 
G01 X-48.6242 Y52.9043 
G01 X-48.6377 Y52.8716 
G01 X-48.6672 Y52.8275 
G01 X-48.6931 Y52.7812 
G01 X-48.7161 Y52.7543 
G01 X-48.7357 Y52.7249 
G01 X-48.7732 Y52.6875 
G01 X-48.8076 Y52.6471 
G01 X-48.8354 Y52.6252 
G01 X-48.8604 Y52.6002 
G01 X-48.9045 Y52.5708 
G01 X-48.9461 Y52.5380 
G01 X-48.9776 Y52.5219 
G01 X-49.0071 Y52.5022 
G01 X-49.0560 Y52.4819 
G01 X-49.1033 Y52.4579 
G01 X-49.1373 Y52.4483 
G01 X-49.1700 Y52.4347 
G01 X-49.2220 Y52.4244 
G01 X-49.2730 Y52.4100 
G01 X-49.3083 Y52.4072 
G01 X-49.3430 Y52.4003 
G01 X-49.3960 Y52.4003 
G01 X-49.4488 Y52.3962 
G01 X-49.4839 Y52.4003 
G01 X-50.4786 Y52.4003 
G01 X-50.6515 Y52.4347 
G01 X-50.8145 Y52.5022 
G01 X-50.9611 Y52.6002 
G01 X-51.0858 Y52.7249 
G01 X-51.1838 Y52.8716 
G01 X-51.2513 Y53.0345 
G01 X-51.2857 Y53.2075 
G01 X-51.2857 Y54.0972 
G01 X-51.4382 Y54.5668 
G01 X-51.7285 Y54.9663 
G01 X-52.1279 Y55.2565 
G01 X-52.5975 Y55.4091 
G01 X-56.1602 Y55.4091 
G01 X-56.6298 Y55.2565 
G01 X-57.0292 Y54.9663 
G01 X-57.3195 Y54.5668 
G01 X-57.4720 Y54.0972 
G01 X-57.4720 Y53.2075 
G01 X-57.5064 Y53.0345 
G01 X-57.5739 Y52.8716 
G01 X-57.6719 Y52.7249 
G01 X-57.7966 Y52.6002 
G01 X-57.9432 Y52.5022 
G01 X-58.1062 Y52.4347 
G01 X-58.2791 Y52.4003 
G01 X-59.2325 Y52.4003 
G01 X-59.4054 Y52.4347 
G01 X-59.5684 Y52.5022 
G01 X-59.7150 Y52.6002 
G01 X-59.8397 Y52.7249 
G01 X-59.9377 Y52.8716 
G01 X-60.0052 Y53.0345 
G01 X-60.0396 Y53.2075 
G01 X-60.0396 Y54.0972 
G01 X-60.1922 Y54.5668 
G01 X-60.4824 Y54.9663 
G01 X-60.8818 Y55.2565 
G01 X-61.3514 Y55.4091 
G01 X-64.9141 Y55.4091 
G01 X-65.3837 Y55.2565 
G01 X-65.7831 Y54.9663 
G01 X-66.0734 Y54.5668 
G01 X-66.2259 Y54.0972 
G01 X-66.2259 Y53.2075 
G01 X-66.2603 Y53.0345 
G01 X-66.3278 Y52.8716 
G01 X-66.4258 Y52.7249 
G01 X-66.5505 Y52.6002 
G01 X-66.6971 Y52.5022 
G01 X-66.8601 Y52.4347 
G01 X-67.0331 Y52.4003 
G01 X-67.9864 Y52.4003 
G01 X-68.1593 Y52.4347 
G01 X-68.3223 Y52.5022 
G01 X-68.4689 Y52.6002 
G01 X-68.5936 Y52.7249 
G01 X-68.6916 Y52.8716 
G01 X-68.7591 Y53.0345 
G01 X-68.7935 Y53.2075 
G01 X-68.7935 Y54.0972 
G01 X-68.9461 Y54.5668 
G01 X-69.2363 Y54.9663 
G01 X-69.6357 Y55.2565 
G01 X-70.1053 Y55.4091 
G01 X-73.6680 Y55.4091 
G01 X-74.1376 Y55.2565 
G01 X-74.5370 Y54.9663 
G01 X-74.8273 Y54.5668 
G01 X-74.9798 Y54.0972 
G01 X-74.9798 Y53.2075 
G01 X-75.0142 Y53.0345 
G01 X-75.0817 Y52.8716 
G01 X-75.1797 Y52.7249 
G01 X-75.3044 Y52.6002 
G01 X-75.4511 Y52.5022 
G01 X-75.6140 Y52.4347 
G01 X-75.7870 Y52.4003 
G01 X-76.7403 Y52.4003 
G01 X-76.9132 Y52.4347 
G01 X-77.0762 Y52.5022 
G01 X-77.2228 Y52.6002 
G01 X-77.3475 Y52.7249 
G01 X-77.4455 Y52.8716 
G01 X-77.5130 Y53.0345 
G01 X-77.5474 Y53.2075 
G01 X-77.5474 Y54.0972 
G01 X-77.7000 Y54.5668 
G01 X-77.9902 Y54.9663 
G01 X-78.3896 Y55.2565 
G01 X-78.8592 Y55.4091 
G01 X-82.4219 Y55.4091 
G01 X-82.8915 Y55.2565 
G01 X-83.2909 Y54.9663 
G01 X-83.5812 Y54.5668 
G01 X-83.7337 Y54.0972 
G01 X-83.7337 Y53.2075 
G01 X-83.7682 Y53.0345 
G01 X-83.8356 Y52.8716 
G01 X-83.9336 Y52.7249 
G01 X-84.0583 Y52.6002 
G01 X-84.2050 Y52.5022 
G01 X-84.3679 Y52.4347 
G01 X-84.5409 Y52.4003 
G01 X-85.5355 Y52.4003 
G01 X-85.5706 Y52.3962 
G01 X-85.6234 Y52.4003 
G01 X-85.6764 Y52.4003 
G01 X-85.7111 Y52.4072 
G01 X-85.7464 Y52.4100 
G01 X-85.7974 Y52.4244 
G01 X-85.8494 Y52.4347 
G01 X-85.8821 Y52.4483 
G01 X-85.9162 Y52.4579 
G01 X-85.9634 Y52.4819 
G01 X-86.0123 Y52.5022 
G01 X-86.0418 Y52.5219 
G01 X-86.0733 Y52.5379 
G01 X-86.1149 Y52.5708 
G01 X-86.1590 Y52.6002 
G01 X-86.1840 Y52.6252 
G01 X-86.2118 Y52.6471 
G01 X-86.2462 Y52.6874 
G01 X-86.2837 Y52.7249 
G01 X-86.3033 Y52.7543 
G01 X-86.3263 Y52.7812 
G01 X-86.3522 Y52.8275 
G01 X-86.3817 Y52.8716 
G01 X-86.3952 Y52.9042 
G01 X-86.4125 Y52.9351 
G01 X-86.4289 Y52.9855 
G01 X-86.4492 Y53.0345 
G01 X-86.4550 Y53.0641 
G01 X-86.7441 Y53.4619 
G01 X-86.7698 Y53.4806 
G01 X-86.8285 Y53.5198 
G01 X-86.8411 Y53.5324 
G01 X-86.8554 Y53.5428 
G01 X-86.9033 Y53.5946 
G01 X-86.9532 Y53.6445 
G01 X-86.9631 Y53.6593 
G01 X-86.9751 Y53.6723 
G01 X-87.0120 Y53.7325 
G01 X-87.0512 Y53.7912 
G01 X-87.0580 Y53.8075 
G01 X-87.0672 Y53.8226 
G01 X-87.0917 Y53.8888 
G01 X-87.1187 Y53.9541 
G01 X-87.1221 Y53.9715 
G01 X-87.1283 Y53.9881 
G01 X-87.1393 Y54.0578 
G01 X-87.1531 Y54.1271 
G01 X-87.1531 Y54.1448 
G01 X-87.1559 Y54.1623 
G01 X-87.1540 Y54.2098 
G01 X-87.3962 Y54.7946 
G01 X-87.8454 Y55.2438 
G01 X-88.4324 Y55.4869 
G01 X-89.0676 Y55.4869 
G01 X-89.6546 Y55.2438 
G01 X-90.1038 Y54.7946 
G01 X-90.3469 Y54.2076 
G01 X-90.3469 Y53.5724 
G01 X-90.3087 Y53.4801 
G01 X-90.2913 Y53.4382 
G01 X-90.2412 Y53.3171 
G01 X-90.2068 Y53.1442 
G01 X-90.2068 Y52.9678 
G01 X-90.2148 Y52.9273 
G01 X-90.2412 Y52.7948 
G01 X-90.2623 Y52.7438 
G01 X-90.3087 Y52.6319 
G01 X-90.3728 Y52.5359 
G01 X-90.4066 Y52.4853 
G01 X-90.5314 Y52.3606 
G01 X-90.6013 Y52.3139 
G01 X-90.6780 Y52.2626 
G01 X-90.7224 Y52.2442 
G01 X-90.8409 Y52.1951 
G01 X-91.0139 Y52.1607 
G01 X-94.3536 Y52.1607 
G01 X-94.5450 Y52.0814 
G01 X-94.6914 Y51.9350 
G01 X-94.7707 Y51.7436 
G01 X-94.7707 Y49.8364 
G01 X-94.6914 Y49.6450 
G01 X-94.5450 Y49.4986 
G01 X-94.3536 Y49.4193 
G01 X-91.1464 Y49.4193 
G01 X-90.9550 Y49.4986 
G01 X-90.8086 Y49.6450 
G01 X-90.7293 Y49.8364 
G01 X-90.7293 Y51.7297 
G01 X-90.6968 Y51.8928 
G01 X-90.6949 Y51.9026 
G01 X-90.6274 Y52.0656 
G01 X-90.5294 Y52.2122 
G01 X-90.4047 Y52.3369 
G01 X-90.2640 Y52.4309 
G01 X-90.2581 Y52.4349 
G01 X-90.0952 Y52.5024 
G01 X-89.9222 Y52.5368 
G01 X-89.7458 Y52.5368 
G01 X-89.5827 Y52.5043 
G01 X-89.5728 Y52.5024 
G01 X-89.4099 Y52.4349 
G01 X-89.0676 Y52.2931 
G01 X-88.9408 Y52.2931 
G01 X-88.9057 Y52.2973 
G01 X-88.8528 Y52.2931 
G01 X-88.7998 Y52.2931 
G01 X-88.7651 Y52.2862 
G01 X-88.7298 Y52.2834 
G01 X-88.6788 Y52.2690 
G01 X-88.6268 Y52.2587 
G01 X-88.5942 Y52.2452 
G01 X-88.5601 Y52.2356 
G01 X-88.5129 Y52.2115 
G01 X-88.4639 Y52.1912 
G01 X-88.4345 Y52.1715 
G01 X-88.4030 Y52.1555 
G01 X-88.3614 Y52.1227 
G01 X-88.3173 Y52.0932 
G01 X-88.2923 Y52.0682 
G01 X-88.2645 Y52.0463 
G01 X-88.2300 Y52.0060 
G01 X-88.1926 Y51.9685 
G01 X-88.1729 Y51.9391 
G01 X-88.1499 Y51.9122 
G01 X-88.1240 Y51.8659 
G01 X-88.0946 Y51.8219 
G01 X-88.0811 Y51.7892 
G01 X-88.0638 Y51.7583 
G01 X-88.0474 Y51.7079 
G01 X-88.0271 Y51.6589 
G01 X-88.0202 Y51.6242 
G01 X-87.9581 Y51.4332 
G01 X-87.6679 Y51.0337 
G01 X-87.2685 Y50.7435 
G01 X-86.7989 Y50.5909 
G01 X-83.2362 Y50.5909 
G01 X-82.7666 Y50.7435 
G01 X-82.3671 Y51.0337 
G01 X-82.0769 Y51.4332 
G01 X-81.9243 Y51.9028 
G01 X-81.9243 Y52.7925 
G01 X-81.8899 Y52.9655 
G01 X-81.8225 Y53.1284 
G01 X-81.7245 Y53.2751 
G01 X-81.5998 Y53.3998 
G01 X-81.4531 Y53.4978 
G01 X-81.2902 Y53.5652 
G01 X-81.1172 Y53.5997 
G01 X-80.1639 Y53.5997 
G01 X-79.9909 Y53.5652 
G01 X-79.8280 Y53.4978 
G01 X-79.6814 Y53.3998 
G01 X-79.5567 Y53.2751 
G01 X-79.4587 Y53.1284 
G01 X-79.3912 Y52.9655 
G01 X-79.3568 Y52.7925 
G01 X-79.3568 Y51.9028 
G01 X-79.2042 Y51.4332 
G01 X-78.9140 Y51.0337 
G01 X-78.5145 Y50.7435 
G01 X-78.0450 Y50.5909 
G01 X-74.4823 Y50.5909 
G01 X-74.0127 Y50.7435 
G01 X-73.6132 Y51.0337 
G01 X-73.3230 Y51.4332 
G01 X-73.1704 Y51.9028 
G01 X-73.1704 Y52.7925 
G01 X-73.1360 Y52.9655 
G01 X-73.0685 Y53.1284 
G01 X-72.9706 Y53.2751 
G01 X-72.8459 Y53.3998 
G01 X-72.6992 Y53.4978 
G01 X-72.5363 Y53.5652 
G01 X-72.3633 Y53.5997 
G01 X-71.4100 Y53.5997 
G01 X-71.2370 Y53.5652 
G01 X-71.0741 Y53.4978 
G01 X-70.9275 Y53.3998 
G01 X-70.8028 Y53.2751 
G01 X-70.7048 Y53.1284 
G01 X-70.6373 Y52.9655 
G01 X-70.6029 Y52.7925 
G01 X-70.6029 Y51.9028 
G01 X-70.4503 Y51.4332 
G01 X-70.1601 Y51.0337 
G01 X-69.7606 Y50.7435 
G01 X-69.2911 Y50.5909 
G01 X-65.7284 Y50.5909 
G01 X-65.2588 Y50.7435 
G01 X-64.8593 Y51.0337 
G01 X-64.5691 Y51.4332 
G01 X-64.4165 Y51.9028 
G01 X-64.4165 Y52.7925 
G01 X-64.3821 Y52.9655 
G01 X-64.3146 Y53.1284 
G01 X-64.2167 Y53.2751 
G01 X-64.0920 Y53.3998 
G01 X-63.9453 Y53.4978 
G01 X-63.7824 Y53.5652 
G01 X-63.6094 Y53.5997 
G01 X-62.6561 Y53.5997 
G01 X-62.4831 Y53.5652 
G01 X-62.3202 Y53.4978 
G01 X-62.1736 Y53.3998 
G01 X-62.0489 Y53.2751 
G01 X-61.9509 Y53.1284 
G01 X-61.8834 Y52.9655 
G01 X-61.8490 Y52.7925 
G01 X-61.8490 Y51.9028 
G01 X-61.6964 Y51.4332 
G01 X-61.4062 Y51.0337 
G01 X-61.0067 Y50.7435 
G01 X-60.5372 Y50.5909 
G01 X-56.9744 Y50.5909 
G01 X-56.5049 Y50.7435 
G01 X-56.1054 Y51.0337 
G01 X-55.8152 Y51.4332 
G01 X-55.6626 Y51.9028 
G01 X-55.6626 Y52.7925 
G01 X-55.6282 Y52.9655 
G01 X-55.5607 Y53.1284 
G01 X-55.4627 Y53.2751 
G01 X-55.3380 Y53.3998 
G01 X-55.1914 Y53.4978 
G01 X-55.0285 Y53.5652 
G01 X-54.8555 Y53.5997 
G01 X-53.9022 Y53.5997 
G01 X-53.7292 Y53.5652 
G01 X-53.5663 Y53.4978 
G01 X-53.4196 Y53.3998 
G01 X-53.2949 Y53.2751 
G01 X-53.1970 Y53.1284 
G01 X-53.1295 Y52.9655 
G01 X-53.0951 Y52.7925 
G01 X-53.0951 Y51.9028 
G01 X-52.9425 Y51.4332 
G01 X-52.6523 Y51.0337 
G01 X-52.2528 Y50.7435 
G01 X-51.7832 Y50.5909 
G01 X-48.2205 Y50.5909 
G01 X-47.7510 Y50.7435 
G01 X-47.4257 Y50.9798 
G01 X-47.4132 Y50.9924 
G01 X-47.3545 Y51.0316 
G01 X-47.2974 Y51.0731 
G01 X-47.2813 Y51.0805 
G01 X-47.2665 Y51.0903 
G01 X-47.2013 Y51.1173 
G01 X-47.1372 Y51.1469 
G01 X-47.1200 Y51.1510 
G01 X-47.1036 Y51.1578 
G01 X-47.0344 Y51.1716 
G01 X-46.9658 Y51.1881 
G01 X-46.9480 Y51.1888 
G01 X-46.9306 Y51.1922 
G01 X-46.8601 Y51.1922 
G01 X-46.7895 Y51.1950 
G01 X-46.7720 Y51.1922 
G01 X-46.7543 Y51.1922 
G01 X-46.6851 Y51.1784 
G01 X-46.6153 Y51.1674 
G01 X-46.5987 Y51.1613 
G01 X-46.5813 Y51.1578 
G01 X-46.5161 Y51.1308 
G01 X-46.4499 Y51.1064 
G01 X-46.4348 Y51.0971 
G01 X-46.4184 Y51.0903 
G01 X-46.3597 Y51.0511 
G01 X-46.2995 Y51.0142 
G01 X-46.2865 Y51.0022 
G01 X-46.2717 Y50.9923 
G01 X-46.2218 Y50.9424 
G01 X-46.1700 Y50.8945 
G01 X-46.1596 Y50.8802 
G01 X-46.1046 Y50.8251 
G01 X-46.0433 Y50.7334 
G01 X-46.0066 Y50.6785 
G01 X-45.9759 Y50.6045 
G01 X-45.9391 Y50.5156 
G01 X-45.9234 Y50.4365 
G01 X-45.9047 Y50.3426 
G01 X-45.9047 Y50.2534 
G01 X-45.9047 Y27.8200 
G01 X-45.7670 Y27.4875 
G01 X-45.3242 Y27.0448 
G01 X-43.5125 Y25.2330 
G01 X-43.1800 Y25.0953 
G01 X-42.7893 Y25.0953 
G01 X-42.6164 Y25.0609 
G01 X-42.5508 Y25.0337 
G01 X-42.4534 Y24.9934 
G01 X-42.3068 Y24.8954 
G01 X-42.1821 Y24.7707 
G01 X-42.1447 Y24.7333 
G01 X-40.7118 Y24.7333 
G01 X-40.5388 Y24.6989 
G01 X-40.3759 Y24.6314 
G01 X-40.2293 Y24.5334 
G01 X-40.1046 Y24.4087 
G01 X-40.0066 Y24.2621 
G01 X-39.9391 Y24.0992 
G01 X-39.9047 Y23.9262 
G01 X-39.9047 Y20.6574 
G01 X-39.9391 Y20.4844 
G01 X-40.0066 Y20.3215 
G01 X-40.1046 Y20.1749 
G01 X-40.2293 Y20.0502 
G01 X-40.8129 Y19.4666 
G01 X-40.9595 Y19.3686 
G01 X-41.1224 Y19.3011 
G01 X-41.2954 Y19.2667 
G01 X-42.1447 Y19.2667 
G01 X-42.8867 Y18.5247 
G01 X-42.8867 Y17.4753 
G01 X-42.7888 Y17.3774 
G01 X-42.7821 Y17.3707 
G01 X-42.7354 Y17.3008 
G01 X-42.6841 Y17.2241 
G01 X-42.6657 Y17.1797 
G01 X-42.6166 Y17.0612 
G01 X-42.5822 Y16.8882 
G01 X-42.5822 Y16.7118 
G01 X-42.5903 Y16.6713 
G01 X-42.6166 Y16.5389 
G01 X-42.6378 Y16.4878 
G01 X-42.6841 Y16.3759 
G01 X-42.7483 Y16.2799 
G01 X-42.7821 Y16.2293 
G01 X-42.9068 Y16.1046 
G01 X-42.9767 Y16.0579 
G01 X-43.0534 Y16.0066 
G01 X-43.0978 Y15.9882 
G01 X-43.2164 Y15.9391 
G01 X-43.3893 Y15.9047 
G01 X-47.4005 Y15.9047 
G01 X-47.4431 Y15.9004 
G01 X-47.4885 Y15.9047 
G01 X-47.5341 Y15.9047 
G01 X-47.5761 Y15.9130 
G01 X-47.6187 Y15.9171 
G01 X-47.6624 Y15.9302 
G01 X-47.7071 Y15.9391 
G01 X-47.7466 Y15.9555 
G01 X-47.7876 Y15.9678 
G01 X-47.8279 Y15.9891 
G01 X-47.8700 Y16.0066 
G01 X-47.9056 Y16.0304 
G01 X-47.9434 Y16.0504 
G01 X-47.9787 Y16.0792 
G01 X-48.0166 Y16.1046 
G01 X-48.0469 Y16.1348 
G01 X-48.0801 Y16.1619 
G01 X-48.1091 Y16.1970 
G01 X-48.1414 Y16.2293 
G01 X-48.1651 Y16.2649 
G01 X-48.1924 Y16.2979 
G01 X-48.2140 Y16.3380 
G01 X-48.2393 Y16.3759 
G01 X-48.2557 Y16.4154 
G01 X-48.2760 Y16.4531 
G01 X-48.2894 Y16.4967 
G01 X-48.3068 Y16.5388 
G01 X-48.3152 Y16.5808 
G01 X-48.3277 Y16.6217 
G01 X-48.3323 Y16.6671 
G01 X-48.3412 Y16.7118 
G01 X-48.3412 Y16.7546 
G01 X-48.3456 Y16.7972 
G01 X-48.3412 Y16.8426 
G01 X-48.3412 Y16.8882 
G01 X-48.3329 Y16.9301 
G01 X-48.3288 Y16.9728 
G01 X-48.3157 Y17.0164 
G01 X-48.3068 Y17.0611 
G01 X-48.2904 Y17.1007 
G01 X-48.2781 Y17.1417 
G01 X-48.2568 Y17.1819 
G01 X-48.2393 Y17.2241 
G01 X-48.2156 Y17.2597 
G01 X-48.1955 Y17.2975 
G01 X-48.1667 Y17.3328 
G01 X-48.1414 Y17.3707 
G01 X-48.1111 Y17.4010 
G01 X-48.0840 Y17.4341 
G01 X-48.0489 Y17.4632 
G01 X-48.0166 Y17.4954 
G01 X-47.9811 Y17.5192 
G01 X-47.9481 Y17.5464 
G01 X-47.9079 Y17.5681 
G01 X-47.8700 Y17.5934 
G01 X-47.8305 Y17.6098 
G01 X-47.7928 Y17.6301 
G01 X-47.7492 Y17.6434 
G01 X-47.7071 Y17.6609 
G01 X-47.6984 Y17.6626 
G01 X-47.6737 Y17.6760 
G01 X-47.6357 Y17.7013 
G01 X-47.5962 Y17.7177 
G01 X-47.5585 Y17.7380 
G01 X-47.5149 Y17.7513 
G01 X-47.5049 Y17.7555 
G01 X-47.4904 Y17.7652 
G01 X-47.4770 Y17.7763 
G01 X-47.4701 Y17.7847 
G01 X-47.4447 Y17.8226 
G01 X-47.4145 Y17.8529 
G01 X-47.3875 Y17.8860 
G01 X-47.3523 Y17.9151 
G01 X-46.9151 Y18.3523 
G01 X-46.8860 Y18.3875 
G01 X-46.8529 Y18.4145 
G01 X-46.8226 Y18.4447 
G01 X-46.7847 Y18.4701 
G01 X-46.7763 Y18.4770 
G01 X-46.7652 Y18.4904 
G01 X-46.7555 Y18.5049 
G01 X-46.7513 Y18.5149 
G01 X-46.7380 Y18.5585 
G01 X-46.7177 Y18.5962 
G01 X-46.7013 Y18.6357 
G01 X-46.6760 Y18.6736 
G01 X-46.6708 Y18.6832 
G01 X-46.6657 Y18.6999 
G01 X-46.6623 Y18.7170 
G01 X-46.6623 Y18.7278 
G01 X-46.6666 Y18.7732 
G01 X-46.6623 Y18.8158 
G01 X-46.6623 Y18.8586 
G01 X-46.6534 Y18.9033 
G01 X-46.6523 Y18.9141 
G01 X-46.6540 Y18.9315 
G01 X-46.6574 Y18.9486 
G01 X-46.6819 Y19.0079 
G01 X-46.7025 Y19.1115 
G01 X-46.7163 Y19.1808 
G01 X-46.7163 Y19.2681 
G01 X-46.7163 Y19.3572 
G01 X-46.6895 Y19.4919 
G01 X-46.6819 Y19.5302 
G01 X-46.6339 Y19.6460 
G01 X-46.6144 Y19.6931 
G01 X-46.5362 Y19.8102 
G01 X-46.5165 Y19.8397 
G01 X-46.3927 Y19.9635 
G01 X-46.3048 Y20.0225 
G01 X-46.2451 Y20.0624 
G01 X-46.1857 Y20.0870 
G01 X-46.1713 Y20.0967 
G01 X-46.1579 Y20.1077 
G01 X-46.1510 Y20.1162 
G01 X-46.1257 Y20.1541 
G01 X-46.0954 Y20.1844 
G01 X-46.0684 Y20.2175 
G01 X-46.0332 Y20.2466 
G01 X-46.0255 Y20.2543 
G01 X-46.0158 Y20.2687 
G01 X-46.0077 Y20.2841 
G01 X-46.0045 Y20.2946 
G01 X-45.9956 Y20.3393 
G01 X-45.9793 Y20.3788 
G01 X-45.9670 Y20.4198 
G01 X-45.9456 Y20.4601 
G01 X-45.9414 Y20.4702 
G01 X-45.9380 Y20.4872 
G01 X-45.9364 Y20.5045 
G01 X-45.9375 Y20.5154 
G01 X-45.9464 Y20.5601 
G01 X-45.9464 Y20.6029 
G01 X-45.9507 Y20.6455 
G01 X-45.9464 Y20.6909 
G01 X-45.9464 Y21.3091 
G01 X-45.9507 Y21.3545 
G01 X-45.9464 Y21.3971 
G01 X-45.9464 Y21.4399 
G01 X-45.9375 Y21.4846 
G01 X-45.9364 Y21.4955 
G01 X-45.9380 Y21.5128 
G01 X-45.9414 Y21.5298 
G01 X-45.9456 Y21.5399 
G01 X-45.9670 Y21.5802 
G01 X-45.9793 Y21.6212 
G01 X-45.9956 Y21.6607 
G01 X-46.0045 Y21.7054 
G01 X-46.0077 Y21.7159 
G01 X-46.0158 Y21.7313 
G01 X-46.0255 Y21.7457 
G01 X-46.0332 Y21.7534 
G01 X-46.0684 Y21.7825 
G01 X-46.0954 Y21.8156 
G01 X-46.1257 Y21.8459 
G01 X-46.1510 Y21.8838 
G01 X-46.1579 Y21.8922 
G01 X-46.1713 Y21.9033 
G01 X-46.1857 Y21.9130 
G01 X-46.2451 Y21.9376 
G01 X-46.3036 Y21.9767 
G01 X-46.3917 Y22.0355 
G01 X-46.5164 Y22.1602 
G01 X-46.5346 Y22.1874 
G01 X-46.6144 Y22.3069 
G01 X-46.6333 Y22.3524 
G01 X-46.6819 Y22.4698 
G01 X-46.6887 Y22.5042 
G01 X-46.7163 Y22.6428 
G01 X-46.7163 Y22.7300 
G01 X-46.7163 Y22.8191 
G01 X-46.7029 Y22.8865 
G01 X-46.6819 Y22.9921 
G01 X-46.6574 Y23.0514 
G01 X-46.6540 Y23.0685 
G01 X-46.6523 Y23.0859 
G01 X-46.6534 Y23.0967 
G01 X-46.6623 Y23.1414 
G01 X-46.6623 Y23.1842 
G01 X-46.6666 Y23.2268 
G01 X-46.6623 Y23.2722 
G01 X-46.6623 Y23.2830 
G01 X-46.6657 Y23.3001 
G01 X-46.6708 Y23.3168 
G01 X-46.6760 Y23.3263 
G01 X-46.7013 Y23.3643 
G01 X-46.7177 Y23.4038 
G01 X-46.7380 Y23.4415 
G01 X-46.7513 Y23.4851 
G01 X-46.7555 Y23.4951 
G01 X-46.7652 Y23.5096 
G01 X-46.7763 Y23.5230 
G01 X-46.7847 Y23.5299 
G01 X-46.8226 Y23.5553 
G01 X-46.8529 Y23.5855 
G01 X-46.8860 Y23.6125 
G01 X-46.9151 Y23.6477 
G01 X-47.3523 Y24.0849 
G01 X-47.3875 Y24.1140 
G01 X-47.4145 Y24.1471 
G01 X-47.4447 Y24.1774 
G01 X-47.4701 Y24.2153 
G01 X-47.4770 Y24.2237 
G01 X-47.4904 Y24.2348 
G01 X-47.5049 Y24.2445 
G01 X-47.5149 Y24.2487 
G01 X-47.5585 Y24.2620 
G01 X-47.5962 Y24.2823 
G01 X-47.6357 Y24.2987 
G01 X-47.6737 Y24.3240 
G01 X-47.6832 Y24.3292 
G01 X-47.6999 Y24.3343 
G01 X-47.7170 Y24.3377 
G01 X-47.7278 Y24.3377 
G01 X-47.7732 Y24.3334 
G01 X-47.8158 Y24.3377 
G01 X-47.8586 Y24.3377 
G01 X-47.9033 Y24.3466 
G01 X-47.9141 Y24.3477 
G01 X-47.9315 Y24.3460 
G01 X-47.9485 Y24.3426 
G01 X-48.0079 Y24.3181 
G01 X-48.1808 Y24.2837 
G01 X-48.2680 Y24.2837 
G01 X-48.3572 Y24.2837 
G01 X-48.5302 Y24.3181 
G01 X-48.6931 Y24.3856 
G01 X-48.7660 Y24.4343 
G01 X-48.8397 Y24.4835 
G01 X-48.9644 Y24.6082 
G01 X-48.9952 Y24.6543 
G01 X-49.0624 Y24.7549 
G01 X-49.0771 Y24.7904 
G01 X-49.0870 Y24.8142 
G01 X-49.0967 Y24.8287 
G01 X-49.1078 Y24.8421 
G01 X-49.1162 Y24.8490 
G01 X-49.1541 Y24.8743 
G01 X-49.1844 Y24.9046 
G01 X-49.2175 Y24.9316 
G01 X-49.2466 Y24.9668 
G01 X-49.2543 Y24.9745 
G01 X-49.2687 Y24.9842 
G01 X-49.2841 Y24.9923 
G01 X-49.2946 Y24.9955 
G01 X-49.3393 Y25.0043 
G01 X-49.3788 Y25.0207 
G01 X-49.4198 Y25.0330 
G01 X-49.4601 Y25.0544 
G01 X-49.4701 Y25.0586 
G01 X-49.4872 Y25.0619 
G01 X-49.5045 Y25.0636 
G01 X-49.5154 Y25.0625 
G01 X-49.5601 Y25.0536 
G01 X-49.6029 Y25.0536 
G01 X-49.6455 Y25.0493 
G01 X-49.6909 Y25.0536 
G01 X-50.3091 Y25.0536 
G01 X-50.3545 Y25.0493 
G01 X-50.3971 Y25.0536 
G01 X-50.4399 Y25.0536 
G01 X-50.4846 Y25.0625 
G01 X-50.4955 Y25.0636 
G01 X-50.5128 Y25.0619 
G01 X-50.5298 Y25.0586 
G01 X-50.5399 Y25.0544 
G01 X-50.5802 Y25.0330 
G01 X-50.6212 Y25.0207 
G01 X-50.6607 Y25.0043 
G01 X-50.7054 Y24.9955 
G01 X-50.7159 Y24.9923 
G01 X-50.7313 Y24.9842 
G01 X-50.7457 Y24.9745 
G01 X-50.7534 Y24.9668 
G01 X-50.7825 Y24.9316 
G01 X-50.8156 Y24.9046 
G01 X-50.8459 Y24.8743 
G01 X-50.8838 Y24.8490 
G01 X-50.8922 Y24.8421 
G01 X-50.9033 Y24.8287 
G01 X-50.9130 Y24.8142 
G01 X-50.9218 Y24.7930 
G01 X-50.9376 Y24.7549 
G01 X-51.0022 Y24.6582 
G01 X-51.0356 Y24.6082 
G01 X-51.1583 Y24.4855 
G01 X-51.2325 Y24.4353 
G01 X-51.3069 Y24.3856 
G01 X-51.4698 Y24.3181 
G01 X-51.6418 Y24.2839 
G01 X-51.7300 Y24.2837 
G01 X-51.8192 Y24.2837 
G01 X-51.9921 Y24.3181 
G01 X-52.0515 Y24.3426 
G01 X-52.0685 Y24.3460 
G01 X-52.0859 Y24.3477 
G01 X-52.0967 Y24.3466 
G01 X-52.1414 Y24.3377 
G01 X-52.1842 Y24.3377 
G01 X-52.2268 Y24.3334 
G01 X-52.2722 Y24.3377 
G01 X-52.2830 Y24.3377 
G01 X-52.3001 Y24.3343 
G01 X-52.3168 Y24.3292 
G01 X-52.3263 Y24.3240 
G01 X-52.3643 Y24.2987 
G01 X-52.4038 Y24.2823 
G01 X-52.4415 Y24.2620 
G01 X-52.4851 Y24.2487 
G01 X-52.4951 Y24.2445 
G01 X-52.5096 Y24.2348 
G01 X-52.5230 Y24.2237 
G01 X-52.5299 Y24.2153 
G01 X-52.5553 Y24.1774 
G01 X-52.5855 Y24.1471 
G01 X-52.6125 Y24.1140 
G01 X-52.6477 Y24.0849 
G01 X-53.0849 Y23.6477 
G01 X-53.1140 Y23.6125 
G01 X-53.1471 Y23.5855 
G01 X-53.1774 Y23.5553 
G01 X-53.2153 Y23.5299 
G01 X-53.2237 Y23.5230 
G01 X-53.2348 Y23.5096 
G01 X-53.2445 Y23.4951 
G01 X-53.2487 Y23.4851 
G01 X-53.2620 Y23.4415 
G01 X-53.2823 Y23.4038 
G01 X-53.2987 Y23.3643 
G01 X-53.3240 Y23.3263 
G01 X-53.3292 Y23.3168 
G01 X-53.3343 Y23.3001 
G01 X-53.3377 Y23.2830 
G01 X-53.3377 Y23.2722 
G01 X-53.3334 Y23.2268 
G01 X-53.3377 Y23.1842 
G01 X-53.3377 Y23.1414 
G01 X-53.3466 Y23.0967 
G01 X-53.3477 Y23.0859 
G01 X-53.3460 Y23.0685 
G01 X-53.3426 Y23.0514 
G01 X-53.3181 Y22.9921 
G01 X-53.2975 Y22.8885 
G01 X-53.2837 Y22.8192 
G01 X-53.2837 Y22.7319 
G01 X-53.2837 Y22.6428 
G01 X-53.3105 Y22.5081 
G01 X-53.3181 Y22.4698 
G01 X-53.3661 Y22.3540 
G01 X-53.3856 Y22.3069 
G01 X-53.4638 Y22.1898 
G01 X-53.4835 Y22.1603 
G01 X-53.6073 Y22.0365 
G01 X-53.6952 Y21.9775 
G01 X-53.7549 Y21.9376 
G01 X-53.8142 Y21.9130 
G01 X-53.8287 Y21.9033 
G01 X-53.8421 Y21.8923 
G01 X-53.8490 Y21.8838 
G01 X-53.8743 Y21.8459 
G01 X-53.9046 Y21.8156 
G01 X-53.9316 Y21.7825 
G01 X-53.9668 Y21.7534 
G01 X-53.9745 Y21.7457 
G01 X-53.9842 Y21.7313 
G01 X-53.9923 Y21.7159 
G01 X-53.9955 Y21.7054 
G01 X-54.0043 Y21.6607 
G01 X-54.0207 Y21.6212 
G01 X-54.0330 Y21.5802 
G01 X-54.0544 Y21.5399 
G01 X-54.0586 Y21.5298 
G01 X-54.0619 Y21.5128 
G01 X-54.0636 Y21.4955 
G01 X-54.0625 Y21.4846 
G01 X-54.0536 Y21.4399 
G01 X-54.0536 Y21.3971 
G01 X-54.0493 Y21.3545 
G01 X-54.0536 Y21.3091 
G01 X-54.0536 Y20.6909 
G01 X-54.0493 Y20.6455 
G01 X-54.0536 Y20.6029 
G01 X-54.0536 Y20.5601 
G01 X-54.0625 Y20.5154 
G01 X-54.0636 Y20.5045 
G01 X-54.0619 Y20.4872 
G01 X-54.0586 Y20.4702 
G01 X-54.0544 Y20.4601 
G01 X-54.0330 Y20.4198 
G01 X-54.0207 Y20.3788 
G01 X-54.0043 Y20.3393 
G01 X-53.9954 Y20.2946 
G01 X-53.9923 Y20.2841 
G01 X-53.9842 Y20.2687 
G01 X-53.9745 Y20.2543 
G01 X-53.9668 Y20.2466 
G01 X-53.9316 Y20.2175 
G01 X-53.9046 Y20.1844 
G01 X-53.8743 Y20.1541 
G01 X-53.8490 Y20.1162 
G01 X-53.8421 Y20.1077 
G01 X-53.8287 Y20.0967 
G01 X-53.8142 Y20.0870 
G01 X-53.7549 Y20.0624 
G01 X-53.6963 Y20.0233 
G01 X-53.6083 Y19.9645 
G01 X-53.4836 Y19.8398 
G01 X-53.4654 Y19.8125 
G01 X-53.3856 Y19.6931 
G01 X-53.3667 Y19.6476 
G01 X-53.3181 Y19.5302 
G01 X-53.3112 Y19.4958 
G01 X-53.2837 Y19.3572 
G01 X-53.2837 Y19.2700 
G01 X-53.2837 Y19.1809 
G01 X-53.2971 Y19.1135 
G01 X-53.3181 Y19.0079 
G01 X-53.3426 Y18.9486 
G01 X-53.3460 Y18.9315 
G01 X-53.3477 Y18.9141 
G01 X-53.3466 Y18.9033 
G01 X-53.3377 Y18.8586 
G01 X-53.3377 Y18.8158 
G01 X-53.3334 Y18.7732 
G01 X-53.3377 Y18.7278 
G01 X-53.3377 Y18.7170 
G01 X-53.3343 Y18.6999 
G01 X-53.3292 Y18.6832 
G01 X-53.3240 Y18.6736 
G01 X-53.2987 Y18.6357 
G01 X-53.2823 Y18.5962 
G01 X-53.2620 Y18.5585 
G01 X-53.2487 Y18.5149 
G01 X-53.2445 Y18.5049 
G01 X-53.2348 Y18.4904 
G01 X-53.2237 Y18.4770 
G01 X-53.2153 Y18.4701 
G01 X-53.1774 Y18.4447 
G01 X-53.1471 Y18.4145 
G01 X-53.1140 Y18.3875 
G01 X-53.0849 Y18.3523 
G01 X-52.6477 Y17.9151 
G01 X-52.6125 Y17.8860 
G01 X-52.5855 Y17.8529 
G01 X-52.5553 Y17.8226 
G01 X-52.5299 Y17.7847 
G01 X-52.5230 Y17.7763 
G01 X-52.5096 Y17.7652 
G01 X-52.4951 Y17.7555 
G01 X-52.4851 Y17.7513 
G01 X-52.4415 Y17.7380 
G01 X-52.4038 Y17.7177 
G01 X-52.3643 Y17.7013 
G01 X-52.3263 Y17.6760 
G01 X-52.3015 Y17.6626 
G01 X-52.2929 Y17.6609 
G01 X-52.2508 Y17.6434 
G01 X-52.2072 Y17.6301 
G01 X-52.1695 Y17.6098 
G01 X-52.1300 Y17.5934 
G01 X-52.0921 Y17.5681 
G01 X-52.0519 Y17.5464 
G01 X-52.0189 Y17.5192 
G01 X-51.9833 Y17.4954 
G01 X-51.9511 Y17.4632 
G01 X-51.9160 Y17.4341 
G01 X-51.8889 Y17.4010 
G01 X-51.8586 Y17.3707 
G01 X-51.8333 Y17.3328 
G01 X-51.8045 Y17.2975 
G01 X-51.7844 Y17.2597 
G01 X-51.7607 Y17.2241 
G01 X-51.7432 Y17.1819 
G01 X-51.7218 Y17.1417 
G01 X-51.7096 Y17.1007 
G01 X-51.6932 Y17.0611 
G01 X-51.6843 Y17.0164 
G01 X-51.6712 Y16.9728 
G01 X-51.6671 Y16.9301 
G01 X-51.6588 Y16.8882 
G01 X-51.6588 Y16.8426 
G01 X-51.6544 Y16.7972 
G01 X-51.6588 Y16.7546 
G01 X-51.6588 Y16.7118 
G01 X-51.6677 Y16.6671 
G01 X-51.6723 Y16.6217 
G01 X-51.6848 Y16.5808 
G01 X-51.6932 Y16.5388 
G01 X-51.7106 Y16.4967 
G01 X-51.7240 Y16.4531 
G01 X-51.7443 Y16.4154 
G01 X-51.7607 Y16.3759 
G01 X-51.7860 Y16.3380 
G01 X-51.8076 Y16.2979 
G01 X-51.8349 Y16.2649 
G01 X-51.8586 Y16.2293 
G01 X-51.8909 Y16.1970 
G01 X-51.9199 Y16.1619 
G01 X-51.9531 Y16.1348 
G01 X-51.9833 Y16.1046 
G01 X-52.0213 Y16.0792 
G01 X-52.0566 Y16.0504 
G01 X-52.0944 Y16.0304 
G01 X-52.1300 Y16.0066 
G01 X-52.1721 Y15.9891 
G01 X-52.2124 Y15.9678 
G01 X-52.2534 Y15.9555 
G01 X-52.2929 Y15.9391 
G01 X-52.3376 Y15.9302 
G01 X-52.3813 Y15.9171 
G01 X-52.4239 Y15.9130 
G01 X-52.4659 Y15.9047 
G01 X-52.5115 Y15.9047 
G01 X-52.5569 Y15.9004 
G01 X-52.5987 Y15.9046 
G01 X-78.3426 Y15.9047 
G01 X-78.5156 Y15.9391 
G01 X-78.6785 Y16.0066 
G01 X-78.8251 Y16.1046 
G01 X-78.9498 Y16.2293 
G01 X-84.8954 Y22.1749 
G01 X-84.9934 Y22.3215 
G01 X-85.0609 Y22.4844 
G01 X-85.0953 Y22.6574 
G01 X-85.0953 Y32.1800 
G01 X-85.2330 Y32.5125 
G01 X-88.1695 Y35.4489 
G01 X-88.5235 Y35.8030 
G01 X-88.5871 Y35.8454 
G01 X-88.6920 Y35.9504 
G01 X-88.7118 Y35.9701 
G01 X-89.0954 Y36.3538 
G01 X-89.6824 Y36.5969 
G01 X-89.9222 Y36.5969 
G01 X-90.0952 Y36.6313 
G01 X-90.2581 Y36.6988 
G01 X-90.4047 Y36.7968 
G01 X-90.5294 Y36.9215 
G01 X-90.6274 Y37.0681 
G01 X-90.6949 Y37.2310 
G01 X-90.7293 Y37.4040 
G01 X-90.7293 Y39.0536 
G01 X-90.8086 Y39.2450 
G01 X-90.9550 Y39.3914 
G01 X-91.1464 Y39.4707 
G01 X-94.3536 Y39.4707 
G01 X-94.5450 Y39.3914 
G01 X-94.6914 Y39.2450 
G01 X-94.7707 Y39.0536 
G01 X-94.7707 Y37.1714 
G01 X-94.6914 Y36.9800 
G01 X-94.5450 Y36.8336 
G01 X-94.3536 Y36.7543 
G01 X-92.2535 Y36.7543 
G01 X-92.0806 Y36.7199 
G01 X-91.9687 Y36.6735 
G01 X-91.9176 Y36.6524 
G01 X-91.8467 Y36.6050 
G01 X-91.7710 Y36.5544 
G01 X-91.6463 Y36.4297 
G01 X-91.5483 Y36.2831 
G01 X-91.4992 Y36.1645 
G01 X-91.4808 Y36.1201 
G01 X-91.4605 Y36.0179 
G01 X-91.4464 Y35.9472 
G01 X-91.4464 Y35.7708 
G01 X-91.4808 Y35.5978 
G01 X-91.5226 Y35.4969 
G01 X-91.5483 Y35.4349 
G01 X-91.5969 Y35.3176 
G01 X-91.5969 Y34.6824 
G01 X-91.3538 Y34.0954 
G01 X-90.9046 Y33.6462 
G01 X-90.3176 Y33.4031 
G01 X-89.6824 Y33.4031 
G01 X-89.6095 Y33.4333 
G01 X-89.4508 Y33.4990 
G01 X-89.4466 Y33.5008 
G01 X-89.2736 Y33.5352 
G01 X-89.0973 Y33.5352 
G01 X-89.0875 Y33.5332 
G01 X-88.9243 Y33.5008 
G01 X-88.7661 Y33.4352 
G01 X-88.7614 Y33.4333 
G01 X-88.6147 Y33.3353 
G01 X-88.4900 Y33.2106 
G01 X-87.1046 Y31.8251 
G01 X-87.0066 Y31.6785 
G01 X-86.9391 Y31.5156 
G01 X-86.9047 Y31.3426 
G01 X-86.9047 Y29.2158 
G01 X-86.9391 Y29.0429 
G01 X-86.9854 Y28.9310 
G01 X-87.0066 Y28.8799 
G01 X-87.0540 Y28.8090 
G01 X-87.1046 Y28.7333 
G01 X-87.2293 Y28.6086 
G01 X-87.2760 Y28.5774 
G01 X-87.3759 Y28.5106 
G01 X-87.4945 Y28.4615 
G01 X-87.5388 Y28.4431 
G01 X-87.6664 Y28.4178 
G01 X-87.7118 Y28.4087 
G01 X-87.8882 Y28.4087 
G01 X-88.0611 Y28.4431 
G01 X-88.1669 Y28.4870 
G01 X-88.2241 Y28.5106 
G01 X-88.4324 Y28.5969 
G01 X-89.0676 Y28.5969 
G01 X-89.6546 Y28.3538 
G01 X-90.1038 Y27.9046 
G01 X-90.3469 Y27.3176 
G01 X-90.3469 Y26.6824 
G01 X-90.1034 Y26.0944 
G01 X-90.0066 Y25.9496 
G01 X-89.9391 Y25.7866 
G01 X-89.9047 Y25.6137 
G01 X-89.9047 Y20.8200 
G01 X-89.7670 Y20.4875 
G01 X-89.3423 Y20.0629 
G01 X-89.2756 Y19.9630 
G01 X-89.2444 Y19.9163 
G01 X-89.1783 Y19.7567 
G01 X-89.1769 Y19.7533 
G01 X-89.1425 Y19.5804 
G01 X-89.1425 Y19.4040 
G01 X-89.1769 Y19.2310 
G01 X-89.2444 Y19.0681 
G01 X-89.3085 Y18.9721 
G01 X-89.3423 Y18.9215 
G01 X-89.4671 Y18.7968 
G01 X-89.5670 Y18.7300 
G01 X-89.6137 Y18.6988 
G01 X-89.7733 Y18.6327 
G01 X-89.7766 Y18.6313 
G01 X-89.9496 Y18.5969 
G01 X-90.3176 Y18.5969 
G01 X-90.9046 Y18.3538 
G01 X-91.3538 Y17.9046 
G01 X-91.5969 Y17.3176 
G01 X-91.5969 Y16.6824 
G01 X-91.3538 Y16.0954 
G01 X-90.9046 Y15.6462 
G01 X-90.3176 Y15.4031 
G01 X-89.9652 Y15.4031 
G01 X-89.7922 Y15.3687 
G01 X-89.6293 Y15.3012 
G01 X-89.4827 Y15.2032 
G01 X-89.4227 Y15.1433 
G01 X-85.7749 Y11.4954 
G01 X-85.7101 Y11.4306 
G01 X-85.6501 Y11.3707 
G01 X-85.5522 Y11.2241 
G01 X-85.4847 Y11.0611 
G01 X-85.4503 Y10.8882 
G01 X-85.4503 Y10.7118 
G01 X-85.4522 Y10.7020 
G01 X-85.4847 Y10.5388 
G01 X-85.5502 Y10.3806 
G01 X-85.5522 Y10.3759 
G01 X-85.6501 Y10.2293 
G01 X-85.7749 Y10.1046 
G01 X-85.9215 Y10.0066 
G01 X-86.0844 Y9.9391  
G01 X-86.2574 Y9.9047  
G01 X-87.1137 Y9.9047  
G01 X-87.2866 Y9.9391  
G01 X-87.4496 Y10.0066 
G01 X-87.5962 Y10.1046 
G01 X-87.7209 Y10.2293 
G01 X-87.8454 Y10.3538 
G01 X-88.4324 Y10.5969 
G01 X-89.0676 Y10.5969 
G01 X-89.6546 Y10.3538 
G01 X-90.1038 Y9.9046  
G01 X-90.3469 Y9.3176  
G01 X-90.3469 Y8.6824  
G01 X-90.3087 Y8.5901  
G01 X-90.2913 Y8.5482  
G01 X-90.2412 Y8.4271  
G01 X-90.2068 Y8.2542  
G01 X-90.2068 Y8.0778  
G01 X-90.2148 Y8.0373  
G01 X-90.2412 Y7.9048  
G01 X-90.2623 Y7.8538  
G01 X-90.3087 Y7.7419  
G01 X-90.3728 Y7.6459  
G01 X-90.4066 Y7.5953  
G01 X-90.5314 Y7.4706  
G01 X-90.6013 Y7.4239  
G01 X-90.6780 Y7.3726  
G01 X-90.7224 Y7.3542  
G01 X-90.8409 Y7.3051  
G01 X-91.0139 Y7.2707  
G01 X-94.3536 Y7.2707  
G01 X-94.5450 Y7.1914  
G01 X-94.6914 Y7.0450  
G01 X-94.7707 Y6.8536  
G01 X-94.7707 Y4.9464  
G01 X-94.6914 Y4.7550  
G01 X-94.5450 Y4.6086  
G01 X-94.3536 Y4.5293  
G01 X-91.1464 Y4.5293  
G01 X-90.9550 Y4.6086  
G01 X-90.8086 Y4.7550  
G01 X-90.7293 Y4.9464  
G01 X-90.7293 Y6.8397  
G01 X-90.6968 Y7.0028  
G01 X-90.6949 Y7.0126  
G01 X-90.6274 Y7.1756  
G01 X-90.5294 Y7.3222  
G01 X-90.4047 Y7.4469  
G01 X-90.2640 Y7.5409  
G01 X-90.2581 Y7.5449  
G01 X-90.0952 Y7.6124  
G01 X-89.9222 Y7.6468  
G01 X-89.7458 Y7.6468  
G01 X-89.5827 Y7.6143  
G01 X-89.5728 Y7.6124  
G01 X-89.4099 Y7.5449  
G01 X-89.0676 Y7.4031  
G01 X-88.4324 Y7.4031  
G01 X-87.8454 Y7.6462  
G01 X-87.5962 Y7.8954  
G01 X-87.4496 Y7.9934  
G01 X-87.2866 Y8.0609  
G01 X-87.1137 Y8.0953  
G01 X-81.6410 Y8.0953  
G01 X-81.5970 Y8.0996  
G01 X-81.5531 Y8.0953  
G01 X-81.5089 Y8.0953  
G01 X-81.4655 Y8.0867  
G01 X-81.4215 Y8.0823  
G01 X-81.3792 Y8.0695  
G01 X-81.3359 Y8.0609  
G01 X-81.2951 Y8.0440  
G01 X-81.2528 Y8.0311  
G01 X-81.2138 Y8.0103  
G01 X-81.1730 Y7.9934  
G01 X-81.1362 Y7.9688  
G01 X-81.0972 Y7.9480  
G01 X-81.0631 Y7.9200  
G01 X-81.0263 Y7.8954  
G01 X-80.9951 Y7.8642  
G01 X-80.9609 Y7.8361  
G01 X-80.9329 Y7.8020  
G01 X-80.9016 Y7.7707  
G01 X-80.8771 Y7.7340  
G01 X-80.8490 Y7.6998  
G01 X-80.8282 Y7.6608  
G01 X-80.8036 Y7.6241  
G01 X-80.7867 Y7.5832  
G01 X-80.7659 Y7.5443  
G01 X-80.7531 Y7.5020  
G01 X-80.7362 Y7.4611  
G01 X-80.7275 Y7.4178  
G01 X-80.7147 Y7.3755  
G01 X-80.7114 Y7.3417  
G01 X-80.5019 Y7.3834  
G01 X-80.1678 Y7.4163  
G01 X-79.8322 Y7.4163  
G01 X-79.4981 Y7.3834  
G01 X-79.2886 Y7.3417  
G01 X-79.2853 Y7.3755  
G01 X-79.2725 Y7.4178  
G01 X-79.2638 Y7.4611  
G01 X-79.2469 Y7.5020  
G01 X-79.2341 Y7.5443  
G01 X-79.2133 Y7.5832  
G01 X-79.1963 Y7.6241  
G01 X-79.1718 Y7.6608  
G01 X-79.1510 Y7.6998  
G01 X-79.1229 Y7.7340  
G01 X-79.0984 Y7.7707  
G01 X-79.0671 Y7.8020  
G01 X-79.0391 Y7.8361  
G01 X-79.0049 Y7.8642  
G01 X-78.9737 Y7.8954  
G01 X-78.9369 Y7.9200  
G01 X-78.9028 Y7.9480  
G01 X-78.8638 Y7.9688  
G01 X-78.8270 Y7.9934  
G01 X-78.7862 Y8.0103  
G01 X-78.7472 Y8.0311  
G01 X-78.7049 Y8.0440  
G01 X-78.6641 Y8.0609  
G01 X-78.6208 Y8.0695  
G01 X-78.5785 Y8.0823  
G01 X-78.5345 Y8.0867  
G01 X-78.4911 Y8.0953  
G01 X-78.4469 Y8.0953  
G01 X-78.4030 Y8.0996  
G01 X-78.3590 Y8.0953  
G01 X-10.8200 Y8.0953  
G01 X-10.4875 Y8.2330  
G01 X-10.0448 Y8.6758  
G01 X-4.2330 Y14.4875 
G01 X-4.0953 Y14.8200 
G01 X-4.0953 Y18.3420 
G01 X-4.0609 Y18.5149 
G01 X-4.0337 Y18.5805 
G01 X-3.9934 Y18.6779 
G01 X-3.8954 Y18.8245 
G01 X-3.7707 Y18.9492 
G01 X-3.7413 Y18.9786 
G01 X-3.7413 Y20.0669 
G01 X-3.7475 Y20.0762 
G01 X-3.7857 Y20.1683 
G01 X-3.8150 Y20.2391 
G01 X-3.8262 Y20.2957 
G01 X-3.8494 Y20.4121 
G01 X-3.8494 Y20.5885 
G01 X-3.8224 Y20.7242 
G01 X-3.8150 Y20.7614 
G01 X-3.7842 Y20.8357 
G01 X-3.7475 Y20.9244 
G01 X-3.6495 Y21.0710 
G01 X-3.5248 Y21.1957 
G01 X-2.2330 Y22.4875 
G01 X-2.2094 Y22.5446 
G01 X-2.1448 Y22.6413 
G01 X-2.1114 Y22.6912 
G01 X-2.0501 Y22.7526 
G01 X-1.9867 Y22.8159 
G01 X-1.9178 Y22.8620 
G01 X-1.8401 Y22.9139 
G01 X-1.7459 Y22.9529 
G01 X-1.6772 Y22.9814 
G01 X-1.6493 Y22.9869 
G01 X-1.5042 Y23.0158 
G01 X-1.3278 Y23.0158 
G01 X-1.2428 Y22.9989 
G01 X-1.1549 Y22.9814 
G01 X-1.1316 Y22.9718 
G01 X-0.9919 Y22.9139 
G01 X-0.8952 Y22.8493 
G01 X-0.8453 Y22.8159 
G01 X-0.7839 Y22.7546 
G01 X-0.7206 Y22.6912 
G01 X-0.6745 Y22.6223 
G01 X-0.6226 Y22.5446 
G01 X-0.5836 Y22.4504 
G01 X-0.5551 Y22.3817 
G01 X-0.5496 Y22.3538 
G01 X-0.5207 Y22.2087 
G01 X-0.5207 Y6.3836  
G01 X-0.5375 Y6.2992  
G01 X-0.5551 Y6.2107  
G01 X-0.6226 Y6.0477  
G01 X-0.6889 Y5.9485  
G01 X-0.7206 Y5.9011  
G01 X-0.8433 Y5.7783  
G01 X-0.9406 Y5.7127  
G01 X-0.9919 Y5.6784  
G01 X-1.0177 Y5.6677  
G01 X-0.9080 Y5.4624  
G01 X-0.7795 Y5.1523  
G01 X-0.6821 Y4.8311  
G01 X-0.6166 Y4.5019  
G01 X-0.5837 Y4.1678  
G01 X-0.5837 Y3.8322  
G01 X-0.6166 Y3.4981  
G01 X-0.6821 Y3.1689  
G01 X-0.7795 Y2.8477  
G01 X-0.9080 Y2.5376  
G01 X-1.0662 Y2.2416  
G01 X-1.2527 Y1.9625  
G01 X-1.4656 Y1.7030  
G00 Z2.5400  
G00 X-1.5598 Y1.7884  
G01 Z-0.1778 F254   
G01 X-1.7884 Y1.5598  F508   
G01 X-2.0382 Y1.3548  
G01 X-2.3069 Y1.1753  
G01 X-2.5919 Y1.0229  
G01 X-2.8905 Y0.8992  
G01 X-3.1998 Y0.8054  
G01 X-3.5168 Y0.7424  
G01 X-3.8384 Y0.7107  
G01 X-4.1616 Y0.7107  
G01 X-4.4832 Y0.7424  
G01 X-4.8002 Y0.8054  
G01 X-5.1095 Y0.8992  
G01 X-5.4081 Y1.0229  
G01 X-5.6931 Y1.1753  
G01 X-5.7313 Y1.2008  
G01 X-5.7330 Y1.1919  
G01 X-5.7909 Y1.0521  
G01 X-5.8316 Y0.9912  
G01 X-5.8750 Y0.9262  
G01 X-5.9820 Y0.8192  
G01 X-6.1079 Y0.7351  
G01 X-6.2477 Y0.6772  
G01 X-6.3354 Y0.6598  
G01 X-6.3961 Y0.6477  
G01 X-77.6039 Y0.6477  
G01 X-77.6612 Y0.6591  
G01 X-77.7523 Y0.6772  
G01 X-77.8921 Y0.7351  
G01 X-78.0180 Y0.8192  
G01 X-78.1233 Y0.9246  
G01 X-78.1650 Y0.9862  
G01 X-78.2090 Y1.0521  
G01 X-78.2670 Y1.1919  
G01 X-78.2687 Y1.2008  
G01 X-78.3069 Y1.1753  
G01 X-78.5919 Y1.0229  
G01 X-78.8905 Y0.8992  
G01 X-79.1998 Y0.8054  
G01 X-79.5168 Y0.7424  
G01 X-79.8384 Y0.7107  
G01 X-80.1616 Y0.7107  
G01 X-80.4832 Y0.7424  
G01 X-80.8002 Y0.8054  
G01 X-81.1095 Y0.8992  
G01 X-81.4081 Y1.0229  
G01 X-81.6931 Y1.1753  
G01 X-81.7313 Y1.2008  
G01 X-81.7330 Y1.1919  
G01 X-81.7909 Y1.0521  
G01 X-81.8316 Y0.9912  
G01 X-81.8750 Y0.9262  
G01 X-81.9820 Y0.8192  
G01 X-82.1079 Y0.7351  
G01 X-82.2477 Y0.6772  
G01 X-82.3354 Y0.6598  
G01 X-82.3961 Y0.6477  
G01 X-95.9460 Y0.6477  
G01 X-95.9675 Y0.6447  
G01 X-96.0216 Y0.6477  
G01 X-96.0757 Y0.6477  
G01 X-96.0970 Y0.6519  
G01 X-96.3217 Y0.6645  
G01 X-96.3865 Y0.6664  
G01 X-96.3971 Y0.6688  
G01 X-96.4079 Y0.6694  
G01 X-96.4708 Y0.6856  
G01 X-96.9612 Y0.7975  
G01 X-96.9721 Y0.7982  
G01 X-97.0350 Y0.8144  
G01 X-97.0982 Y0.8288  
G01 X-97.1081 Y0.8332  
G01 X-97.1186 Y0.8360  
G01 X-97.1771 Y0.8641  
G01 X-97.2363 Y0.8906  
G01 X-97.2452 Y0.8969  
G01 X-97.6497 Y1.0917  
G01 X-97.6602 Y1.0947  
G01 X-97.7179 Y1.1245  
G01 X-97.7763 Y1.1527  
G01 X-97.7850 Y1.1592  
G01 X-97.7946 Y1.1642  
G01 X-97.8454 Y1.2047  
G01 X-97.8972 Y1.2437  
G01 X-97.9045 Y1.2518  
G01 X-98.2555 Y1.5317  
G01 X-98.2650 Y1.5370  
G01 X-98.3146 Y1.5789  
G01 X-98.3654 Y1.6193  
G01 X-98.3724 Y1.6276  
G01 X-98.3807 Y1.6346  
G01 X-98.4211 Y1.6854  
G01 X-98.4630 Y1.7350  
G01 X-98.4682 Y1.7445  
G01 X-98.7482 Y2.0955  
G01 X-98.7563 Y2.1028  
G01 X-98.7953 Y2.1546  
G01 X-98.8358 Y2.2054  
G01 X-98.8408 Y2.2150  
G01 X-98.8473 Y2.2237  
G01 X-98.8754 Y2.2821  
G01 X-98.9053 Y2.3398  
G01 X-98.9083 Y2.3503  
G01 X-99.1031 Y2.7548  
G01 X-99.1094 Y2.7637  
G01 X-99.1359 Y2.8229  
G01 X-99.1640 Y2.8814  
G01 X-99.1668 Y2.8919  
G01 X-99.1712 Y2.9018  
G01 X-99.1856 Y2.9650  
G01 X-99.2018 Y3.0279  
G01 X-99.2024 Y3.0388  
G01 X-99.3144 Y3.5292  
G01 X-99.3306 Y3.5920  
G01 X-99.3312 Y3.6029  
G01 X-99.3336 Y3.6135  
G01 X-99.3354 Y3.6783  
G01 X-99.3481 Y3.9030  
G01 X-99.3523 Y3.9243  
G01 X-99.3523 Y3.9784  
G01 X-99.3553 Y4.0325  
G01 X-99.3523 Y4.0540  
G01 X-99.3523 Y41.6039 
G01 X-99.3409 Y41.6612 
G01 X-99.3228 Y41.7523 
G01 X-99.2649 Y41.8921 
G01 X-99.1808 Y42.0180 
G01 X-99.0754 Y42.1233 
G01 X-99.0138 Y42.1650 
G01 X-98.9479 Y42.2090 
G01 X-98.8081 Y42.2670 
G01 X-98.7992 Y42.2687 
G01 X-98.8247 Y42.3069 
G01 X-98.9771 Y42.5919 
G01 X-99.1008 Y42.8905 
G01 X-99.1946 Y43.1998 
G01 X-99.2576 Y43.5168 
G01 X-99.2893 Y43.8384 
G01 X-99.2893 Y44.1616 
G01 X-99.2576 Y44.4832 
G01 X-99.1946 Y44.8002 
G01 X-99.1008 Y45.1095 
G01 X-98.9771 Y45.4081 
G01 X-98.8247 Y45.6931 
G01 X-98.7992 Y45.7313 
G01 X-98.8081 Y45.7330 
G01 X-98.9479 Y45.7909 
G01 X-99.0088 Y45.8316 
G01 X-99.0738 Y45.8750 
G01 X-99.1808 Y45.9820 
G01 X-99.2649 Y46.1079 
G01 X-99.3228 Y46.2477 
G01 X-99.3402 Y46.3354 
G01 X-99.3523 Y46.3961 
G01 X-99.3523 Y66.9460 
G01 X-99.3553 Y66.9675 
G01 X-99.3523 Y67.0216 
G01 X-99.3523 Y67.0757 
G01 X-99.3481 Y67.0969 
G01 X-99.3354 Y67.3217 
G01 X-99.3336 Y67.3865 
G01 X-99.3312 Y67.3971 
G01 X-99.3306 Y67.4079 
G01 X-99.3144 Y67.4708 
G01 X-99.2024 Y67.9612 
G01 X-99.2018 Y67.9721 
G01 X-99.1856 Y68.0350 
G01 X-99.1712 Y68.0982 
G01 X-99.1668 Y68.1081 
G01 X-99.1640 Y68.1186 
G01 X-99.1359 Y68.1771 
G01 X-99.1094 Y68.2363 
G01 X-99.1031 Y68.2452 
G01 X-98.9083 Y68.6497 
G01 X-98.9053 Y68.6602 
G01 X-98.8754 Y68.7179 
G01 X-98.8473 Y68.7763 
G01 X-98.8408 Y68.7850 
G01 X-98.8358 Y68.7946 
G01 X-98.7953 Y68.8454 
G01 X-98.7563 Y68.8972 
G01 X-98.7482 Y68.9045 
G01 X-98.4682 Y69.2555 
G01 X-98.4630 Y69.2650 
G01 X-98.4211 Y69.3146 
G01 X-98.3807 Y69.3654 
G01 X-98.3724 Y69.3724 
G01 X-98.3654 Y69.3807 
G01 X-98.3146 Y69.4211 
G01 X-98.2650 Y69.4630 
G01 X-98.2555 Y69.4682 
G01 X-97.9045 Y69.7482 
G01 X-97.8972 Y69.7563 
G01 X-97.8454 Y69.7953 
G01 X-97.7946 Y69.8358 
G01 X-97.7850 Y69.8408 
G01 X-97.7763 Y69.8473 
G01 X-97.7179 Y69.8754 
G01 X-97.6602 Y69.9053 
G01 X-97.6497 Y69.9083 
G01 X-97.2452 Y70.1031 
G01 X-97.2363 Y70.1094 
G01 X-97.1771 Y70.1359 
G01 X-97.1186 Y70.1640 
G01 X-97.1081 Y70.1668 
G01 X-97.0982 Y70.1712 
G01 X-97.0350 Y70.1856 
G01 X-96.9721 Y70.2018 
G01 X-96.9612 Y70.2024 
G01 X-96.4708 Y70.3144 
G01 X-96.4079 Y70.3306 
G01 X-96.3971 Y70.3312 
G01 X-96.3865 Y70.3336 
G01 X-96.3217 Y70.3354 
G01 X-96.0970 Y70.3481 
G01 X-96.0757 Y70.3523 
G01 X-96.0216 Y70.3523 
G01 X-95.9675 Y70.3553 
G01 X-95.9460 Y70.3523 
G01 X-82.3961 Y70.3523 
G01 X-82.3388 Y70.3409 
G01 X-82.2477 Y70.3228 
G01 X-82.1079 Y70.2649 
G01 X-81.9820 Y70.1808 
G01 X-81.8767 Y70.0754 
G01 X-81.8349 Y70.0138 
G01 X-81.7909 Y69.9479 
G01 X-81.7330 Y69.8081 
G01 X-81.7313 Y69.7992 
G01 X-81.6931 Y69.8247 
G01 X-81.4081 Y69.9771 
G01 X-81.1095 Y70.1008 
G01 X-80.8002 Y70.1946 
G01 X-80.4832 Y70.2576 
G01 X-80.1616 Y70.2893 
G01 X-79.8384 Y70.2893 
G01 X-79.5168 Y70.2576 
G01 X-79.1998 Y70.1946 
G01 X-78.8905 Y70.1008 
G01 X-78.5919 Y69.9771 
G01 X-78.3069 Y69.8247 
G01 X-78.2687 Y69.7992 
G01 X-78.2670 Y69.8081 
G01 X-78.2091 Y69.9479 
G01 X-78.1684 Y70.0088 
G01 X-78.1250 Y70.0738 
G01 X-78.0180 Y70.1808 
G01 X-77.8921 Y70.2649 
G01 X-77.7523 Y70.3228 
G01 X-77.6646 Y70.3402 
G01 X-77.6039 Y70.3523 
G01 X-6.3961 Y70.3523 
G01 X-6.3388 Y70.3409 
G01 X-6.2477 Y70.3228 
G01 X-6.1079 Y70.2649 
G01 X-5.9820 Y70.1808 
G01 X-5.8767 Y70.0754 
G01 X-5.8349 Y70.0138 
G01 X-5.7909 Y69.9479 
G01 X-5.7330 Y69.8081 
G01 X-5.7313 Y69.7992 
G01 X-5.6931 Y69.8247 
G01 X-5.4081 Y69.9771 
G01 X-5.1095 Y70.1008 
G01 X-4.8002 Y70.1946 
G01 X-4.4832 Y70.2576 
G01 X-4.1616 Y70.2893 
G01 X-3.8384 Y70.2893 
G01 X-3.5168 Y70.2576 
G01 X-3.1998 Y70.1946 
G01 X-2.8905 Y70.1008 
G01 X-2.5919 Y69.9771 
G01 X-2.3069 Y69.8247 
G01 X-2.0382 Y69.6452 
G01 X-1.7884 Y69.4401 
G01 X-1.5598 Y69.2116 
G01 X-1.3548 Y68.9618 
G01 X-1.1753 Y68.6931 
G01 X-1.0229 Y68.4081 
G01 X-0.8992 Y68.1095 
G01 X-0.8054 Y67.8002 
G01 X-0.7424 Y67.4832 
G01 X-0.7107 Y67.1616 
G01 X-0.7107 Y66.8384 
G01 X-0.7424 Y66.5168 
G01 X-0.8054 Y66.1998 
G01 X-0.8992 Y65.8905 
G01 X-1.0229 Y65.5919 
G01 X-1.1753 Y65.3069 
G01 X-1.2008 Y65.2687 
G01 X-1.1919 Y65.2670 
G01 X-1.0521 Y65.2091 
G01 X-0.9912 Y65.1684 
G01 X-0.9262 Y65.1250 
G01 X-0.8192 Y65.0180 
G01 X-0.7351 Y64.8921 
G01 X-0.6772 Y64.7523 
G01 X-0.6598 Y64.6646 
G01 X-0.6477 Y64.6039 
G01 X-0.6477 Y53.8038 
G01 X-0.6709 Y53.6874 
G01 X-0.6772 Y53.6554 
G01 X-0.7146 Y53.5652 
G01 X-0.7351 Y53.5156 
G01 X-0.7906 Y53.4326 
G01 X-0.8192 Y53.3897 
G01 X-0.9246 Y53.2844 
G01 X-1.0003 Y53.2332 
G01 X-1.0521 Y53.1986 
G01 X-1.0984 Y53.1795 
G01 X-1.1919 Y53.1407 
G01 X-1.2158 Y53.1360 
G01 X-1.3403 Y53.1112 
G01 X-1.4917 Y53.1112 
G01 X-1.6081 Y53.1344 
G01 X-1.6401 Y53.1407 
G01 X-1.7303 Y53.1781 
G01 X-1.7799 Y53.1986 
G01 X-1.8629 Y53.2541 
G01 X-1.9058 Y53.2827 
G01 X-2.0111 Y53.3881 
G01 X-2.0623 Y53.4638 
G01 X-2.0969 Y53.5156 
G01 X-2.1186 Y53.5681 
G01 X-2.1254 Y53.5844 
G01 X-7.7236 Y59.1826 
G01 X-8.1028 Y59.3397 
G01 X-14.8972 Y59.3397 
G01 X-15.2764 Y59.1826 
G01 X-15.7282 Y58.7308 
G01 X-20.2558 Y54.2032 
G01 X-20.3817 Y54.1191 
G01 X-20.5215 Y54.0612 
G01 X-20.6699 Y54.0317 
G01 X-25.1981 Y54.0317 
G01 X-25.3466 Y54.0612 
G01 X-25.4028 Y54.0845 
G01 X-25.4864 Y54.1191 
G01 X-25.6122 Y54.2032 
G01 X-25.7192 Y54.3102 
G01 X-25.8027 Y54.3937 
G01 X-26.9573 Y54.3937 
G01 X-27.7737 Y53.5773 
G01 X-27.7737 Y52.4227 
G01 X-26.9573 Y51.6063 
G01 X-25.8027 Y51.6063 
G01 X-25.6122 Y51.7968 
G01 X-25.4864 Y51.8809 
G01 X-25.4062 Y51.9141 
G01 X-25.3466 Y51.9388 
G01 X-25.1981 Y51.9683 
G01 X-19.7948 Y51.9683 
G01 X-19.4156 Y52.1254 
G01 X-19.0708 Y52.4701 
G01 X-18.9638 Y52.5772 
G01 X-14.4362 Y57.1048 
G01 X-14.3103 Y57.1889 
G01 X-14.1705 Y57.2468 
G01 X-14.0221 Y57.2763 
G01 X-13.1671 Y57.2763 
G01 X-13.1323 Y57.2694 
G01 X-13.0187 Y57.2468 
G01 X-12.8789 Y57.1889 
G01 X-12.7530 Y57.1048 
G01 X-12.6477 Y56.9994 
G01 X-12.6059 Y56.9378 
G01 X-12.5619 Y56.8719 
G01 X-12.5462 Y56.8338 
G01 X-12.5040 Y56.7321 
G01 X-12.4745 Y56.5837 
G01 X-12.4745 Y56.4323 
G01 X-12.4814 Y56.3976 
G01 X-12.5040 Y56.2839 
G01 X-12.5619 Y56.1441 
G01 X-12.6317 Y55.9757 
G01 X-12.6317 Y53.3243 
G01 X-12.5205 Y53.0560 
G01 X-12.5126 Y53.0430 
G01 X-12.4981 Y53.0037 
G01 X-12.4954 Y53.0021 
G01 X-12.4814 Y52.9963 
G01 X-12.4311 Y52.9627 
G01 X-12.3794 Y52.9310 
G01 X-12.3682 Y52.9207 
G01 X-12.3608 Y52.9157 
G01 X-12.1257 Y52.8183 
G01 X-9.4743 Y52.8183 
G01 X-9.2422 Y52.9145 
G01 X-9.0645 Y53.0922 
G01 X-8.9683 Y53.3243 
G01 X-8.9683 Y55.7301 
G01 X-8.9388 Y55.8785 
G01 X-8.8809 Y56.0183 
G01 X-8.7968 Y56.1442 
G01 X-8.6898 Y56.2512 
G01 X-8.5639 Y56.3353 
G01 X-8.4241 Y56.3932 
G01 X-8.2757 Y56.4227 
G01 X-8.1243 Y56.4227 
G01 X-7.9759 Y56.3932 
G01 X-7.8361 Y56.3353 
G01 X-7.7102 Y56.2512 
G01 X-7.6032 Y56.1442 
G01 X-4.8568 Y53.3978 
G01 X-4.7727 Y53.2719 
G01 X-4.7148 Y53.1321 
G01 X-4.6853 Y52.9837 
G01 X-4.6853 Y52.8323 
G01 X-4.7148 Y52.6839 
G01 X-4.7403 Y52.6223 
G01 X-4.5351 Y52.6223 
G01 X-3.8777 Y51.9649 
G01 X-3.8777 Y51.0351 
G01 X-4.5351 Y50.3777 
G01 X-5.4649 Y50.3777 
G01 X-5.8189 Y50.7317 
G01 X-6.6811 Y50.7317 
G01 X-7.0351 Y50.3777 
G01 X-7.9649 Y50.3777 
G01 X-8.0848 Y50.4977 
G01 X-8.1103 Y50.4361 
G01 X-8.1603 Y50.3613 
G01 X-8.1944 Y50.3102 
G01 X-8.3014 Y50.2032 
G01 X-8.4273 Y50.1191 
G01 X-8.5315 Y50.0760 
G01 X-8.5671 Y50.0612 
G01 X-8.6253 Y50.0496 
G01 X-8.7155 Y50.0317 
G01 X-12.1571 Y50.0317 
G01 X-12.1793 Y50.0245 
G01 X-12.2245 Y50.0192 
G01 X-12.2691 Y50.0103 
G01 X-12.2995 Y50.0103 
G01 X-12.3296 Y50.0067 
G01 X-12.3750 Y50.0103 
G01 X-12.4204 Y50.0103 
G01 X-12.4502 Y50.0162 
G01 X-12.4805 Y50.0186 
G01 X-12.5243 Y50.0309 
G01 X-12.5689 Y50.0398 
G01 X-12.5969 Y50.0514 
G01 X-12.6261 Y50.0597 
G01 X-12.6667 Y50.0803 
G01 X-12.7087 Y50.0977 
G01 X-12.7339 Y50.1146 
G01 X-12.7610 Y50.1284 
G01 X-12.7967 Y50.1565 
G01 X-12.8345 Y50.1818 
G01 X-12.8560 Y50.2033 
G01 X-12.8798 Y50.2221 
G01 X-12.9094 Y50.2567 
G01 X-12.9415 Y50.2888 
G01 X-12.9584 Y50.3140 
G01 X-12.9781 Y50.3371 
G01 X-13.0004 Y50.3768 
G01 X-13.0256 Y50.4146 
G01 X-13.0372 Y50.4427 
G01 X-13.0521 Y50.4692 
G01 X-13.0661 Y50.5124 
G01 X-13.0835 Y50.5545 
G01 X-13.0895 Y50.5842 
G01 X-13.0988 Y50.6131 
G01 X-13.1042 Y50.6583 
G01 X-13.1131 Y50.7029 
G01 X-13.1131 Y50.7333 
G01 X-13.1166 Y50.7634 
G01 X-13.1131 Y50.8088 
G01 X-13.1131 Y51.0961 
G01 X-13.2781 Y51.6040 
G01 X-13.4314 Y51.8149 
G01 X-13.4421 Y51.8257 
G01 X-13.4758 Y51.8761 
G01 X-13.5114 Y51.9251 
G01 X-13.5178 Y51.9389 
G01 X-13.5262 Y51.9515 
G01 X-13.5494 Y52.0075 
G01 X-13.5544 Y52.0183 
G01 X-13.5711 Y52.0252 
G01 X-13.5838 Y52.0337 
G01 X-13.5976 Y52.0400 
G01 X-13.6466 Y52.0757 
G01 X-13.6970 Y52.1093 
G01 X-13.7077 Y52.1201 
G01 X-14.0239 Y52.3498 
G01 X-14.5318 Y52.5148 
G01 X-15.3584 Y52.5148 
G01 X-15.8662 Y52.3498 
G01 X-16.2982 Y52.0359 
G01 X-16.6121 Y51.6040 
G01 X-16.7771 Y51.0961 
G01 X-16.7771 Y50.8087 
G01 X-16.7735 Y50.7634 
G01 X-16.7771 Y50.7332 
G01 X-16.7771 Y50.7029 
G01 X-16.7860 Y50.6583 
G01 X-16.7913 Y50.6131 
G01 X-16.8007 Y50.5842 
G01 X-16.8066 Y50.5545 
G01 X-16.8240 Y50.5124 
G01 X-16.8381 Y50.4691 
G01 X-16.8529 Y50.4427 
G01 X-16.8645 Y50.4146 
G01 X-16.8898 Y50.3768 
G01 X-16.9120 Y50.3371 
G01 X-16.9318 Y50.3140 
G01 X-16.9486 Y50.2888 
G01 X-16.9808 Y50.2566 
G01 X-17.0103 Y50.2220 
G01 X-17.0342 Y50.2032 
G01 X-17.0556 Y50.1818 
G01 X-17.0934 Y50.1565 
G01 X-17.1292 Y50.1283 
G01 X-17.1562 Y50.1146 
G01 X-17.1815 Y50.0977 
G01 X-17.2235 Y50.0803 
G01 X-17.2640 Y50.0596 
G01 X-17.2932 Y50.0514 
G01 X-17.3213 Y50.0398 
G01 X-17.3659 Y50.0309 
G01 X-17.4097 Y50.0186 
G01 X-17.4399 Y50.0162 
G01 X-17.4697 Y50.0103 
G01 X-17.5152 Y50.0103 
G01 X-17.5606 Y50.0067 
G01 X-17.5907 Y50.0103 
G01 X-17.6211 Y50.0103 
G01 X-17.6657 Y50.0191 
G01 X-17.7109 Y50.0245 
G01 X-17.7330 Y50.0317 
G01 X-18.2052 Y50.0317 
G01 X-18.5844 Y49.8746 
G01 X-22.2558 Y46.2032 
G01 X-22.3817 Y46.1191 
G01 X-22.5215 Y46.0612 
G01 X-22.6699 Y46.0317 
G01 X-25.1981 Y46.0317 
G01 X-25.3466 Y46.0612 
G01 X-25.4864 Y46.1191 
G01 X-25.6122 Y46.2032 
G01 X-25.7192 Y46.3102 
G01 X-25.8027 Y46.3937 
G01 X-26.9573 Y46.3937 
G01 X-27.7737 Y45.5773 
G01 X-27.7737 Y44.4227 
G01 X-26.9573 Y43.6063 
G01 X-25.8027 Y43.6063 
G01 X-25.6122 Y43.7968 
G01 X-25.4864 Y43.8809 
G01 X-25.3466 Y43.9388 
G01 X-25.1981 Y43.9683 
G01 X-21.7948 Y43.9683 
G01 X-21.4156 Y44.1254 
G01 X-20.9638 Y44.5772 
G01 X-19.2517 Y46.2892 
G01 X-19.2106 Y46.3337 
G01 X-19.1983 Y46.3427 
G01 X-19.1876 Y46.3534 
G01 X-19.1372 Y46.3870 
G01 X-19.0882 Y46.4227 
G01 X-19.0744 Y46.4290 
G01 X-19.0617 Y46.4375 
G01 X-19.0057 Y46.4607 
G01 X-18.9507 Y46.4860 
G01 X-18.9359 Y46.4896 
G01 X-18.9219 Y46.4954 
G01 X-18.8625 Y46.5072 
G01 X-18.8036 Y46.5214 
G01 X-18.7884 Y46.5220 
G01 X-18.7735 Y46.5249 
G01 X-18.7129 Y46.5249 
G01 X-18.6523 Y46.5273 
G01 X-18.6373 Y46.5249 
G01 X-18.6221 Y46.5249 
G01 X-18.5627 Y46.5131 
G01 X-18.5029 Y46.5036 
G01 X-18.4886 Y46.4984 
G01 X-18.4737 Y46.4954 
G01 X-18.4177 Y46.4722 
G01 X-18.3609 Y46.4512 
G01 X-18.3479 Y46.4433 
G01 X-18.3339 Y46.4375 
G01 X-18.2835 Y46.4038 
G01 X-18.2318 Y46.3722 
G01 X-18.2207 Y46.3618 
G01 X-18.2080 Y46.3534 
G01 X-18.1652 Y46.3106 
G01 X-18.1207 Y46.2694 
G01 X-18.1118 Y46.2571 
G01 X-18.1010 Y46.2464 
G01 X-18.0674 Y46.1960 
G01 X-17.8988 Y45.9640 
G01 X-17.4668 Y45.6502 
G01 X-16.9590 Y45.4852 
G01 X-16.1324 Y45.4852 
G01 X-15.6245 Y45.6502 
G01 X-15.4333 Y45.7891 
G01 X-15.4110 Y45.8097 
G01 X-15.3722 Y45.8335 
G01 X-15.3355 Y45.8602 
G01 X-15.3079 Y45.8729 
G01 X-15.2820 Y45.8888 
G01 X-15.2393 Y45.9045 
G01 X-15.1980 Y45.9236 
G01 X-15.1685 Y45.9307 
G01 X-15.1400 Y45.9412 
G01 X-15.0951 Y45.9483 
G01 X-15.0509 Y45.9589 
G01 X-15.0205 Y45.9601 
G01 X-14.9905 Y45.9649 
G01 X-14.9451 Y45.9631 
G01 X-14.8996 Y45.9649 
G01 X-14.8696 Y45.9601 
G01 X-14.8393 Y45.9589 
G01 X-14.7951 Y45.9483 
G01 X-14.7501 Y45.9412 
G01 X-14.7217 Y45.9307 
G01 X-14.6921 Y45.9236 
G01 X-14.6508 Y45.9045 
G01 X-14.6082 Y45.8888 
G01 X-14.5823 Y45.8729 
G01 X-14.5547 Y45.8602 
G01 X-14.5179 Y45.8335 
G01 X-14.4791 Y45.8097 
G01 X-14.4568 Y45.7891 
G01 X-14.2656 Y45.6502 
G01 X-13.7578 Y45.4852 
G01 X-13.3243 Y45.4852 
G01 X-13.1759 Y45.4556 
G01 X-13.0361 Y45.3977 
G01 X-12.9102 Y45.3137 
G01 X-12.8032 Y45.2066 
G01 X-12.7191 Y45.0808 
G01 X-12.6612 Y44.9410 
G01 X-12.6317 Y44.7925 
G01 X-12.6317 Y42.0243 
G01 X-12.5355 Y41.7922 
G01 X-12.3578 Y41.6145 
G01 X-12.1257 Y41.5183 
G01 X-9.4205 Y41.5183 
G01 X-9.3757 Y41.5272 
G01 X-9.3009 Y41.5272 
G01 X-9.2244 Y41.5272 
G01 X-9.1583 Y41.5141 
G01 X-9.0759 Y41.4977 
G01 X-9.0051 Y41.4684 
G01 X-8.9361 Y41.4398 
G01 X-8.8733 Y41.3978 
G01 X-8.8103 Y41.3557 
G01 X-8.7751 Y41.3206 
G01 X-8.7032 Y41.2487 
G01 X-8.6493 Y41.1680 
G01 X-8.6192 Y41.1229 
G01 X-8.5790 Y41.0259 
G01 X-8.5612 Y40.9830 
G01 X-8.5435 Y40.8941 
G01 X-8.5317 Y40.8346 
G01 X-8.5317 Y40.7598 
G01 X-8.5317 Y40.6833 
G01 X-8.5317 Y40.1699 
G01 X-8.5612 Y40.0215 
G01 X-8.6191 Y39.8817 
G01 X-8.7032 Y39.7558 
G01 X-8.8102 Y39.6488 
G01 X-11.2558 Y37.2032 
G01 X-11.3817 Y37.1191 
G01 X-11.5215 Y37.0612 
G01 X-11.6699 Y37.0317 
G01 X-18.9366 Y37.0317 
G01 X-18.9450 Y37.0334 
G01 X-19.0850 Y37.0612 
G01 X-19.2248 Y37.1191 
G01 X-19.3507 Y37.2032 
G01 X-19.4577 Y37.3102 
G01 X-19.5074 Y37.3847 
G01 X-19.5418 Y37.4361 
G01 X-19.5997 Y37.5759 
G01 X-19.6108 Y37.6317 
G01 X-20.5668 Y37.6317 
G01 X-21.1667 Y38.2317 
G01 X-21.8333 Y38.2317 
G01 X-22.4332 Y37.6317 
G01 X-23.5668 Y37.6317 
G01 X-24.1667 Y38.2317 
G01 X-24.8333 Y38.2317 
G01 X-25.4332 Y37.6317 
G01 X-26.3892 Y37.6317 
G01 X-26.3987 Y37.5843 
G01 X-26.4003 Y37.5759 
G01 X-26.4020 Y37.5719 
G01 X-26.4582 Y37.4361 
G01 X-26.4913 Y37.3867 
G01 X-26.5423 Y37.3102 
G01 X-26.6493 Y37.2032 
G01 X-26.7752 Y37.1191 
G01 X-26.9150 Y37.0612 
G01 X-27.0634 Y37.0317 
G01 X-32.2052 Y37.0317 
G01 X-32.5844 Y36.8746 
G01 X-36.4251 Y33.0340 
G01 X-36.7102 Y32.7488 
G01 X-36.8361 Y32.6647 
G01 X-36.9759 Y32.6068 
G01 X-37.0636 Y32.5894 
G01 X-37.1243 Y32.5773 
G01 X-37.2757 Y32.5773 
G01 X-37.3481 Y32.5917 
G01 X-37.4241 Y32.6068 
G01 X-37.5639 Y32.6647 
G01 X-37.6248 Y32.7054 
G01 X-37.6898 Y32.7488 
G01 X-37.7968 Y32.8558 
G01 X-37.8809 Y32.9816 
G01 X-37.9388 Y33.1215 
G01 X-37.9562 Y33.2092 
G01 X-37.9683 Y33.2699 
G01 X-37.9683 Y44.2052 
G01 X-38.2013 Y44.7678 
G01 X-38.2308 Y44.9162 
G01 X-38.2308 Y45.0675 
G01 X-38.2030 Y45.2076 
G01 X-38.2013 Y45.2160 
G01 X-38.1996 Y45.2200 
G01 X-38.1434 Y45.3558 
G01 X-38.1104 Y45.4052 
G01 X-38.0593 Y45.4816 
G01 X-37.9523 Y45.5886 
G01 X-37.1254 Y46.4156 
G01 X-36.9683 Y46.7948 
G01 X-36.9683 Y60.2052 
G01 X-37.1254 Y60.5844 
G01 X-37.5772 Y61.0362 
G01 X-39.3056 Y62.7646 
G01 X-39.6848 Y62.9217 
G01 X-78.7248 Y62.9217 
G01 X-78.7964 Y62.9359 
G01 X-78.8732 Y62.9512 
G01 X-79.0131 Y63.0091 
G01 X-79.1378 Y63.0925 
G01 X-79.2442 Y63.1986 
G01 X-79.3006 Y63.2821 
G01 X-79.3300 Y63.3261 
G01 X-79.3879 Y63.4659 
G01 X-79.4025 Y63.5391 
G01 X-79.4174 Y63.6143 
G01 X-79.4174 Y63.7621 
G01 X-79.5168 Y63.7424 
G01 X-79.8384 Y63.7107 
G01 X-80.1616 Y63.7107 
G01 X-80.4832 Y63.7424 
G01 X-80.5826 Y63.7621 
G01 X-80.5826 Y63.6143 
G01 X-80.6068 Y63.4926 
G01 X-80.6121 Y63.4659 
G01 X-80.6494 Y63.3757 
G01 X-80.6700 Y63.3261 
G01 X-80.7032 Y63.2763 
G01 X-80.7541 Y63.2002 
G01 X-80.8611 Y63.0932 
G01 X-80.9006 Y63.0668 
G01 X-80.9869 Y63.0091 
G01 X-81.0332 Y62.9900 
G01 X-81.1267 Y62.9512 
G01 X-81.1554 Y62.9455 
G01 X-81.2752 Y62.9217 
G01 X-88.3512 Y62.9217 
G01 X-88.4996 Y62.9512 
G01 X-88.6394 Y63.0091 
G01 X-88.7653 Y63.0932 
G01 X-88.8723 Y63.2002 
G01 X-89.0235 Y63.3514 
G01 X-89.6571 Y63.6139 
G01 X-89.9097 Y63.6139 
G01 X-90.0581 Y63.6434 
G01 X-90.1979 Y63.7013 
G01 X-90.3238 Y63.7854 
G01 X-90.4308 Y63.8924 
G01 X-90.5149 Y64.0183 
G01 X-90.5728 Y64.1581 
G01 X-90.6023 Y64.3065 
G01 X-90.6023 Y66.1888 
G01 X-90.7009 Y66.4269 
G01 X-90.8831 Y66.6091 
G01 X-91.1212 Y66.7077 
G01 X-94.3788 Y66.7077 
G01 X-94.6169 Y66.6091 
G01 X-94.7991 Y66.4269 
G01 X-94.8977 Y66.1888 
G01 X-94.8977 Y64.2562 
G01 X-94.7991 Y64.0181 
G01 X-94.6169 Y63.8359 
G01 X-94.3788 Y63.7373 
G01 X-92.1749 Y63.7373 
G01 X-92.0265 Y63.7078 
G01 X-91.9458 Y63.6743 
G01 X-91.8867 Y63.6499 
G01 X-91.8217 Y63.6064 
G01 X-91.7608 Y63.5658 
G01 X-91.6555 Y63.4604 
G01 X-91.5697 Y63.3329 
G01 X-91.5365 Y63.2527 
G01 X-91.5118 Y63.1931 
G01 X-91.4823 Y63.0447 
G01 X-91.4823 Y62.8933 
G01 X-91.5118 Y62.7449 
G01 X-91.7239 Y62.2329 
G01 X-91.7239 Y61.5471 
G01 X-91.4614 Y60.9135 
G01 X-90.9765 Y60.4285 
G01 X-90.3429 Y60.1661 
G01 X-89.6571 Y60.1661 
G01 X-89.0235 Y60.4285 
G01 X-88.7653 Y60.6868 
G01 X-88.6394 Y60.7709 
G01 X-88.4996 Y60.8288 
G01 X-88.3512 Y60.8583 
G01 X-40.5599 Y60.8583 
G01 X-40.4115 Y60.8288 
G01 X-40.2717 Y60.7709 
G01 X-40.1458 Y60.6868 
G01 X-40.0388 Y60.5798 
G01 X-39.2032 Y59.7442 
G01 X-39.1191 Y59.6183 
G01 X-39.0612 Y59.4785 
G01 X-39.0317 Y59.3301 
G01 X-39.0317 Y54.1618 
G01 X-39.0334 Y54.1534 
G01 X-39.0612 Y54.0134 
G01 X-39.1175 Y53.8776 
G01 X-39.1191 Y53.8736 
G01 X-39.2032 Y53.7478 
G01 X-39.3086 Y53.6424 
G01 X-39.4361 Y53.5567 
G01 X-39.5759 Y53.4987 
G01 X-39.7243 Y53.4692 
G01 X-39.8757 Y53.4692 
G01 X-39.8841 Y53.4709 
G01 X-40.0241 Y53.4987 
G01 X-40.1599 Y53.5550 
G01 X-40.1639 Y53.5567 
G01 X-40.2898 Y53.6407 
G01 X-41.0427 Y54.3937 
G01 X-42.1973 Y54.3937 
G01 X-42.3878 Y54.2032 
G01 X-42.5136 Y54.1191 
G01 X-42.5938 Y54.0859 
G01 X-42.6534 Y54.0612 
G01 X-42.8018 Y54.0317 
G01 X-47.4264 Y54.0317 
G01 X-47.9343 Y53.8667 
G01 X-48.3662 Y53.5528 
G01 X-48.6801 Y53.1208 
G01 X-48.6865 Y53.1013 
G01 X-48.6924 Y53.0715 
G01 X-48.7098 Y53.0295 
G01 X-48.7238 Y52.9863 
G01 X-48.7387 Y52.9598 
G01 X-48.7503 Y52.9317 
G01 X-48.7756 Y52.8939 
G01 X-48.7978 Y52.8542 
G01 X-48.8175 Y52.8311 
G01 X-48.8344 Y52.8059 
G01 X-48.8665 Y52.7737 
G01 X-48.8961 Y52.7391 
G01 X-48.9199 Y52.7203 
G01 X-48.9414 Y52.6989 
G01 X-48.9792 Y52.6736 
G01 X-49.0149 Y52.6454 
G01 X-49.0420 Y52.6317 
G01 X-49.0672 Y52.6148 
G01 X-49.1092 Y52.5974 
G01 X-49.1498 Y52.5767 
G01 X-49.1790 Y52.5685 
G01 X-49.2070 Y52.5569 
G01 X-49.2516 Y52.5480 
G01 X-49.2954 Y52.5356 
G01 X-49.3257 Y52.5333 
G01 X-49.3555 Y52.5273 
G01 X-49.4010 Y52.5273 
G01 X-49.4463 Y52.5238 
G01 X-49.4764 Y52.5273 
G01 X-50.4660 Y52.5273 
G01 X-50.6145 Y52.5569 
G01 X-50.7543 Y52.6148 
G01 X-50.8801 Y52.6989 
G01 X-50.9871 Y52.8059 
G01 X-51.0712 Y52.9317 
G01 X-51.1291 Y53.0715 
G01 X-51.1587 Y53.2200 
G01 X-51.1587 Y54.1173 
G01 X-51.3237 Y54.6252 
G01 X-51.6375 Y55.0572 
G01 X-52.0695 Y55.3710 
G01 X-52.5774 Y55.5361 
G01 X-56.1803 Y55.5361 
G01 X-56.6882 Y55.3710 
G01 X-57.1201 Y55.0572 
G01 X-57.4340 Y54.6252 
G01 X-57.5990 Y54.1173 
G01 X-57.5990 Y53.2200 
G01 X-57.6285 Y53.0715 
G01 X-57.6865 Y52.9317 
G01 X-57.7705 Y52.8059 
G01 X-57.8776 Y52.6989 
G01 X-58.0034 Y52.6148 
G01 X-58.1432 Y52.5569 
G01 X-58.2916 Y52.5273 
G01 X-59.2200 Y52.5273 
G01 X-59.3684 Y52.5569 
G01 X-59.5082 Y52.6148 
G01 X-59.6340 Y52.6989 
G01 X-59.7411 Y52.8059 
G01 X-59.8251 Y52.9317 
G01 X-59.8831 Y53.0715 
G01 X-59.9126 Y53.2200 
G01 X-59.9126 Y54.1173 
G01 X-60.0776 Y54.6252 
G01 X-60.3914 Y55.0572 
G01 X-60.8234 Y55.3710 
G01 X-61.3313 Y55.5361 
G01 X-64.9342 Y55.5361 
G01 X-65.4421 Y55.3710 
G01 X-65.8741 Y55.0572 
G01 X-66.1879 Y54.6252 
G01 X-66.3529 Y54.1173 
G01 X-66.3529 Y53.2200 
G01 X-66.3825 Y53.0715 
G01 X-66.4404 Y52.9317 
G01 X-66.5245 Y52.8059 
G01 X-66.6315 Y52.6989 
G01 X-66.7573 Y52.6148 
G01 X-66.8971 Y52.5569 
G01 X-67.0456 Y52.5273 
G01 X-67.9739 Y52.5273 
G01 X-68.1223 Y52.5569 
G01 X-68.2621 Y52.6148 
G01 X-68.3879 Y52.6989 
G01 X-68.4950 Y52.8059 
G01 X-68.5790 Y52.9317 
G01 X-68.6370 Y53.0715 
G01 X-68.6665 Y53.2200 
G01 X-68.6665 Y54.1173 
G01 X-68.8315 Y54.6252 
G01 X-69.1454 Y55.0572 
G01 X-69.5773 Y55.3710 
G01 X-70.0852 Y55.5361 
G01 X-73.6881 Y55.5361 
G01 X-74.1960 Y55.3710 
G01 X-74.6280 Y55.0572 
G01 X-74.9418 Y54.6252 
G01 X-75.1068 Y54.1173 
G01 X-75.1068 Y53.2200 
G01 X-75.1364 Y53.0715 
G01 X-75.1943 Y52.9317 
G01 X-75.2784 Y52.8059 
G01 X-75.3854 Y52.6989 
G01 X-75.5112 Y52.6148 
G01 X-75.6510 Y52.5569 
G01 X-75.7995 Y52.5273 
G01 X-76.7278 Y52.5273 
G01 X-76.8762 Y52.5569 
G01 X-77.0160 Y52.6148 
G01 X-77.1419 Y52.6989 
G01 X-77.2489 Y52.8059 
G01 X-77.3329 Y52.9317 
G01 X-77.3909 Y53.0715 
G01 X-77.4204 Y53.2200 
G01 X-77.4204 Y54.1173 
G01 X-77.5854 Y54.6252 
G01 X-77.8993 Y55.0572 
G01 X-78.3313 Y55.3710 
G01 X-78.8391 Y55.5361 
G01 X-82.4420 Y55.5361 
G01 X-82.9499 Y55.3710 
G01 X-83.3819 Y55.0572 
G01 X-83.6957 Y54.6252 
G01 X-83.8607 Y54.1173 
G01 X-83.8607 Y53.2200 
G01 X-83.8903 Y53.0715 
G01 X-83.9482 Y52.9317 
G01 X-84.0323 Y52.8059 
G01 X-84.1393 Y52.6989 
G01 X-84.2651 Y52.6148 
G01 X-84.4049 Y52.5569 
G01 X-84.5534 Y52.5273 
G01 X-85.5430 Y52.5273 
G01 X-85.5731 Y52.5238 
G01 X-85.6185 Y52.5273 
G01 X-85.6639 Y52.5273 
G01 X-85.6937 Y52.5333 
G01 X-85.7240 Y52.5356 
G01 X-85.7678 Y52.5480 
G01 X-85.8124 Y52.5569 
G01 X-85.8404 Y52.5685 
G01 X-85.8696 Y52.5767 
G01 X-85.9102 Y52.5974 
G01 X-85.9522 Y52.6148 
G01 X-85.9774 Y52.6316 
G01 X-86.0045 Y52.6454 
G01 X-86.0402 Y52.6736 
G01 X-86.0780 Y52.6989 
G01 X-86.0995 Y52.7203 
G01 X-86.1233 Y52.7391 
G01 X-86.1529 Y52.7737 
G01 X-86.1850 Y52.8059 
G01 X-86.2019 Y52.8311 
G01 X-86.2216 Y52.8542 
G01 X-86.2439 Y52.8939 
G01 X-86.2691 Y52.9317 
G01 X-86.2807 Y52.9597 
G01 X-86.2956 Y52.9862 
G01 X-86.3096 Y53.0295 
G01 X-86.3270 Y53.0715 
G01 X-86.3330 Y53.1013 
G01 X-86.3393 Y53.1208 
G01 X-86.6532 Y53.5528 
G01 X-86.6972 Y53.5848 
G01 X-86.7476 Y53.6185 
G01 X-86.7583 Y53.6292 
G01 X-86.7706 Y53.6382 
G01 X-86.8118 Y53.6827 
G01 X-86.8546 Y53.7255 
G01 X-86.8630 Y53.7381 
G01 X-86.8733 Y53.7493 
G01 X-86.9050 Y53.8010 
G01 X-86.9387 Y53.8513 
G01 X-86.9445 Y53.8654 
G01 X-86.9524 Y53.8783 
G01 X-86.9734 Y53.9352 
G01 X-86.9966 Y53.9911 
G01 X-86.9995 Y54.0060 
G01 X-87.0048 Y54.0203 
G01 X-87.0143 Y54.0802 
G01 X-87.0261 Y54.1396 
G01 X-87.0261 Y54.1548 
G01 X-87.0285 Y54.1698 
G01 X-87.0261 Y54.2303 
G01 X-87.0261 Y54.2329 
G01 X-87.2885 Y54.8665 
G01 X-87.7735 Y55.3514 
G01 X-88.4071 Y55.6139 
G01 X-89.0929 Y55.6139 
G01 X-89.7265 Y55.3514 
G01 X-90.2114 Y54.8665 
G01 X-90.4739 Y54.2329 
G01 X-90.4739 Y53.5471 
G01 X-90.4212 Y53.4199 
G01 X-90.4054 Y53.3817 
G01 X-90.3633 Y53.2801 
G01 X-90.3338 Y53.1317 
G01 X-90.3338 Y52.9803 
G01 X-90.3633 Y52.8319 
G01 X-90.4212 Y52.6921 
G01 X-90.4763 Y52.6097 
G01 X-90.5053 Y52.5662 
G01 X-90.6123 Y52.4592 
G01 X-90.7382 Y52.3751 
G01 X-90.8184 Y52.3419 
G01 X-90.8780 Y52.3172 
G01 X-91.0264 Y52.2877 
G01 X-94.3788 Y52.2877 
G01 X-94.6169 Y52.1891 
G01 X-94.7991 Y52.0069 
G01 X-94.8977 Y51.7688 
G01 X-94.8977 Y49.8112 
G01 X-94.7991 Y49.5731 
G01 X-94.6169 Y49.3909 
G01 X-94.3788 Y49.2923 
G01 X-91.1212 Y49.2923 
G01 X-90.8831 Y49.3909 
G01 X-90.7009 Y49.5731 
G01 X-90.6023 Y49.8112 
G01 X-90.6023 Y51.7171 
G01 X-90.6006 Y51.7256 
G01 X-90.5728 Y51.8656 
G01 X-90.5149 Y52.0054 
G01 X-90.4308 Y52.1312 
G01 X-90.3254 Y52.2366 
G01 X-90.1979 Y52.3223 
G01 X-90.0581 Y52.3802 
G01 X-89.9097 Y52.4098 
G01 X-89.7583 Y52.4098 
G01 X-89.7499 Y52.4081 
G01 X-89.6099 Y52.3802 
G01 X-89.0929 Y52.1661 
G01 X-88.9333 Y52.1661 
G01 X-88.9032 Y52.1697 
G01 X-88.8578 Y52.1661 
G01 X-88.8123 Y52.1661 
G01 X-88.7825 Y52.1602 
G01 X-88.7523 Y52.1578 
G01 X-88.7085 Y52.1454 
G01 X-88.6639 Y52.1366 
G01 X-88.6358 Y52.1250 
G01 X-88.6066 Y52.1167 
G01 X-88.5661 Y52.0961 
G01 X-88.5241 Y52.0787 
G01 X-88.4988 Y52.0618 
G01 X-88.4718 Y52.0480 
G01 X-88.4360 Y52.0198 
G01 X-88.3982 Y51.9946 
G01 X-88.3768 Y51.9731 
G01 X-88.3529 Y51.9543 
G01 X-88.3234 Y51.9197 
G01 X-88.2912 Y51.8876 
G01 X-88.2744 Y51.8623 
G01 X-88.2546 Y51.8392 
G01 X-88.2324 Y51.7996 
G01 X-88.2071 Y51.7617 
G01 X-88.1955 Y51.7337 
G01 X-88.1807 Y51.7072 
G01 X-88.1666 Y51.6639 
G01 X-88.1492 Y51.6219 
G01 X-88.1433 Y51.5921 
G01 X-88.0727 Y51.3748 
G01 X-87.7588 Y50.9428 
G01 X-87.3268 Y50.6290 
G01 X-86.8190 Y50.4639 
G01 X-83.2161 Y50.4639 
G01 X-82.7082 Y50.6290 
G01 X-82.2762 Y50.9428 
G01 X-81.9624 Y51.3748 
G01 X-81.7973 Y51.8826 
G01 X-81.7973 Y52.7800 
G01 X-81.7678 Y52.9285 
G01 X-81.7099 Y53.0683 
G01 X-81.6258 Y53.1941 
G01 X-81.5188 Y53.3011 
G01 X-81.3930 Y53.3852 
G01 X-81.2532 Y53.4431 
G01 X-81.1047 Y53.4727 
G01 X-80.1764 Y53.4727 
G01 X-80.0280 Y53.4431 
G01 X-79.8882 Y53.3852 
G01 X-79.7623 Y53.3011 
G01 X-79.6553 Y53.1941 
G01 X-79.5712 Y53.0683 
G01 X-79.5133 Y52.9285 
G01 X-79.4838 Y52.7800 
G01 X-79.4838 Y51.8826 
G01 X-79.3188 Y51.3748 
G01 X-79.0049 Y50.9428 
G01 X-78.5729 Y50.6290 
G01 X-78.0651 Y50.4639 
G01 X-74.4621 Y50.4639 
G01 X-73.9543 Y50.6290 
G01 X-73.5223 Y50.9428 
G01 X-73.2084 Y51.3748 
G01 X-73.0434 Y51.8826 
G01 X-73.0434 Y52.7800 
G01 X-73.0139 Y52.9285 
G01 X-72.9560 Y53.0683 
G01 X-72.8719 Y53.1941 
G01 X-72.7649 Y53.3011 
G01 X-72.6391 Y53.3852 
G01 X-72.4992 Y53.4431 
G01 X-72.3508 Y53.4727 
G01 X-71.4225 Y53.4727 
G01 X-71.2741 Y53.4431 
G01 X-71.1343 Y53.3852 
G01 X-71.0084 Y53.3011 
G01 X-70.9014 Y53.1941 
G01 X-70.8173 Y53.0683 
G01 X-70.7594 Y52.9285 
G01 X-70.7299 Y52.7800 
G01 X-70.7299 Y51.8826 
G01 X-70.5649 Y51.3748 
G01 X-70.2510 Y50.9428 
G01 X-69.8190 Y50.6290 
G01 X-69.3112 Y50.4639 
G01 X-65.7082 Y50.4639 
G01 X-65.2004 Y50.6290 
G01 X-64.7684 Y50.9428 
G01 X-64.4545 Y51.3748 
G01 X-64.2895 Y51.8826 
G01 X-64.2895 Y52.7800 
G01 X-64.2600 Y52.9285 
G01 X-64.2021 Y53.0683 
G01 X-64.1180 Y53.1941 
G01 X-64.0110 Y53.3011 
G01 X-63.8852 Y53.3852 
G01 X-63.7453 Y53.4431 
G01 X-63.5969 Y53.4727 
G01 X-62.6686 Y53.4727 
G01 X-62.5202 Y53.4431 
G01 X-62.3803 Y53.3852 
G01 X-62.2545 Y53.3011 
G01 X-62.1475 Y53.1941 
G01 X-62.0634 Y53.0683 
G01 X-62.0055 Y52.9285 
G01 X-61.9760 Y52.7800 
G01 X-61.9760 Y51.8826 
G01 X-61.8110 Y51.3748 
G01 X-61.4971 Y50.9428 
G01 X-61.0651 Y50.6290 
G01 X-60.5573 Y50.4639 
G01 X-56.9543 Y50.4639 
G01 X-56.4465 Y50.6290 
G01 X-56.0145 Y50.9428 
G01 X-55.7006 Y51.3748 
G01 X-55.5356 Y51.8826 
G01 X-55.5356 Y52.7800 
G01 X-55.5061 Y52.9285 
G01 X-55.4482 Y53.0683 
G01 X-55.3641 Y53.1941 
G01 X-55.2571 Y53.3011 
G01 X-55.1313 Y53.3852 
G01 X-54.9914 Y53.4431 
G01 X-54.8430 Y53.4727 
G01 X-53.9147 Y53.4727 
G01 X-53.7663 Y53.4431 
G01 X-53.6264 Y53.3852 
G01 X-53.5006 Y53.3011 
G01 X-53.3936 Y53.1941 
G01 X-53.3095 Y53.0683 
G01 X-53.2516 Y52.9285 
G01 X-53.2221 Y52.7800 
G01 X-53.2221 Y51.8826 
G01 X-53.0571 Y51.3748 
G01 X-52.7432 Y50.9428 
G01 X-52.3112 Y50.6290 
G01 X-51.8034 Y50.4639 
G01 X-48.2004 Y50.4639 
G01 X-47.6926 Y50.6290 
G01 X-47.3430 Y50.8829 
G01 X-47.3322 Y50.8937 
G01 X-47.2819 Y50.9273 
G01 X-47.2329 Y50.9630 
G01 X-47.2190 Y50.9693 
G01 X-47.2064 Y50.9778 
G01 X-47.1504 Y51.0010 
G01 X-47.0954 Y51.0263 
G01 X-47.0806 Y51.0299 
G01 X-47.0666 Y51.0357 
G01 X-47.0071 Y51.0475 
G01 X-46.9483 Y51.0616 
G01 X-46.9331 Y51.0622 
G01 X-46.9181 Y51.0652 
G01 X-46.8576 Y51.0652 
G01 X-46.7970 Y51.0676 
G01 X-46.7820 Y51.0652 
G01 X-46.7668 Y51.0652 
G01 X-46.7074 Y51.0534 
G01 X-46.6476 Y51.0439 
G01 X-46.6333 Y51.0386 
G01 X-46.6184 Y51.0357 
G01 X-46.5624 Y51.0125 
G01 X-46.5056 Y50.9915 
G01 X-46.4926 Y50.9836 
G01 X-46.4785 Y50.9778 
G01 X-46.4282 Y50.9441 
G01 X-46.3765 Y50.9125 
G01 X-46.3654 Y50.9021 
G01 X-46.3527 Y50.8937 
G01 X-46.3099 Y50.8509 
G01 X-46.2654 Y50.8097 
G01 X-46.2565 Y50.7974 
G01 X-46.2523 Y50.7932 
G01 X-46.2032 Y50.7442 
G01 X-46.1611 Y50.6811 
G01 X-46.1191 Y50.6183 
G01 X-46.0787 Y50.5207 
G01 X-46.0612 Y50.4785 
G01 X-46.0421 Y50.3826 
G01 X-46.0317 Y50.3301 
G01 X-46.0317 Y50.2535 
G01 X-46.0317 Y27.7948 
G01 X-45.8746 Y27.4156 
G01 X-45.4228 Y26.9638 
G01 X-43.5844 Y25.1254 
G01 X-43.2052 Y24.9683 
G01 X-42.8018 Y24.9683 
G01 X-42.6534 Y24.9388 
G01 X-42.5972 Y24.9155 
G01 X-42.5136 Y24.8809 
G01 X-42.3878 Y24.7968 
G01 X-42.2807 Y24.6898 
G01 X-42.1973 Y24.6063 
G01 X-40.7243 Y24.6063 
G01 X-40.5759 Y24.5768 
G01 X-40.4361 Y24.5189 
G01 X-40.3102 Y24.4348 
G01 X-40.2032 Y24.3278 
G01 X-40.1191 Y24.2019 
G01 X-40.0612 Y24.0621 
G01 X-40.0317 Y23.9137 
G01 X-40.0317 Y20.6699 
G01 X-40.0612 Y20.5215 
G01 X-40.1191 Y20.3817 
G01 X-40.2032 Y20.2558 
G01 X-40.3102 Y20.1488 
G01 X-40.8938 Y19.5652 
G01 X-41.0197 Y19.4811 
G01 X-41.1595 Y19.4232 
G01 X-41.3079 Y19.3937 
G01 X-42.1973 Y19.3937 
G01 X-43.0137 Y18.5773 
G01 X-43.0137 Y17.4227 
G01 X-42.9878 Y17.3968 
G01 X-42.8872 Y17.2962 
G01 X-42.8807 Y17.2898 
G01 X-42.7967 Y17.1639 
G01 X-42.7634 Y17.0837 
G01 X-42.7387 Y17.0241 
G01 X-42.7092 Y16.8757 
G01 X-42.7092 Y16.7243 
G01 X-42.7387 Y16.5759 
G01 X-42.7967 Y16.4361 
G01 X-42.8517 Y16.3537 
G01 X-42.8807 Y16.3102 
G01 X-42.9878 Y16.2032 
G01 X-43.1136 Y16.1191 
G01 X-43.1938 Y16.0859 
G01 X-43.2534 Y16.0612 
G01 X-43.4018 Y16.0317 
G01 X-47.4070 Y16.0317 
G01 X-47.4435 Y16.0280 
G01 X-47.4825 Y16.0317 
G01 X-47.5216 Y16.0317 
G01 X-47.5576 Y16.0389 
G01 X-47.5942 Y16.0423 
G01 X-47.6317 Y16.0536 
G01 X-47.6700 Y16.0612 
G01 X-47.7040 Y16.0753 
G01 X-47.7391 Y16.0858 
G01 X-47.7737 Y16.1042 
G01 X-47.8099 Y16.1191 
G01 X-47.8404 Y16.1395 
G01 X-47.8728 Y16.1568 
G01 X-47.9032 Y16.1815 
G01 X-47.9357 Y16.2032 
G01 X-47.9616 Y16.2292 
G01 X-47.9901 Y16.2524 
G01 X-48.0150 Y16.2826 
G01 X-48.0427 Y16.3102 
G01 X-48.0631 Y16.3408 
G01 X-48.0865 Y16.3691 
G01 X-48.1050 Y16.4035 
G01 X-48.1268 Y16.4361 
G01 X-48.1408 Y16.4700 
G01 X-48.1583 Y16.5023 
G01 X-48.1697 Y16.5397 
G01 X-48.1847 Y16.5759 
G01 X-48.1919 Y16.6119 
G01 X-48.2026 Y16.6470 
G01 X-48.2066 Y16.6859 
G01 X-48.2142 Y16.7243 
G01 X-48.2142 Y16.7611 
G01 X-48.2179 Y16.7976 
G01 X-48.2142 Y16.8365 
G01 X-48.2142 Y16.8757 
G01 X-48.2071 Y16.9117 
G01 X-48.2036 Y16.9482 
G01 X-48.1923 Y16.9857 
G01 X-48.1847 Y17.0241 
G01 X-48.1706 Y17.0580 
G01 X-48.1601 Y17.0932 
G01 X-48.1418 Y17.1278 
G01 X-48.1268 Y17.1639 
G01 X-48.1064 Y17.1945 
G01 X-48.0892 Y17.2269 
G01 X-48.0644 Y17.2572 
G01 X-48.0427 Y17.2898 
G01 X-48.0167 Y17.3157 
G01 X-47.9935 Y17.3442 
G01 X-47.9633 Y17.3691 
G01 X-47.9357 Y17.3968 
G01 X-47.9052 Y17.4172 
G01 X-47.8768 Y17.4406 
G01 X-47.8424 Y17.4591 
G01 X-47.8099 Y17.4809 
G01 X-47.7759 Y17.4949 
G01 X-47.7436 Y17.5123 
G01 X-47.7062 Y17.5238 
G01 X-47.6700 Y17.5388 
G01 X-47.6550 Y17.5418 
G01 X-47.6081 Y17.5670 
G01 X-47.5756 Y17.5888 
G01 X-47.5416 Y17.6028 
G01 X-47.5093 Y17.6202 
G01 X-47.4719 Y17.6317 
G01 X-47.4447 Y17.6430 
G01 X-47.4145 Y17.6632 
G01 X-47.3864 Y17.6863 
G01 X-47.3678 Y17.7091 
G01 X-47.3461 Y17.7417 
G01 X-47.3201 Y17.7676 
G01 X-47.2969 Y17.7961 
G01 X-47.2668 Y17.8210 
G01 X-46.8210 Y18.2668 
G01 X-46.7961 Y18.2969 
G01 X-46.7676 Y18.3201 
G01 X-46.7417 Y18.3461 
G01 X-46.7091 Y18.3679 
G01 X-46.6863 Y18.3864 
G01 X-46.6632 Y18.4145 
G01 X-46.6429 Y18.4447 
G01 X-46.6317 Y18.4719 
G01 X-46.6202 Y18.5093 
G01 X-46.6028 Y18.5416 
G01 X-46.5888 Y18.5756 
G01 X-46.5670 Y18.6081 
G01 X-46.5531 Y18.6340 
G01 X-46.5424 Y18.6688 
G01 X-46.5353 Y18.7044 
G01 X-46.5353 Y18.7339 
G01 X-46.5390 Y18.7728 
G01 X-46.5353 Y18.8093 
G01 X-46.5353 Y18.8461 
G01 X-46.5277 Y18.8845 
G01 X-46.5247 Y18.9137 
G01 X-46.5281 Y18.9499 
G01 X-46.5352 Y18.9856 
G01 X-46.5598 Y19.0449 
G01 X-46.5686 Y19.0892 
G01 X-46.5893 Y19.1933 
G01 X-46.5893 Y19.3447 
G01 X-46.5689 Y19.4472 
G01 X-46.5598 Y19.4931 
G01 X-46.5234 Y19.5809 
G01 X-46.5019 Y19.6329 
G01 X-46.4600 Y19.6956 
G01 X-46.4178 Y19.7588 
G01 X-46.3651 Y19.8115 
G01 X-46.3108 Y19.8658 
G01 X-46.2493 Y19.9069 
G01 X-46.1850 Y19.9499 
G01 X-46.1324 Y19.9717 
G01 X-46.1256 Y19.9745 
G01 X-46.0954 Y19.9947 
G01 X-46.0674 Y20.0178 
G01 X-46.0487 Y20.0406 
G01 X-46.0270 Y20.0732 
G01 X-46.0010 Y20.0991 
G01 X-45.9778 Y20.1276 
G01 X-45.9477 Y20.1525 
G01 X-45.9269 Y20.1733 
G01 X-45.9067 Y20.2035 
G01 X-45.8896 Y20.2356 
G01 X-45.8812 Y20.2639 
G01 X-45.8735 Y20.3023 
G01 X-45.8595 Y20.3361 
G01 X-45.8489 Y20.3713 
G01 X-45.8306 Y20.4059 
G01 X-45.8193 Y20.4331 
G01 X-45.8122 Y20.4687 
G01 X-45.8088 Y20.5049 
G01 X-45.8118 Y20.5342 
G01 X-45.8194 Y20.5726 
G01 X-45.8194 Y20.6093 
G01 X-45.8231 Y20.6459 
G01 X-45.8194 Y20.6848 
G01 X-45.8194 Y21.3152 
G01 X-45.8231 Y21.3541 
G01 X-45.8194 Y21.3907 
G01 X-45.8194 Y21.4274 
G01 X-45.8118 Y21.4658 
G01 X-45.8088 Y21.4951 
G01 X-45.8122 Y21.5313 
G01 X-45.8193 Y21.5669 
G01 X-45.8306 Y21.5941 
G01 X-45.8489 Y21.6287 
G01 X-45.8595 Y21.6638 
G01 X-45.8735 Y21.6977 
G01 X-45.8812 Y21.7361 
G01 X-45.8896 Y21.7643 
G01 X-45.9067 Y21.7965 
G01 X-45.9269 Y21.8267 
G01 X-45.9477 Y21.8475 
G01 X-45.9778 Y21.8724 
G01 X-46.0010 Y21.9009 
G01 X-46.0270 Y21.9268 
G01 X-46.0487 Y21.9594 
G01 X-46.0674 Y21.9822 
G01 X-46.0954 Y22.0053 
G01 X-46.1256 Y22.0255 
G01 X-46.1299 Y22.0273 
G01 X-46.1849 Y22.0501 
G01 X-46.2476 Y22.0920 
G01 X-46.3108 Y22.1342 
G01 X-46.3635 Y22.1869 
G01 X-46.4178 Y22.2412 
G01 X-46.4589 Y22.3027 
G01 X-46.5019 Y22.3670 
G01 X-46.5225 Y22.4167 
G01 X-46.5598 Y22.5069 
G01 X-46.5686 Y22.5511 
G01 X-46.5893 Y22.6553 
G01 X-46.5893 Y22.8067 
G01 X-46.5689 Y22.9091 
G01 X-46.5598 Y22.9551 
G01 X-46.5352 Y23.0144 
G01 X-46.5281 Y23.0501 
G01 X-46.5247 Y23.0863 
G01 X-46.5277 Y23.1155 
G01 X-46.5353 Y23.1539 
G01 X-46.5353 Y23.1907 
G01 X-46.5390 Y23.2272 
G01 X-46.5353 Y23.2661 
G01 X-46.5353 Y23.2955 
G01 X-46.5424 Y23.3312 
G01 X-46.5531 Y23.3660 
G01 X-46.5670 Y23.3919 
G01 X-46.5888 Y23.4244 
G01 X-46.6028 Y23.4584 
G01 X-46.6202 Y23.4907 
G01 X-46.6317 Y23.5281 
G01 X-46.6430 Y23.5553 
G01 X-46.6632 Y23.5855 
G01 X-46.6863 Y23.6136 
G01 X-46.7091 Y23.6322 
G01 X-46.7417 Y23.6539 
G01 X-46.7676 Y23.6798 
G01 X-46.7961 Y23.7031 
G01 X-46.8210 Y23.7332 
G01 X-47.2668 Y24.1790 
G01 X-47.2969 Y24.2039 
G01 X-47.3201 Y24.2324 
G01 X-47.3461 Y24.2583 
G01 X-47.3678 Y24.2909 
G01 X-47.3864 Y24.3137 
G01 X-47.4145 Y24.3368 
G01 X-47.4447 Y24.3570 
G01 X-47.4719 Y24.3683 
G01 X-47.5093 Y24.3798 
G01 X-47.5416 Y24.3972 
G01 X-47.5756 Y24.4112 
G01 X-47.6081 Y24.4330 
G01 X-47.6340 Y24.4469 
G01 X-47.6688 Y24.4576 
G01 X-47.7045 Y24.4647 
G01 X-47.7339 Y24.4647 
G01 X-47.7728 Y24.4610 
G01 X-47.8093 Y24.4647 
G01 X-47.8461 Y24.4647 
G01 X-47.8845 Y24.4723 
G01 X-47.9137 Y24.4753 
G01 X-47.9499 Y24.4719 
G01 X-47.9856 Y24.4648 
G01 X-48.0449 Y24.4402 
G01 X-48.0736 Y24.4345 
G01 X-48.1933 Y24.4107 
G01 X-48.3447 Y24.4107 
G01 X-48.4611 Y24.4338 
G01 X-48.4931 Y24.4402 
G01 X-48.5833 Y24.4775 
G01 X-48.6329 Y24.4981 
G01 X-48.6827 Y24.5313 
G01 X-48.7588 Y24.5822 
G01 X-48.8658 Y24.6892 
G01 X-48.9153 Y24.7633 
G01 X-48.9499 Y24.8150 
G01 X-48.9675 Y24.8576 
G01 X-48.9745 Y24.8744 
G01 X-48.9946 Y24.9046 
G01 X-49.0178 Y24.9326 
G01 X-49.0406 Y24.9512 
G01 X-49.0732 Y24.9730 
G01 X-49.0991 Y24.9990 
G01 X-49.1276 Y25.0222 
G01 X-49.1525 Y25.0523 
G01 X-49.1733 Y25.0731 
G01 X-49.2035 Y25.0933 
G01 X-49.2357 Y25.1104 
G01 X-49.2638 Y25.1188 
G01 X-49.3022 Y25.1265 
G01 X-49.3362 Y25.1405 
G01 X-49.3713 Y25.1511 
G01 X-49.4059 Y25.1694 
G01 X-49.4331 Y25.1807 
G01 X-49.4687 Y25.1878 
G01 X-49.5049 Y25.1912 
G01 X-49.5342 Y25.1882 
G01 X-49.5726 Y25.1806 
G01 X-49.6093 Y25.1806 
G01 X-49.6459 Y25.1769 
G01 X-49.6848 Y25.1806 
G01 X-50.3152 Y25.1806 
G01 X-50.3541 Y25.1769 
G01 X-50.3907 Y25.1806 
G01 X-50.4274 Y25.1806 
G01 X-50.4658 Y25.1882 
G01 X-50.4951 Y25.1912 
G01 X-50.5313 Y25.1878 
G01 X-50.5669 Y25.1807 
G01 X-50.5941 Y25.1694 
G01 X-50.6287 Y25.1511 
G01 X-50.6638 Y25.1405 
G01 X-50.6977 Y25.1265 
G01 X-50.7361 Y25.1188 
G01 X-50.7644 Y25.1104 
G01 X-50.7965 Y25.0933 
G01 X-50.8267 Y25.0731 
G01 X-50.8475 Y25.0523 
G01 X-50.8724 Y25.0222 
G01 X-50.9009 Y24.9989 
G01 X-50.9268 Y24.9730 
G01 X-50.9594 Y24.9513 
G01 X-50.9822 Y24.9326 
G01 X-51.0054 Y24.9046 
G01 X-51.0255 Y24.8744 
G01 X-51.0312 Y24.8607 
G01 X-51.0501 Y24.8150 
G01 X-51.0834 Y24.7653 
G01 X-51.1342 Y24.6892 
G01 X-51.2412 Y24.5822 
G01 X-51.3153 Y24.5327 
G01 X-51.3670 Y24.4981 
G01 X-51.4134 Y24.4789 
G01 X-51.5069 Y24.4402 
G01 X-51.5355 Y24.4345 
G01 X-51.6553 Y24.4107 
G01 X-51.8067 Y24.4107 
G01 X-51.9231 Y24.4338 
G01 X-51.9551 Y24.4402 
G01 X-52.0144 Y24.4648 
G01 X-52.0501 Y24.4719 
G01 X-52.0863 Y24.4753 
G01 X-52.1155 Y24.4723 
G01 X-52.1539 Y24.4647 
G01 X-52.1906 Y24.4647 
G01 X-52.2272 Y24.4610 
G01 X-52.2661 Y24.4647 
G01 X-52.2955 Y24.4647 
G01 X-52.3312 Y24.4576 
G01 X-52.3660 Y24.4469 
G01 X-52.3919 Y24.4330 
G01 X-52.4244 Y24.4112 
G01 X-52.4584 Y24.3972 
G01 X-52.4907 Y24.3798 
G01 X-52.5281 Y24.3683 
G01 X-52.5553 Y24.3570 
G01 X-52.5855 Y24.3368 
G01 X-52.6136 Y24.3137 
G01 X-52.6322 Y24.2909 
G01 X-52.6539 Y24.2583 
G01 X-52.6799 Y24.2324 
G01 X-52.7031 Y24.2039 
G01 X-52.7332 Y24.1790 
G01 X-53.1790 Y23.7332 
G01 X-53.2039 Y23.7030 
G01 X-53.2324 Y23.6799 
G01 X-53.2583 Y23.6539 
G01 X-53.2909 Y23.6321 
G01 X-53.3137 Y23.6136 
G01 X-53.3368 Y23.5855 
G01 X-53.3570 Y23.5553 
G01 X-53.3683 Y23.5281 
G01 X-53.3798 Y23.4907 
G01 X-53.3972 Y23.4584 
G01 X-53.4112 Y23.4244 
G01 X-53.4330 Y23.3919 
G01 X-53.4469 Y23.3660 
G01 X-53.4576 Y23.3312 
G01 X-53.4647 Y23.2955 
G01 X-53.4647 Y23.2661 
G01 X-53.4610 Y23.2272 
G01 X-53.4647 Y23.1907 
G01 X-53.4647 Y23.1539 
G01 X-53.4723 Y23.1155 
G01 X-53.4753 Y23.0863 
G01 X-53.4719 Y23.0501 
G01 X-53.4648 Y23.0144 
G01 X-53.4402 Y22.9551 
G01 X-53.4314 Y22.9108 
G01 X-53.4107 Y22.8067 
G01 X-53.4107 Y22.6553 
G01 X-53.4311 Y22.5528 
G01 X-53.4402 Y22.5069 
G01 X-53.4765 Y22.4191 
G01 X-53.4981 Y22.3670 
G01 X-53.5400 Y22.3044 
G01 X-53.5822 Y22.2412 
G01 X-53.6349 Y22.1885 
G01 X-53.6892 Y22.1342 
G01 X-53.7507 Y22.0931 
G01 X-53.8150 Y22.0501 
G01 X-53.8676 Y22.0283 
G01 X-53.8744 Y22.0255 
G01 X-53.9046 Y22.0053 
G01 X-53.9326 Y21.9822 
G01 X-53.9512 Y21.9594 
G01 X-53.9730 Y21.9268 
G01 X-53.9989 Y21.9009 
G01 X-54.0221 Y21.8724 
G01 X-54.0523 Y21.8475 
G01 X-54.0731 Y21.8267 
G01 X-54.0933 Y21.7965 
G01 X-54.1104 Y21.7644 
G01 X-54.1188 Y21.7361 
G01 X-54.1265 Y21.6977 
G01 X-54.1405 Y21.6638 
G01 X-54.1511 Y21.6287 
G01 X-54.1694 Y21.5941 
G01 X-54.1807 Y21.5669 
G01 X-54.1878 Y21.5313 
G01 X-54.1912 Y21.4951 
G01 X-54.1882 Y21.4658 
G01 X-54.1806 Y21.4274 
G01 X-54.1806 Y21.3907 
G01 X-54.1769 Y21.3541 
G01 X-54.1806 Y21.3152 
G01 X-54.1806 Y20.6848 
G01 X-54.1769 Y20.6459 
G01 X-54.1806 Y20.6093 
G01 X-54.1806 Y20.5726 
G01 X-54.1882 Y20.5342 
G01 X-54.1912 Y20.5049 
G01 X-54.1878 Y20.4687 
G01 X-54.1807 Y20.4331 
G01 X-54.1694 Y20.4059 
G01 X-54.1511 Y20.3713 
G01 X-54.1405 Y20.3362 
G01 X-54.1265 Y20.3023 
G01 X-54.1188 Y20.2639 
G01 X-54.1104 Y20.2356 
G01 X-54.0933 Y20.2035 
G01 X-54.0731 Y20.1733 
G01 X-54.0523 Y20.1525 
G01 X-54.0222 Y20.1276 
G01 X-53.9989 Y20.0991 
G01 X-53.9730 Y20.0732 
G01 X-53.9513 Y20.0406 
G01 X-53.9326 Y20.0178 
G01 X-53.9046 Y19.9947 
G01 X-53.8744 Y19.9745 
G01 X-53.8701 Y19.9727 
G01 X-53.8151 Y19.9499 
G01 X-53.7524 Y19.9080 
G01 X-53.6892 Y19.8658 
G01 X-53.6365 Y19.8131 
G01 X-53.5822 Y19.7588 
G01 X-53.5411 Y19.6973 
G01 X-53.4981 Y19.6330 
G01 X-53.4775 Y19.5833 
G01 X-53.4402 Y19.4931 
G01 X-53.4314 Y19.4489 
G01 X-53.4107 Y19.3447 
G01 X-53.4107 Y19.1933 
G01 X-53.4311 Y19.0909 
G01 X-53.4402 Y19.0449 
G01 X-53.4648 Y18.9856 
G01 X-53.4719 Y18.9499 
G01 X-53.4753 Y18.9137 
G01 X-53.4723 Y18.8845 
G01 X-53.4647 Y18.8461 
G01 X-53.4647 Y18.8093 
G01 X-53.4610 Y18.7728 
G01 X-53.4647 Y18.7339 
G01 X-53.4647 Y18.7045 
G01 X-53.4576 Y18.6688 
G01 X-53.4469 Y18.6340 
G01 X-53.4330 Y18.6081 
G01 X-53.4112 Y18.5756 
G01 X-53.3972 Y18.5416 
G01 X-53.3798 Y18.5093 
G01 X-53.3683 Y18.4719 
G01 X-53.3570 Y18.4447 
G01 X-53.3368 Y18.4145 
G01 X-53.3137 Y18.3864 
G01 X-53.2909 Y18.3678 
G01 X-53.2583 Y18.3461 
G01 X-53.2324 Y18.3201 
G01 X-53.2039 Y18.2969 
G01 X-53.1790 Y18.2668 
G01 X-52.7332 Y17.8210 
G01 X-52.7030 Y17.7961 
G01 X-52.6799 Y17.7676 
G01 X-52.6539 Y17.7417 
G01 X-52.6321 Y17.7091 
G01 X-52.6136 Y17.6863 
G01 X-52.5855 Y17.6632 
G01 X-52.5553 Y17.6429 
G01 X-52.5281 Y17.6317 
G01 X-52.4907 Y17.6202 
G01 X-52.4584 Y17.6028 
G01 X-52.4244 Y17.5888 
G01 X-52.3919 Y17.5670 
G01 X-52.3450 Y17.5418 
G01 X-52.3300 Y17.5388 
G01 X-52.2938 Y17.5238 
G01 X-52.2564 Y17.5123 
G01 X-52.2241 Y17.4949 
G01 X-52.1901 Y17.4809 
G01 X-52.1576 Y17.4591 
G01 X-52.1232 Y17.4406 
G01 X-52.0948 Y17.4172 
G01 X-52.0643 Y17.3968 
G01 X-52.0366 Y17.3691 
G01 X-52.0065 Y17.3442 
G01 X-51.9833 Y17.3157 
G01 X-51.9573 Y17.2898 
G01 X-51.9356 Y17.2572 
G01 X-51.9108 Y17.2269 
G01 X-51.8936 Y17.1945 
G01 X-51.8732 Y17.1639 
G01 X-51.8582 Y17.1278 
G01 X-51.8399 Y17.0932 
G01 X-51.8294 Y17.0580 
G01 X-51.8153 Y17.0241 
G01 X-51.8077 Y16.9857 
G01 X-51.7964 Y16.9482 
G01 X-51.7929 Y16.9117 
G01 X-51.7858 Y16.8757 
G01 X-51.7858 Y16.8365 
G01 X-51.7821 Y16.7976 
G01 X-51.7858 Y16.7611 
G01 X-51.7858 Y16.7243 
G01 X-51.7934 Y16.6859 
G01 X-51.7974 Y16.6470 
G01 X-51.8081 Y16.6119 
G01 X-51.8153 Y16.5759 
G01 X-51.8303 Y16.5397 
G01 X-51.8417 Y16.5023 
G01 X-51.8592 Y16.4700 
G01 X-51.8732 Y16.4361 
G01 X-51.8949 Y16.4035 
G01 X-51.9135 Y16.3691 
G01 X-51.9369 Y16.3408 
G01 X-51.9573 Y16.3102 
G01 X-51.9850 Y16.2826 
G01 X-52.0099 Y16.2524 
G01 X-52.0383 Y16.2292 
G01 X-52.0643 Y16.2032 
G01 X-52.0968 Y16.1815 
G01 X-52.1272 Y16.1568 
G01 X-52.1596 Y16.1395 
G01 X-52.1901 Y16.1191 
G01 X-52.2263 Y16.1042 
G01 X-52.2609 Y16.0858 
G01 X-52.2960 Y16.0753 
G01 X-52.3300 Y16.0612 
G01 X-52.3683 Y16.0536 
G01 X-52.4058 Y16.0423 
G01 X-52.4424 Y16.0389 
G01 X-52.4784 Y16.0317 
G01 X-52.5175 Y16.0317 
G01 X-52.5565 Y16.0280 
G01 X-52.5930 Y16.0317 
G01 X-78.3301 Y16.0317 
G01 X-78.4785 Y16.0612 
G01 X-78.6183 Y16.1191 
G01 X-78.7442 Y16.2032 
G01 X-78.8512 Y16.3102 
G01 X-84.7968 Y22.2558 
G01 X-84.8809 Y22.3817 
G01 X-84.9388 Y22.5215 
G01 X-84.9683 Y22.6699 
G01 X-84.9683 Y32.2052 
G01 X-85.1254 Y32.5844 
G01 X-88.0708 Y35.5299 
G01 X-88.4426 Y35.9016 
G01 X-88.4746 Y35.9230 
G01 X-88.5061 Y35.9441 
G01 X-88.5978 Y36.0358 
G01 X-88.6131 Y36.0511 
G01 X-89.0235 Y36.4614 
G01 X-89.6571 Y36.7239 
G01 X-89.9097 Y36.7239 
G01 X-90.0581 Y36.7534 
G01 X-90.1979 Y36.8113 
G01 X-90.3238 Y36.8954 
G01 X-90.4308 Y37.0024 
G01 X-90.5149 Y37.1283 
G01 X-90.5728 Y37.2681 
G01 X-90.6023 Y37.4165 
G01 X-90.6023 Y38.7440 
G01 X-90.6023 Y39.0788 
G01 X-90.7009 Y39.3169 
G01 X-90.8831 Y39.4991 
G01 X-91.1212 Y39.5977 
G01 X-94.3788 Y39.5977 
G01 X-94.6169 Y39.4991 
G01 X-94.7991 Y39.3169 
G01 X-94.8977 Y39.0788 
G01 X-94.8977 Y37.1462 
G01 X-94.7991 Y36.9081 
G01 X-94.6169 Y36.7259 
G01 X-94.3788 Y36.6273 
G01 X-92.2660 Y36.6273 
G01 X-92.2313 Y36.6204 
G01 X-92.1176 Y36.5978 
G01 X-91.9778 Y36.5399 
G01 X-91.9128 Y36.4964 
G01 X-91.8520 Y36.4558 
G01 X-91.7466 Y36.3504 
G01 X-91.6609 Y36.2229 
G01 X-91.6276 Y36.1427 
G01 X-91.6029 Y36.0831 
G01 X-91.5734 Y35.9347 
G01 X-91.5734 Y35.7833 
G01 X-91.5803 Y35.7486 
G01 X-91.6029 Y35.6349 
G01 X-91.6609 Y35.4951 
G01 X-91.7239 Y35.3429 
G01 X-91.7239 Y34.6571 
G01 X-91.4614 Y34.0235 
G01 X-90.9765 Y33.5385 
G01 X-90.3429 Y33.2761 
G01 X-89.6571 Y33.2761 
G01 X-89.4095 Y33.3786 
G01 X-89.2611 Y33.4082 
G01 X-89.1098 Y33.4082 
G01 X-88.9698 Y33.3803 
G01 X-88.9613 Y33.3786 
G01 X-88.8215 Y33.3207 
G01 X-88.6957 Y33.2366 
G01 X-88.5887 Y33.1296 
G01 X-87.2032 Y31.7442 
G01 X-87.1191 Y31.6183 
G01 X-87.0612 Y31.4785 
G01 X-87.0317 Y31.3301 
G01 X-87.0317 Y29.2283 
G01 X-87.0612 Y29.0799 
G01 X-87.0947 Y28.9992 
G01 X-87.1191 Y28.9401 
