(.../EAGLE-7.7.0/ulp/pcb-gcode-3/pcb-gcode.ulp)
(Copyright 2005 - 2012 by John Johnson)
(See readme.txt for licensing terms.)
(This file generated from the board:)
(.../Documents/eagle/Mixer/Board.brd)
(Current profile is .../pcb-gcode-3/profiles/mach.pp  )
(This file generated 12/01/2017 10:35)
(Settings from pcb-machine.h)
(spindle on time = 3.0000)
(spindle speed = 20000.0000)
(tool change at 0.0000  0.0000  25.4000 )
(feed rate xy = F0     )
(feed rate z  = F508   )
(Z Axis Settings)
(  High     Up        Down     Drill)
(12.7000 	2.5400  	-0.1778 	-2.0000 )
(Settings from pcb-defaults.h)
(isolate min = 0.0254)
(isolate max = 0.3080)
(isolate step = 0.1000)
(Generated bottom outlines, bottom drill, )
(Unit of measure: mm)
( Tool|       Size       |  Min Sub |  Max Sub |   Count )
( T01 | 1.000mm 0.0394in | 0.0000in | 0.0000in |       0 )
( T02 | 1.016mm 0.0400in | 0.0000in | 0.0000in |       0 )
( T03 | 1.200mm 0.0472in | 0.0000in | 0.0000in |       0 )
( T04 | 1.600mm 0.0630in | 0.0000in | 0.0000in |       0 )
( T05 | 3.000mm 0.1181in | 0.0000in | 0.0000in |       0 )
(Metric Mode)
G21
(Absolute Coordinates)
G90
S20000
G00 Z12.7000 
G00 X0.0000  Y0.0000  
M03
G04 P3.000000
M05
G00 Z25.4000 
M06 T01  ; 1.0000  
G01 Z0.0000  F508   
M06 
G00 Z2.5400  
M03
G04 P3.000000
G82 X-5.0000 Y19.5000 Z-2.0000 F508   R2.5400  P1.000000
G82 X-5.0000 Y22.0000 
G82 X-5.0000 Y24.5000 
G82 X-7.5000 Y24.5000 
G82 X-7.5000 Y22.0000 
G82 X-7.5000 Y19.5000 
G82 X-20.0000 Y31.0000 
G82 X-23.0000 Y31.0000 
G82 X-26.0000 Y31.0000 
G82 X-26.0000 Y39.0000 
G82 X-23.0000 Y39.0000 
G82 X-20.0000 Y39.0000 
G82 X-7.5000 Y46.5000 
G82 X-5.0000 Y46.5000 
G82 X-5.0000 Y49.0000 
G82 X-5.0000 Y51.5000 
G82 X-7.5000 Y51.5000 
G82 X-7.5000 Y49.0000 
M05
G00 Z25.4000 
G00 X0.0000  Y0.0000  
M06 T02  ; 1.0160  
G01 Z0.0000  F508   
M06 
G00 Z2.5400  
M03
G04 P3.000000
G82 X-26.3800 Y18.0000 Z-2.0000 F508   R2.5400  P1.000000
G82 X-26.3800 Y26.0000 
G82 X-41.6200 Y26.0000 
G82 X-41.6200 Y18.0000 
G82 X-41.6200 Y45.0000 
G82 X-41.6200 Y53.0000 
G82 X-26.3800 Y53.0000 
G82 X-26.3800 Y45.0000 
M05
G00 Z25.4000 
G00 X0.0000  Y0.0000  
M06 T03  ; 1.2000  
G01 Z0.0000  F508   
M06 
G00 Z2.5400  
M03
G04 P3.000000
G82 X-88.7500 Y9.0000  Z-2.0000 F508   R2.5400  P1.000000
G82 X-93.1000 Y13.0000 
G82 X-90.0000 Y17.0000 
G82 X-88.7500 Y27.0000 
G82 X-93.1000 Y31.0000 
G82 X-90.0000 Y35.0000 
G82 X-88.7500 Y53.8900 
G82 X-93.1000 Y57.8900 
G82 X-90.0000 Y61.8900 
M05
G00 Z25.4000 
G00 X0.0000  Y0.0000  
M06 T04  ; 1.6000  
G01 Z0.0000  F508   
M06 
G00 Z2.5400  
M03
G04 P3.000000
G82 X-10.8000 Y16.3500 Z-2.0000 F508   R2.5400  P1.000000
G82 X-10.8000 Y27.6500 
G82 X-10.8000 Y43.3500 
G82 X-10.8000 Y54.6500 
M05
G00 Z25.4000 
G00 X0.0000  Y0.0000  
M06 T05  ; 3.0000  
G01 Z0.0000  F508   
M06 
G00 Z2.5400  
M03
G04 P3.000000
G82 X-4.0000 Y4.0000  Z-2.0000 F508   R2.5400  P1.000000
G82 X-4.0000 Y67.0000 
G82 X-80.0000 Y67.0000 
G82 X-96.0000 Y44.0000 
G82 X-80.0000 Y4.0000  
T01 
G00 Z12.7000 
M05
M02
