(.../EAGLE-7.7.0/ulp/pcb-gcode-3/pcb-gcode.ulp)
(Copyright 2005 - 2012 by John Johnson)
(See readme.txt for licensing terms.)
(This file generated from the board:)
(.../Documents/eagle/Mixer/Board.brd)
(Current profile is .../pcb-gcode-3/profiles/mach.pp  )
(This file generated 12/01/2017 10:34)
(Settings from pcb-machine.h)
(spindle on time = 3.0000)
(  Tool Size)
(0.1778  )
(spindle speed = 30000.0000)
(tool change at 0.0000  0.0000  25.4000 )
(feed rate xy = F508   )
(feed rate z  = F254   )
(Z Axis Settings)
(  High     Up        Down     Drill)
(12.7000 	2.5400  	-0.1778 	-2.0000 )
(Settings from pcb-defaults.h)
(isolate min = 0.0254)
(isolate max = 0.3080)
(isolate step = 0.1000)
(Generated bottom outlines, bottom drill, )
(Unit of measure: mm)
(Metric Mode)
G21
(Absolute Coordinates)
G90
S30000
G00 Z12.7000 
G00 X0.0000  Y0.0000  
M03
G04 P3.000000
G00 Z2.5400  
G00 X-1.7332 Y1.9743  
G01 Z-0.1778 F254   
G01 X-1.9743 Y1.7332  F508   
G01 X-2.2408 Y1.5206  
G01 X-2.5295 Y1.3392  
G01 X-2.8366 Y1.1913  
G01 X-3.1584 Y1.0787  
G01 X-3.4908 Y1.0029  
G01 X-3.8295 Y0.9647  
G01 X-4.1705 Y0.9647  
G01 X-4.5092 Y1.0029  
G01 X-4.8416 Y1.0787  
G01 X-5.1634 Y1.1913  
G01 X-5.4705 Y1.3392  
G01 X-5.7592 Y1.5206  
G01 X-6.0257 Y1.7332  
G01 X-6.2668 Y1.9743  
G01 X-6.4794 Y2.2408  
G01 X-6.6608 Y2.5295  
G01 X-6.8087 Y2.8366  
G01 X-6.9133 Y3.1357  
G01 X-6.9362 Y3.1357  
G01 X-6.8853 Y2.9676  
G01 X-6.7702 Y2.6898  
G01 X-6.6284 Y2.4246  
G01 X-6.4613 Y2.1745  
G01 X-6.2706 Y1.9421  
G01 X-6.0603 Y1.7318  
G01 X-5.9926 Y1.6145  
G01 X-5.9575 Y1.4837  
G01 X-5.9575 Y1.3483  
G01 X-5.9759 Y1.2797  
G01 X-5.9926 Y1.2175  
G01 X-6.0092 Y1.1886  
G01 X-6.0603 Y1.1002  
G01 X-6.1560 Y1.0045  
G01 X-6.2733 Y0.9367  
G01 X-6.4041 Y0.9017  
G01 X-77.5959 Y0.9017  
G01 X-77.7267 Y0.9367  
G01 X-77.8440 Y1.0045  
G01 X-77.9382 Y1.0987  
G01 X-77.9878 Y1.1835  
G01 X-78.0074 Y1.2175  
G01 X-78.0233 Y1.2767  
G01 X-78.0425 Y1.3483  
G01 X-78.0425 Y1.4837  
G01 X-78.0074 Y1.6145  
G01 X-77.9397 Y1.7318  
G01 X-77.7294 Y1.9421  
G01 X-77.5387 Y2.1745  
G01 X-77.3716 Y2.4246  
G01 X-77.2298 Y2.6898  
G01 X-77.1147 Y2.9676  
G01 X-77.0638 Y3.1357  
G01 X-77.0867 Y3.1357  
G01 X-77.1913 Y2.8366  
G01 X-77.3392 Y2.5295  
G01 X-77.5206 Y2.2408  
G01 X-77.7332 Y1.9743  
G01 X-77.9742 Y1.7332  
G01 X-78.2408 Y1.5206  
G01 X-78.5295 Y1.3392  
G01 X-78.8366 Y1.1913  
G01 X-79.1584 Y1.0787  
G01 X-79.4908 Y1.0029  
G01 X-79.8295 Y0.9647  
G01 X-80.1705 Y0.9647  
G01 X-80.5092 Y1.0029  
G01 X-80.8416 Y1.0787  
G01 X-81.1634 Y1.1913  
G01 X-81.4705 Y1.3392  
G01 X-81.7592 Y1.5206  
G01 X-82.0257 Y1.7332  
G01 X-82.2668 Y1.9743  
G01 X-82.4794 Y2.2408  
G01 X-82.6607 Y2.5295  
G01 X-82.8087 Y2.8366  
G01 X-82.9133 Y3.1357  
G01 X-82.9362 Y3.1357  
G01 X-82.8853 Y2.9676  
G01 X-82.7702 Y2.6898  
G01 X-82.6284 Y2.4246  
G01 X-82.4613 Y2.1745  
G01 X-82.2706 Y1.9421  
G01 X-82.0603 Y1.7318  
G01 X-81.9926 Y1.6145  
G01 X-81.9575 Y1.4837  
G01 X-81.9575 Y1.3483  
G01 X-81.9759 Y1.2797  
G01 X-81.9926 Y1.2175  
G01 X-82.0092 Y1.1886  
G01 X-82.0603 Y1.1002  
G01 X-82.1560 Y1.0045  
G01 X-82.2733 Y0.9367  
G01 X-82.4041 Y0.9017  
G01 X-95.9469 Y0.9017  
G01 X-95.9612 Y0.8987  
G01 X-96.0144 Y0.9017  
G01 X-96.0677 Y0.9017  
G01 X-96.0818 Y0.9055  
G01 X-96.2941 Y0.9174  
G01 X-96.3377 Y0.9158  
G01 X-96.3615 Y0.9212  
G01 X-96.3858 Y0.9225  
G01 X-96.4272 Y0.9362  
G01 X-96.9585 Y1.0575  
G01 X-97.0156 Y1.0683  
G01 X-97.0244 Y1.0725  
G01 X-97.0339 Y1.0747  
G01 X-97.0852 Y1.1018  
G01 X-97.5892 Y1.3445  
G01 X-97.6425 Y1.3678  
G01 X-97.6501 Y1.3738  
G01 X-97.6589 Y1.3781  
G01 X-97.7029 Y1.4159  
G01 X-98.1403 Y1.7647  
G01 X-98.1870 Y1.7992  
G01 X-98.1931 Y1.8069  
G01 X-98.2008 Y1.8130  
G01 X-98.2353 Y1.8597  
G01 X-98.5841 Y2.2971  
G01 X-98.6219 Y2.3411  
G01 X-98.6262 Y2.3499  
G01 X-98.6322 Y2.3575  
G01 X-98.6555 Y2.4108  
G01 X-98.8982 Y2.9148  
G01 X-98.9253 Y2.9661  
G01 X-98.9275 Y2.9756  
G01 X-98.9317 Y2.9844  
G01 X-98.9425 Y3.0415  
G01 X-99.0638 Y3.5728  
G01 X-99.0774 Y3.6142  
G01 X-99.0788 Y3.6385  
G01 X-99.0842 Y3.6622  
G01 X-99.0826 Y3.7059  
G01 X-99.0945 Y3.9182  
G01 X-99.0983 Y3.9323  
G01 X-99.0983 Y3.9856  
G01 X-99.1013 Y4.0388  
G01 X-99.0983 Y4.0531  
G01 X-99.0983 Y41.5959 
G01 X-99.0632 Y41.7267 
G01 X-98.9955 Y41.8440 
G01 X-98.9013 Y41.9382 
G01 X-98.8165 Y41.9878 
G01 X-98.7825 Y42.0074 
G01 X-98.7233 Y42.0233 
G01 X-98.6517 Y42.0425 
G01 X-98.5163 Y42.0425 
G01 X-98.3855 Y42.0074 
G01 X-98.2682 Y41.9397 
G01 X-98.0579 Y41.7294 
G01 X-97.8255 Y41.5387 
G01 X-97.5754 Y41.3716 
G01 X-97.3102 Y41.2298 
G01 X-97.0324 Y41.1147 
G01 X-96.8643 Y41.0638 
G01 X-96.8643 Y41.0867 
G01 X-97.1634 Y41.1913 
G01 X-97.4705 Y41.3392 
G01 X-97.7592 Y41.5206 
G01 X-98.0257 Y41.7332 
G01 X-98.2668 Y41.9742 
G01 X-98.4794 Y42.2408 
G01 X-98.6607 Y42.5295 
G01 X-98.8087 Y42.8366 
G01 X-98.9213 Y43.1584 
G01 X-98.9971 Y43.4908 
G01 X-99.0353 Y43.8295 
G01 X-99.0353 Y44.1705 
G01 X-98.9971 Y44.5092 
G01 X-98.9213 Y44.8416 
G01 X-98.8087 Y45.1634 
G01 X-98.6607 Y45.4705 
G01 X-98.4794 Y45.7592 
G01 X-98.2668 Y46.0257 
G01 X-98.0257 Y46.2668 
G01 X-97.7592 Y46.4794 
G01 X-97.4705 Y46.6608 
G01 X-97.1634 Y46.8087 
G01 X-96.8643 Y46.9133 
G01 X-96.8643 Y46.9362 
G01 X-97.0324 Y46.8853 
G01 X-97.3102 Y46.7702 
G01 X-97.5754 Y46.6284 
G01 X-97.8255 Y46.4613 
G01 X-98.0579 Y46.2706 
G01 X-98.2682 Y46.0603 
G01 X-98.3855 Y45.9926 
G01 X-98.5163 Y45.9575 
G01 X-98.6517 Y45.9575 
G01 X-98.7203 Y45.9759 
G01 X-98.7825 Y45.9926 
G01 X-98.8113 Y46.0092 
G01 X-98.8998 Y46.0603 
G01 X-98.9955 Y46.1560 
G01 X-99.0632 Y46.2733 
G01 X-99.0983 Y46.4041 
G01 X-99.0983 Y66.9469 
G01 X-99.1013 Y66.9612 
G01 X-99.0983 Y67.0144 
G01 X-99.0983 Y67.0677 
G01 X-99.0945 Y67.0818 
G01 X-99.0826 Y67.2941 
G01 X-99.0842 Y67.3377 
G01 X-99.0788 Y67.3615 
G01 X-99.0774 Y67.3858 
G01 X-99.0638 Y67.4272 
G01 X-98.9425 Y67.9585 
G01 X-98.9317 Y68.0156 
G01 X-98.9275 Y68.0244 
G01 X-98.9253 Y68.0339 
G01 X-98.8982 Y68.0852 
G01 X-98.6555 Y68.5892 
G01 X-98.6322 Y68.6425 
G01 X-98.6262 Y68.6501 
G01 X-98.6219 Y68.6589 
G01 X-98.5840 Y68.7029 
G01 X-98.2353 Y69.1403 
G01 X-98.2008 Y69.1870 
G01 X-98.1931 Y69.1931 
G01 X-98.1870 Y69.2008 
G01 X-98.1403 Y69.2353 
G01 X-97.7029 Y69.5841 
G01 X-97.6589 Y69.6219 
G01 X-97.6501 Y69.6262 
G01 X-97.6425 Y69.6322 
G01 X-97.5892 Y69.6555 
G01 X-97.0852 Y69.8982 
G01 X-97.0339 Y69.9253 
G01 X-97.0244 Y69.9275 
G01 X-97.0156 Y69.9317 
G01 X-96.9585 Y69.9425 
G01 X-96.4272 Y70.0638 
G01 X-96.3858 Y70.0774 
G01 X-96.3615 Y70.0788 
G01 X-96.3377 Y70.0842 
G01 X-96.2941 Y70.0826 
G01 X-96.0818 Y70.0945 
G01 X-96.0677 Y70.0983 
G01 X-96.0144 Y70.0983 
G01 X-95.9612 Y70.1013 
G01 X-95.9469 Y70.0983 
G01 X-82.4041 Y70.0983 
G01 X-82.2733 Y70.0632 
G01 X-82.1560 Y69.9955 
G01 X-82.0618 Y69.9013 
G01 X-82.0122 Y69.8165 
G01 X-81.9926 Y69.7825 
G01 X-81.9767 Y69.7233 
G01 X-81.9575 Y69.6517 
G01 X-81.9575 Y69.5163 
G01 X-81.9926 Y69.3855 
G01 X-82.0603 Y69.2682 
G01 X-82.2706 Y69.0579 
G01 X-82.4613 Y68.8255 
G01 X-82.6284 Y68.5754 
G01 X-82.7702 Y68.3102 
G01 X-82.8853 Y68.0324 
G01 X-82.9362 Y67.8643 
G01 X-82.9133 Y67.8643 
G01 X-82.8087 Y68.1634 
G01 X-82.6607 Y68.4705 
G01 X-82.4794 Y68.7592 
G01 X-82.2668 Y69.0257 
G01 X-82.0257 Y69.2668 
G01 X-81.7592 Y69.4794 
G01 X-81.4705 Y69.6607 
G01 X-81.1634 Y69.8087 
G01 X-80.8416 Y69.9213 
G01 X-80.5092 Y69.9971 
G01 X-80.1705 Y70.0353 
G01 X-79.8295 Y70.0353 
G01 X-79.4908 Y69.9971 
G01 X-79.1584 Y69.9213 
G01 X-78.8366 Y69.8087 
G01 X-78.5295 Y69.6607 
G01 X-78.2408 Y69.4794 
G01 X-77.9742 Y69.2668 
G01 X-77.7332 Y69.0257 
G01 X-77.5206 Y68.7592 
G01 X-77.3392 Y68.4705 
G01 X-77.1913 Y68.1634 
G01 X-77.0867 Y67.8643 
G01 X-77.0638 Y67.8643 
G01 X-77.1147 Y68.0324 
G01 X-77.2298 Y68.3102 
G01 X-77.3716 Y68.5754 
G01 X-77.5387 Y68.8255 
G01 X-77.7294 Y69.0579 
G01 X-77.9397 Y69.2682 
G01 X-78.0074 Y69.3855 
G01 X-78.0425 Y69.5163 
G01 X-78.0425 Y69.6517 
G01 X-78.0241 Y69.7203 
G01 X-78.0074 Y69.7825 
G01 X-77.9908 Y69.8113 
G01 X-77.9397 Y69.8998 
G01 X-77.8440 Y69.9955 
G01 X-77.7267 Y70.0632 
G01 X-77.5959 Y70.0983 
G01 X-6.4041 Y70.0983 
G01 X-6.2733 Y70.0632 
G01 X-6.1560 Y69.9955 
G01 X-6.0618 Y69.9013 
G01 X-6.0122 Y69.8165 
G01 X-5.9926 Y69.7825 
G01 X-5.9767 Y69.7233 
G01 X-5.9575 Y69.6517 
G01 X-5.9575 Y69.5163 
G01 X-5.9926 Y69.3855 
G01 X-6.0603 Y69.2682 
G01 X-6.2706 Y69.0579 
G01 X-6.4613 Y68.8255 
G01 X-6.6284 Y68.5754 
G01 X-6.7702 Y68.3102 
G01 X-6.8853 Y68.0324 
G01 X-6.9362 Y67.8643 
G01 X-6.9133 Y67.8643 
G01 X-6.8087 Y68.1634 
G01 X-6.6608 Y68.4705 
G01 X-6.4794 Y68.7592 
G01 X-6.2668 Y69.0257 
G01 X-6.0257 Y69.2668 
G01 X-5.7592 Y69.4794 
G01 X-5.4705 Y69.6607 
G01 X-5.1634 Y69.8087 
G01 X-4.8416 Y69.9213 
G01 X-4.5092 Y69.9971 
G01 X-4.1705 Y70.0353 
G01 X-3.8295 Y70.0353 
G01 X-3.4908 Y69.9971 
G01 X-3.1584 Y69.9213 
G01 X-2.8366 Y69.8087 
G01 X-2.5295 Y69.6607 
G01 X-2.2408 Y69.4794 
G01 X-1.9743 Y69.2668 
G01 X-1.7332 Y69.0257 
G01 X-1.5206 Y68.7592 
G01 X-1.3392 Y68.4705 
G01 X-1.1913 Y68.1634 
G01 X-1.0787 Y67.8416 
G01 X-1.0029 Y67.5092 
G01 X-0.9647 Y67.1705 
G01 X-0.9647 Y66.8295 
G01 X-1.0029 Y66.4908 
G01 X-1.0787 Y66.1584 
G01 X-1.1913 Y65.8366 
G01 X-1.3392 Y65.5295 
G01 X-1.5206 Y65.2408 
G01 X-1.7332 Y64.9742 
G01 X-1.9743 Y64.7332 
G01 X-2.2408 Y64.5206 
G01 X-2.5295 Y64.3392 
G01 X-2.8366 Y64.1913 
G01 X-3.1357 Y64.0867 
G01 X-3.1357 Y64.0638 
G01 X-2.9676 Y64.1147 
G01 X-2.6898 Y64.2298 
G01 X-2.4246 Y64.3716 
G01 X-2.1745 Y64.5387 
G01 X-1.9421 Y64.7294 
G01 X-1.7318 Y64.9397 
G01 X-1.6145 Y65.0074 
G01 X-1.4837 Y65.0425 
G01 X-1.3483 Y65.0425 
G01 X-1.2797 Y65.0241 
G01 X-1.2175 Y65.0074 
G01 X-1.1886 Y64.9908 
G01 X-1.1002 Y64.9397 
G01 X-1.0045 Y64.8440 
G01 X-0.9367 Y64.7267 
G01 X-0.9017 Y64.5959 
G01 X-0.9017 Y53.9132 
G01 X-0.8973 Y53.8795 
G01 X-0.9017 Y53.8458 
G01 X-0.9017 Y53.8118 
G01 X-0.9105 Y53.7789 
G01 X-0.9149 Y53.7452 
G01 X-0.9280 Y53.7138 
G01 X-0.9367 Y53.6810 
G01 X-0.9537 Y53.6515 
G01 X-0.9668 Y53.6201 
G01 X-0.9875 Y53.5931 
G01 X-1.0045 Y53.5637 
G01 X-1.0285 Y53.5397 
G01 X-1.0492 Y53.5127 
G01 X-1.0762 Y53.4920 
G01 X-1.1002 Y53.4680 
G01 X-1.1297 Y53.4509 
G01 X-1.1566 Y53.4303 
G01 X-1.1880 Y53.4172 
G01 X-1.2175 Y53.4002 
G01 X-1.2503 Y53.3914 
G01 X-1.2817 Y53.3784 
G01 X-1.3155 Y53.3740 
G01 X-1.3483 Y53.3652 
G01 X-1.3823 Y53.3652 
G01 X-1.4160 Y53.3608 
G01 X-1.4497 Y53.3652 
G01 X-1.4837 Y53.3652 
G01 X-1.5166 Y53.3740 
G01 X-1.5503 Y53.3784 
G01 X-1.5817 Y53.3914 
G01 X-1.6145 Y53.4002 
G01 X-1.6439 Y53.4172 
G01 X-1.6754 Y53.4303 
G01 X-1.7023 Y53.4510 
G01 X-1.7318 Y53.4680 
G01 X-1.7558 Y53.4920 
G01 X-1.7828 Y53.5127 
G01 X-1.8035 Y53.5397 
G01 X-1.8275 Y53.5637 
G01 X-1.8445 Y53.5932 
G01 X-1.8652 Y53.6201 
G01 X-1.8782 Y53.6515 
G01 X-1.8952 Y53.6810 
G01 X-1.9040 Y53.7138 
G01 X-1.9100 Y53.7283 
G01 X-7.5797 Y59.3980 
G01 X-8.0523 Y59.5937 
G01 X-14.9477 Y59.5937 
G01 X-15.4203 Y59.3980 
G01 X-15.9022 Y58.9161 
G01 X-20.4298 Y54.3885 
G01 X-20.5471 Y54.3207 
G01 X-20.6779 Y54.2857 
G01 X-25.1902 Y54.2857 
G01 X-25.3210 Y54.3207 
G01 X-25.4383 Y54.3885 
G01 X-25.5340 Y54.4842 
G01 X-25.6975 Y54.6477 
G01 X-27.0625 Y54.6477 
G01 X-28.0277 Y53.6825 
G01 X-28.0277 Y52.3175 
G01 X-27.0625 Y51.3523 
G01 X-25.6975 Y51.3523 
G01 X-25.5340 Y51.5158 
G01 X-25.4454 Y51.6044 
G01 X-25.4383 Y51.6115 
G01 X-25.3245 Y51.6772 
G01 X-25.3210 Y51.6792 
G01 X-25.1902 Y51.7143 
G01 X-19.7443 Y51.7143 
G01 X-19.2717 Y51.9100 
G01 X-18.8856 Y52.2962 
G01 X-18.7898 Y52.3919 
G01 X-14.2622 Y56.9195 
G01 X-14.1449 Y56.9873 
G01 X-14.0141 Y57.0223 
G01 X-13.2765 Y57.0223 
G01 X-13.2428 Y57.0267 
G01 X-13.2091 Y57.0223 
G01 X-13.1751 Y57.0223 
G01 X-13.1422 Y57.0135 
G01 X-13.1085 Y57.0091 
G01 X-13.0771 Y56.9960 
G01 X-13.0443 Y56.9872 
G01 X-13.0148 Y56.9702 
G01 X-12.9834 Y56.9572 
G01 X-12.9564 Y56.9365 
G01 X-12.9270 Y56.9195 
G01 X-12.9030 Y56.8955 
G01 X-12.8760 Y56.8748 
G01 X-12.8553 Y56.8478 
G01 X-12.8312 Y56.8238 
G01 X-12.8143 Y56.7943 
G01 X-12.7935 Y56.7674 
G01 X-12.7805 Y56.7359 
G01 X-12.7635 Y56.7065 
G01 X-12.7547 Y56.6737 
G01 X-12.7417 Y56.6423 
G01 X-12.7373 Y56.6086 
G01 X-12.7285 Y56.5757 
G01 X-12.7285 Y56.5417 
G01 X-12.7241 Y56.5080 
G01 X-12.7285 Y56.4743 
G01 X-12.7285 Y56.4403 
G01 X-12.7373 Y56.4075 
G01 X-12.7417 Y56.3737 
G01 X-12.7547 Y56.3423 
G01 X-12.7635 Y56.3095 
G01 X-12.7805 Y56.2801 
G01 X-12.8857 Y56.0262 
G01 X-12.8857 Y53.2738 
G01 X-12.7346 Y52.9091 
G01 X-12.7098 Y52.8534 
G01 X-12.7088 Y52.8467 
G01 X-12.7061 Y52.8404 
G01 X-12.7026 Y52.8135 
G01 X-12.6980 Y52.8128 
G01 X-12.6731 Y52.8017 
G01 X-12.6468 Y52.7947 
G01 X-12.6115 Y52.7743 
G01 X-12.5743 Y52.7577 
G01 X-12.5531 Y52.7406 
G01 X-12.5295 Y52.7270 
G01 X-12.5017 Y52.6991 
G01 X-12.1762 Y52.5643 
G01 X-9.4238 Y52.5643 
G01 X-9.0983 Y52.6991 
G01 X-8.8491 Y52.9483 
G01 X-8.7143 Y53.2738 
G01 X-8.7143 Y55.7221 
G01 X-8.6792 Y55.8529 
G01 X-8.6115 Y55.9702 
G01 X-8.5158 Y56.0660 
G01 X-8.3985 Y56.1337 
G01 X-8.2677 Y56.1687 
G01 X-8.1323 Y56.1687 
G01 X-8.0015 Y56.1337 
G01 X-7.8842 Y56.0660 
G01 X-7.7885 Y55.9702 
G01 X-5.0420 Y53.2238 
G01 X-4.9743 Y53.1065 
G01 X-4.9393 Y52.9757 
G01 X-4.9393 Y52.8403 
G01 X-4.9743 Y52.7095 
G01 X-5.0420 Y52.5922 
G01 X-5.1378 Y52.4965 
G01 X-5.2551 Y52.4287 
G01 X-5.3644 Y52.3994 
G01 X-5.7496 Y52.0143 
G01 X-5.7136 Y52.0143 
G01 X-5.3597 Y52.3683 
G01 X-4.6403 Y52.3683 
G01 X-4.1317 Y51.8597 
G01 X-4.1317 Y51.1403 
G01 X-4.6403 Y50.6317 
G01 X-5.3597 Y50.6317 
G01 X-5.7136 Y50.9857 
G01 X-6.7864 Y50.9857 
G01 X-7.1403 Y50.6317 
G01 X-7.8597 Y50.6317 
G01 X-8.2136 Y50.9857 
G01 X-8.3085 Y50.9857 
G01 X-8.2769 Y50.8677 
G01 X-8.2769 Y50.7323 
G01 X-8.2953 Y50.6637 
G01 X-8.3119 Y50.6015 
G01 X-8.3286 Y50.5727 
G01 X-8.3797 Y50.4842 
G01 X-8.4754 Y50.3885 
G01 X-8.5242 Y50.3603 
G01 X-8.5927 Y50.3207 
G01 X-8.7235 Y50.2857 
G01 X-12.1971 Y50.2857 
G01 X-12.2502 Y50.2685 
G01 X-12.2639 Y50.2678 
G01 X-12.2771 Y50.2643 
G01 X-12.3313 Y50.2643 
G01 X-12.3855 Y50.2614 
G01 X-12.3988 Y50.2643 
G01 X-12.4125 Y50.2643 
G01 X-12.4649 Y50.2783 
G01 X-12.5179 Y50.2896 
G01 X-12.5301 Y50.2958 
G01 X-12.5433 Y50.2993 
G01 X-12.5902 Y50.3264 
G01 X-12.6386 Y50.3511 
G01 X-12.6487 Y50.3602 
G01 X-12.6606 Y50.3670 
G01 X-12.6989 Y50.4054 
G01 X-12.7392 Y50.4417 
G01 X-12.7467 Y50.4531 
G01 X-12.7563 Y50.4628 
G01 X-12.7834 Y50.5098 
G01 X-12.8130 Y50.5552 
G01 X-12.8172 Y50.5682 
G01 X-12.8240 Y50.5801 
G01 X-12.8381 Y50.6324 
G01 X-12.8548 Y50.6840 
G01 X-12.8555 Y50.6977 
G01 X-12.8591 Y50.7109 
G01 X-12.8591 Y50.7651 
G01 X-12.8619 Y50.8193 
G01 X-12.8591 Y50.8326 
G01 X-12.8591 Y51.1363 
G01 X-13.0489 Y51.7207 
G01 X-13.2376 Y51.9804 
G01 X-13.2569 Y51.9997 
G01 X-13.2773 Y52.0350 
G01 X-13.3012 Y52.0679 
G01 X-13.3110 Y52.0934 
G01 X-13.3246 Y52.1170 
G01 X-13.3351 Y52.1563 
G01 X-13.3497 Y52.1944 
G01 X-13.3513 Y52.2091 
G01 X-13.3978 Y52.2284 
G01 X-13.4547 Y52.2502 
G01 X-13.4602 Y52.2542 
G01 X-13.4666 Y52.2568 
G01 X-13.5150 Y52.2940 
G01 X-13.9072 Y52.5789 
G01 X-14.4916 Y52.7688 
G01 X-15.3986 Y52.7688 
G01 X-15.9830 Y52.5789 
G01 X-16.4801 Y52.2178 
G01 X-16.8412 Y51.7207 
G01 X-17.0311 Y51.1363 
G01 X-17.0311 Y50.8326 
G01 X-17.0282 Y50.8192 
G01 X-17.0311 Y50.7651 
G01 X-17.0311 Y50.7109 
G01 X-17.0346 Y50.6977 
G01 X-17.0353 Y50.6840 
G01 X-17.0521 Y50.6324 
G01 X-17.0661 Y50.5801 
G01 X-17.0730 Y50.5682 
G01 X-17.0772 Y50.5552 
G01 X-17.1067 Y50.5097 
G01 X-17.1338 Y50.4628 
G01 X-17.1435 Y50.4531 
G01 X-17.1510 Y50.4417 
G01 X-17.1913 Y50.4054 
G01 X-17.2296 Y50.3670 
G01 X-17.2414 Y50.3602 
G01 X-17.2516 Y50.3510 
G01 X-17.2999 Y50.3264 
G01 X-17.3469 Y50.2993 
G01 X-17.3601 Y50.2958 
G01 X-17.3723 Y50.2896 
G01 X-17.4253 Y50.2783 
G01 X-17.4777 Y50.2643 
G01 X-17.4913 Y50.2643 
G01 X-17.5047 Y50.2614 
G01 X-17.5589 Y50.2643 
G01 X-17.6131 Y50.2643 
G01 X-17.6263 Y50.2678 
G01 X-17.6399 Y50.2685 
G01 X-17.6915 Y50.2853 
G01 X-18.2557 Y50.2857 
G01 X-18.7283 Y50.0900 
G01 X-22.4298 Y46.3885 
G01 X-22.5471 Y46.3207 
G01 X-22.6779 Y46.2857 
G01 X-25.1902 Y46.2857 
G01 X-25.3210 Y46.3207 
G01 X-25.4383 Y46.3885 
G01 X-25.5340 Y46.4842 
G01 X-25.6975 Y46.6477 
G01 X-27.0625 Y46.6477 
G01 X-28.0277 Y45.6825 
G01 X-28.0277 Y44.3175 
G01 X-27.0625 Y43.3523 
G01 X-25.6975 Y43.3523 
G01 X-25.4383 Y43.6115 
G01 X-25.3210 Y43.6792 
G01 X-25.1902 Y43.7143 
G01 X-21.7443 Y43.7143 
G01 X-21.2717 Y43.9100 
G01 X-20.7898 Y44.3919 
G01 X-19.0805 Y46.1012 
G01 X-19.0549 Y46.1329 
G01 X-19.0328 Y46.1489 
G01 X-19.0136 Y46.1682 
G01 X-18.9783 Y46.1885 
G01 X-18.9453 Y46.2125 
G01 X-18.9199 Y46.2223 
G01 X-18.8963 Y46.2359 
G01 X-18.8569 Y46.2464 
G01 X-18.8189 Y46.2610 
G01 X-18.7918 Y46.2639 
G01 X-18.7655 Y46.2709 
G01 X-18.7247 Y46.2709 
G01 X-18.6842 Y46.2752 
G01 X-18.6573 Y46.2709 
G01 X-18.6301 Y46.2709 
G01 X-18.5907 Y46.2604 
G01 X-18.5505 Y46.2540 
G01 X-18.5256 Y46.2429 
G01 X-18.4993 Y46.2359 
G01 X-18.4640 Y46.2155 
G01 X-18.4267 Y46.1989 
G01 X-18.4056 Y46.1818 
G01 X-18.3820 Y46.1682 
G01 X-18.3532 Y46.1393 
G01 X-18.3215 Y46.1137 
G01 X-18.3055 Y46.0917 
G01 X-18.2862 Y46.0724 
G01 X-18.2659 Y46.0371 
G01 X-18.0807 Y45.7822 
G01 X-17.5836 Y45.4210 
G01 X-16.9992 Y45.2312 
G01 X-16.0922 Y45.2312 
G01 X-15.5078 Y45.4210 
G01 X-15.2583 Y45.6023 
G01 X-15.2161 Y45.6365 
G01 X-15.2036 Y45.6420 
G01 X-15.1926 Y45.6501 
G01 X-15.1419 Y45.6695 
G01 X-15.0924 Y45.6916 
G01 X-15.0789 Y45.6937 
G01 X-15.0662 Y45.6986 
G01 X-15.0122 Y45.7043 
G01 X-14.9587 Y45.7127 
G01 X-14.9451 Y45.7113 
G01 X-14.9315 Y45.7127 
G01 X-14.8779 Y45.7043 
G01 X-14.8240 Y45.6986 
G01 X-14.8112 Y45.6937 
G01 X-14.7977 Y45.6916 
G01 X-14.7482 Y45.6695 
G01 X-14.6976 Y45.6501 
G01 X-14.6865 Y45.6420 
G01 X-14.6740 Y45.6365 
G01 X-14.6319 Y45.6024 
G01 X-14.3823 Y45.4210 
G01 X-13.7980 Y45.2312 
G01 X-13.3323 Y45.2312 
G01 X-13.2015 Y45.1961 
G01 X-13.0842 Y45.1284 
G01 X-12.9885 Y45.0327 
G01 X-12.9207 Y44.9154 
G01 X-12.8857 Y44.7846 
G01 X-12.8857 Y41.9738 
G01 X-12.7509 Y41.6483 
G01 X-12.5017 Y41.3991 
G01 X-12.1762 Y41.2643 
G01 X-9.4014 Y41.2643 
G01 X-9.3677 Y41.2732 
G01 X-9.3337 Y41.2732 
G01 X-9.3000 Y41.2777 
G01 X-9.2663 Y41.2732 
G01 X-9.2323 Y41.2732 
G01 X-9.1995 Y41.2644 
G01 X-9.1658 Y41.2600 
G01 X-9.1343 Y41.2470 
G01 X-9.1015 Y41.2382 
G01 X-9.0721 Y41.2212 
G01 X-9.0406 Y41.2082 
G01 X-9.0137 Y41.1875 
G01 X-8.9842 Y41.1705 
G01 X-8.9602 Y41.1464 
G01 X-8.9332 Y41.1257 
G01 X-8.9125 Y41.0987 
G01 X-8.8885 Y41.0747 
G01 X-8.8715 Y41.0453 
G01 X-8.8508 Y41.0183 
G01 X-8.8377 Y40.9869 
G01 X-8.8207 Y40.9574 
G01 X-8.8119 Y40.9246 
G01 X-8.7989 Y40.8932 
G01 X-8.7945 Y40.8595 
G01 X-8.7857 Y40.8266 
G01 X-8.7857 Y40.7926 
G01 X-8.7813 Y40.7589 
G01 X-8.7857 Y40.7252 
G01 X-8.7857 Y40.1779 
G01 X-8.8207 Y40.0471 
G01 X-8.8885 Y39.9298 
G01 X-8.9842 Y39.8340 
G01 X-11.4298 Y37.3885 
G01 X-11.5471 Y37.3207 
G01 X-11.6779 Y37.2857 
G01 X-18.9286 Y37.2857 
G01 X-19.0594 Y37.3207 
G01 X-19.1767 Y37.3885 
G01 X-19.2724 Y37.4842 
G01 X-19.2745 Y37.4877 
G01 X-19.3401 Y37.6015 
G01 X-19.3654 Y37.6957 
G01 X-19.3752 Y37.7323 
G01 X-19.3752 Y37.8677 
G01 X-19.3401 Y37.9985 
G01 X-19.2724 Y38.1158 
G01 X-19.1767 Y38.2115 
G01 X-18.9025 Y38.4857 
G01 X-18.9385 Y38.4857 
G01 X-19.5384 Y37.8857 
G01 X-20.4616 Y37.8857 
G01 X-21.0615 Y38.4857 
G01 X-21.2783 Y38.4857 
G01 X-21.9385 Y38.4857 
G01 X-22.5384 Y37.8857 
G01 X-23.4616 Y37.8857 
G01 X-24.0615 Y38.4857 
G01 X-24.9385 Y38.4857 
G01 X-25.5384 Y37.8857 
G01 X-26.4616 Y37.8857 
G01 X-27.0615 Y38.4857 
G01 X-27.0975 Y38.4857 
G01 X-26.8233 Y38.2115 
G01 X-26.7371 Y38.1253 
G01 X-26.7276 Y38.1158 
G01 X-26.6619 Y38.0020 
G01 X-26.6598 Y37.9985 
G01 X-26.6248 Y37.8677 
G01 X-26.6248 Y37.7323 
G01 X-26.6338 Y37.6987 
G01 X-26.6598 Y37.6015 
G01 X-26.7276 Y37.4842 
G01 X-26.8233 Y37.3885 
G01 X-26.9371 Y37.3228 
G01 X-26.9406 Y37.3207 
G01 X-27.0714 Y37.2857 
G01 X-32.2557 Y37.2857 
G01 X-32.7283 Y37.0900 
G01 X-36.6102 Y33.2080 
G01 X-36.8842 Y32.9340 
G01 X-37.0015 Y32.8663 
G01 X-37.1323 Y32.8313 
G01 X-37.2677 Y32.8313 
G01 X-37.3363 Y32.8497 
G01 X-37.3985 Y32.8663 
G01 X-37.4273 Y32.8830 
G01 X-37.5158 Y32.9340 
G01 X-37.6115 Y33.0298 
G01 X-37.6792 Y33.1471 
G01 X-37.7143 Y33.2779 
G01 X-37.7143 Y44.2557 
G01 X-37.9248 Y44.7639 
G01 X-37.9418 Y44.7934 
G01 X-37.9506 Y44.8262 
G01 X-37.9636 Y44.8576 
G01 X-37.9680 Y44.8913 
G01 X-37.9768 Y44.9242 
G01 X-37.9768 Y44.9582 
G01 X-37.9813 Y44.9919 
G01 X-37.9768 Y45.0256 
G01 X-37.9768 Y45.0596 
G01 X-37.9680 Y45.0924 
G01 X-37.9636 Y45.1261 
G01 X-37.9506 Y45.1575 
G01 X-37.9418 Y45.1904 
G01 X-37.9248 Y45.2198 
G01 X-37.9118 Y45.2512 
G01 X-37.8911 Y45.2782 
G01 X-37.8741 Y45.3077 
G01 X-37.8500 Y45.3317 
G01 X-37.8293 Y45.3587 
G01 X-37.8024 Y45.3794 
G01 X-36.9100 Y46.2717 
G01 X-36.7143 Y46.7443 
G01 X-36.7143 Y60.2557 
G01 X-36.9100 Y60.7283 
G01 X-37.3919 Y61.2102 
G01 X-39.1617 Y62.9800 
G01 X-39.6343 Y63.1757 
G01 X-78.6154 Y63.1757 
G01 X-78.6491 Y63.1713 
G01 X-78.6828 Y63.1757 
G01 X-78.7168 Y63.1757 
G01 X-78.7497 Y63.1845 
G01 X-78.7834 Y63.1889 
G01 X-78.8148 Y63.2019 
G01 X-78.8476 Y63.2107 
G01 X-78.8771 Y63.2277 
G01 X-78.9085 Y63.2408 
G01 X-78.9355 Y63.2615 
G01 X-78.9649 Y63.2785 
G01 X-78.9890 Y63.3025 
G01 X-79.0159 Y63.3232 
G01 X-79.0366 Y63.3502 
G01 X-79.0607 Y63.3742 
G01 X-79.0777 Y63.4037 
G01 X-79.0984 Y63.4306 
G01 X-79.1114 Y63.4620 
G01 X-79.1284 Y63.4915 
G01 X-79.1372 Y63.5243 
G01 X-79.1502 Y63.5557 
G01 X-79.1546 Y63.5894 
G01 X-79.1634 Y63.6223 
G01 X-79.1634 Y63.6563 
G01 X-79.1679 Y63.6900 
G01 X-79.1634 Y63.7237 
G01 X-79.1634 Y63.7577 
G01 X-79.1546 Y63.7906 
G01 X-79.1502 Y63.8243 
G01 X-79.1372 Y63.8557 
G01 X-79.1284 Y63.8885 
G01 X-79.1114 Y63.9180 
G01 X-79.0984 Y63.9494 
G01 X-79.0777 Y63.9763 
G01 X-79.0607 Y64.0058 
G01 X-79.0366 Y64.0298 
G01 X-79.0159 Y64.0568 
G01 X-78.9890 Y64.0775 
G01 X-78.9649 Y64.1015 
G01 X-78.9355 Y64.1185 
G01 X-78.9085 Y64.1392 
G01 X-78.8771 Y64.1522 
G01 X-78.8476 Y64.1692 
G01 X-78.8148 Y64.1780 
G01 X-78.6898 Y64.2298 
G01 X-78.4246 Y64.3716 
G01 X-78.1745 Y64.5387 
G01 X-77.9421 Y64.7294 
G01 X-77.7294 Y64.9421 
G01 X-77.5387 Y65.1745 
G01 X-77.3716 Y65.4246 
G01 X-77.2298 Y65.6898 
G01 X-77.1147 Y65.9676 
G01 X-77.0638 Y66.1357 
G01 X-77.0867 Y66.1357 
G01 X-77.1913 Y65.8366 
G01 X-77.3392 Y65.5295 
G01 X-77.5206 Y65.2408 
G01 X-77.7332 Y64.9742 
G01 X-77.9742 Y64.7332 
G01 X-78.2408 Y64.5206 
G01 X-78.5295 Y64.3392 
G01 X-78.8366 Y64.1913 
G01 X-79.1584 Y64.0787 
G01 X-79.4908 Y64.0029 
G01 X-79.8295 Y63.9647 
G01 X-80.1705 Y63.9647 
G01 X-80.5092 Y64.0029 
G01 X-80.8416 Y64.0787 
G01 X-81.1634 Y64.1913 
G01 X-81.4705 Y64.3392 
G01 X-81.7592 Y64.5206 
G01 X-82.0257 Y64.7332 
G01 X-82.2668 Y64.9742 
G01 X-82.4794 Y65.2408 
G01 X-82.6607 Y65.5295 
G01 X-82.8087 Y65.8366 
G01 X-82.9133 Y66.1357 
G01 X-82.9362 Y66.1357 
G01 X-82.8853 Y65.9676 
G01 X-82.7702 Y65.6898 
G01 X-82.6284 Y65.4246 
G01 X-82.4613 Y65.1745 
G01 X-82.2706 Y64.9421 
G01 X-82.0579 Y64.7294 
G01 X-81.8255 Y64.5387 
G01 X-81.5754 Y64.3716 
G01 X-81.3102 Y64.2298 
G01 X-81.1852 Y64.1780 
G01 X-81.1523 Y64.1692 
G01 X-81.1229 Y64.1522 
G01 X-81.0915 Y64.1392 
G01 X-81.0645 Y64.1185 
G01 X-81.0351 Y64.1015 
G01 X-81.0110 Y64.0775 
G01 X-80.9841 Y64.0568 
G01 X-80.9634 Y64.0298 
G01 X-80.9393 Y64.0058 
G01 X-80.9223 Y63.9763 
G01 X-80.9016 Y63.9494 
G01 X-80.8886 Y63.9179 
G01 X-80.8716 Y63.8885 
G01 X-80.8628 Y63.8557 
G01 X-80.8498 Y63.8243 
G01 X-80.8454 Y63.7906 
G01 X-80.8366 Y63.7577 
G01 X-80.8366 Y63.7237 
G01 X-80.8321 Y63.6900 
G01 X-80.8366 Y63.6563 
G01 X-80.8366 Y63.6223 
G01 X-80.8454 Y63.5895 
G01 X-80.8498 Y63.5557 
G01 X-80.8628 Y63.5243 
G01 X-80.8716 Y63.4915 
G01 X-80.8886 Y63.4620 
G01 X-80.9016 Y63.4306 
G01 X-80.9223 Y63.4037 
G01 X-80.9393 Y63.3742 
G01 X-80.9634 Y63.3502 
G01 X-80.9840 Y63.3232 
G01 X-81.0110 Y63.3025 
G01 X-81.0351 Y63.2785 
G01 X-81.0645 Y63.2615 
G01 X-81.0915 Y63.2408 
G01 X-81.1229 Y63.2277 
G01 X-81.1523 Y63.2107 
G01 X-81.1852 Y63.2019 
G01 X-81.2166 Y63.1889 
G01 X-81.2503 Y63.1845 
G01 X-81.2831 Y63.1757 
G01 X-81.3171 Y63.1757 
G01 X-81.3508 Y63.1713 
G01 X-81.3846 Y63.1757 
G01 X-88.3432 Y63.1757 
G01 X-88.4740 Y63.2107 
G01 X-88.5913 Y63.2785 
G01 X-88.6870 Y63.3742 
G01 X-88.8796 Y63.5668 
G01 X-89.6066 Y63.8679 
G01 X-89.9017 Y63.8679 
G01 X-90.0325 Y63.9029 
G01 X-90.1498 Y63.9707 
G01 X-90.2455 Y64.0664 
G01 X-90.3132 Y64.1837 
G01 X-90.3483 Y64.3145 
G01 X-90.3483 Y66.2394 
G01 X-90.4856 Y66.5708 
G01 X-90.7392 Y66.8244 
G01 X-91.0706 Y66.9617 
G01 X-94.4294 Y66.9617 
G01 X-94.7608 Y66.8244 
G01 X-95.0144 Y66.5708 
G01 X-95.1517 Y66.2394 
G01 X-95.1517 Y64.2056 
G01 X-95.0144 Y63.8742 
G01 X-94.7608 Y63.6206 
G01 X-94.4294 Y63.4833 
G01 X-92.2843 Y63.4833 
G01 X-92.2506 Y63.4877 
G01 X-92.2169 Y63.4833 
G01 X-92.1829 Y63.4833 
G01 X-92.1500 Y63.4745 
G01 X-92.1163 Y63.4701 
G01 X-92.0849 Y63.4570 
G01 X-92.0521 Y63.4482 
G01 X-92.0226 Y63.4312 
G01 X-91.9912 Y63.4182 
G01 X-91.9643 Y63.3975 
G01 X-91.9348 Y63.3805 
G01 X-91.9108 Y63.3565 
G01 X-91.8838 Y63.3358 
G01 X-91.8631 Y63.3088 
G01 X-91.8391 Y63.2848 
G01 X-91.8221 Y63.2553 
G01 X-91.8014 Y63.2284 
G01 X-91.7883 Y63.1970 
G01 X-91.7713 Y63.1675 
G01 X-91.7625 Y63.1347 
G01 X-91.7495 Y63.1033 
G01 X-91.7451 Y63.0695 
G01 X-91.7363 Y63.0367 
G01 X-91.7363 Y63.0027 
G01 X-91.7319 Y62.9690 
G01 X-91.7363 Y62.9353 
G01 X-91.7363 Y62.9013 
G01 X-91.7451 Y62.8685 
G01 X-91.7495 Y62.8347 
G01 X-91.7625 Y62.8033 
G01 X-91.7713 Y62.7705 
G01 X-91.7883 Y62.7411 
G01 X-91.9779 Y62.2834 
G01 X-91.9779 Y61.4966 
G01 X-91.6768 Y60.7696 
G01 X-91.1204 Y60.2132 
G01 X-90.3934 Y59.9121 
G01 X-89.6066 Y59.9121 
G01 X-88.8796 Y60.2132 
G01 X-88.5913 Y60.5015 
G01 X-88.4740 Y60.5692 
G01 X-88.3432 Y60.6043 
G01 X-40.5679 Y60.6043 
G01 X-40.4371 Y60.5692 
G01 X-40.3198 Y60.5015 
G01 X-40.2240 Y60.4058 
G01 X-39.3885 Y59.5702 
G01 X-39.3207 Y59.4529 
G01 X-39.2857 Y59.3221 
G01 X-39.2857 Y54.1698 
G01 X-39.3207 Y54.0390 
G01 X-39.3222 Y54.0364 
G01 X-39.3885 Y53.9217 
G01 X-39.4827 Y53.8275 
G01 X-39.4877 Y53.8239 
G01 X-39.6015 Y53.7583 
G01 X-39.6957 Y53.7330 
G01 X-39.7323 Y53.7232 
G01 X-39.8677 Y53.7232 
G01 X-39.9985 Y53.7583 
G01 X-40.0011 Y53.7598 
G01 X-40.1158 Y53.8260 
G01 X-40.9375 Y54.6477 
G01 X-42.3025 Y54.6477 
G01 X-42.4660 Y54.4842 
G01 X-42.5546 Y54.3956 
G01 X-42.5617 Y54.3885 
G01 X-42.6755 Y54.3228 
G01 X-42.6790 Y54.3207 
G01 X-42.8098 Y54.2857 
G01 X-47.4666 Y54.2857 
G01 X-48.0510 Y54.0958 
G01 X-48.5481 Y53.7347 
G01 X-48.9092 Y53.2376 
G01 X-48.9379 Y53.1495 
G01 X-48.9519 Y53.0971 
G01 X-48.9587 Y53.0853 
G01 X-48.9629 Y53.0723 
G01 X-48.9925 Y53.0268 
G01 X-49.0196 Y52.9798 
G01 X-49.0293 Y52.9702 
G01 X-49.0367 Y52.9587 
G01 X-49.0770 Y52.9224 
G01 X-49.1154 Y52.8841 
G01 X-49.1272 Y52.8773 
G01 X-49.1373 Y52.8681 
G01 X-49.1857 Y52.8435 
G01 X-49.2326 Y52.8164 
G01 X-49.2458 Y52.8129 
G01 X-49.2580 Y52.8067 
G01 X-49.3110 Y52.7954 
G01 X-49.3634 Y52.7813 
G01 X-49.3771 Y52.7813 
G01 X-49.3904 Y52.7785 
G01 X-49.4446 Y52.7813 
G01 X-50.4581 Y52.7813 
G01 X-50.5889 Y52.8164 
G01 X-50.7062 Y52.8841 
G01 X-50.8019 Y52.9798 
G01 X-50.8696 Y53.0971 
G01 X-50.9047 Y53.2279 
G01 X-50.9047 Y54.1576 
G01 X-51.0945 Y54.7419 
G01 X-51.4557 Y55.2390 
G01 X-51.9528 Y55.6002 
G01 X-52.5372 Y55.7901 
G01 X-56.2205 Y55.7901 
G01 X-56.8049 Y55.6002 
G01 X-57.3020 Y55.2390 
G01 X-57.6632 Y54.7419 
G01 X-57.8530 Y54.1576 
G01 X-57.8530 Y53.2279 
G01 X-57.8881 Y53.0971 
G01 X-57.9558 Y52.9798 
G01 X-58.0515 Y52.8841 
G01 X-58.1688 Y52.8164 
G01 X-58.2996 Y52.7813 
G01 X-59.2120 Y52.7813 
G01 X-59.3428 Y52.8164 
G01 X-59.4601 Y52.8841 
G01 X-59.5558 Y52.9798 
G01 X-59.6235 Y53.0971 
G01 X-59.6586 Y53.2279 
G01 X-59.6586 Y54.1576 
G01 X-59.8484 Y54.7419 
G01 X-60.2096 Y55.2390 
G01 X-60.7067 Y55.6002 
G01 X-61.2911 Y55.7901 
G01 X-64.9744 Y55.7901 
G01 X-65.5588 Y55.6002 
G01 X-66.0559 Y55.2390 
G01 X-66.4171 Y54.7419 
G01 X-66.6069 Y54.1576 
G01 X-66.6069 Y53.2279 
G01 X-66.6420 Y53.0971 
G01 X-66.7097 Y52.9798 
G01 X-66.8054 Y52.8841 
G01 X-66.9227 Y52.8164 
G01 X-67.0535 Y52.7813 
G01 X-67.9659 Y52.7813 
G01 X-68.0967 Y52.8164 
G01 X-68.2140 Y52.8841 
G01 X-68.3097 Y52.9798 
G01 X-68.3774 Y53.0971 
G01 X-68.4125 Y53.2279 
G01 X-68.4125 Y54.1576 
G01 X-68.6024 Y54.7419 
G01 X-68.9635 Y55.2390 
G01 X-69.4606 Y55.6002 
G01 X-70.0450 Y55.7901 
G01 X-73.7284 Y55.7901 
G01 X-74.3127 Y55.6002 
G01 X-74.8098 Y55.2390 
G01 X-75.1710 Y54.7419 
G01 X-75.3608 Y54.1576 
G01 X-75.3608 Y53.2279 
G01 X-75.3959 Y53.0971 
G01 X-75.4636 Y52.9798 
G01 X-75.5593 Y52.8841 
G01 X-75.6766 Y52.8164 
G01 X-75.8074 Y52.7813 
G01 X-76.7198 Y52.7813 
G01 X-76.8506 Y52.8164 
G01 X-76.9679 Y52.8841 
G01 X-77.0636 Y52.9798 
G01 X-77.1313 Y53.0971 
G01 X-77.1664 Y53.2279 
G01 X-77.1664 Y54.1576 
G01 X-77.3563 Y54.7419 
G01 X-77.7174 Y55.2390 
G01 X-78.2145 Y55.6002 
G01 X-78.7989 Y55.7901 
G01 X-82.4823 Y55.7901 
G01 X-83.0666 Y55.6002 
G01 X-83.5637 Y55.2390 
G01 X-83.9249 Y54.7419 
G01 X-84.1147 Y54.1576 
G01 X-84.1147 Y53.2279 
G01 X-84.1498 Y53.0971 
G01 X-84.2175 Y52.9798 
G01 X-84.3133 Y52.8841 
G01 X-84.4305 Y52.8164 
G01 X-84.5613 Y52.7813 
G01 X-85.5748 Y52.7813 
G01 X-85.6290 Y52.7785 
G01 X-85.6423 Y52.7813 
G01 X-85.6560 Y52.7813 
G01 X-85.7084 Y52.7954 
G01 X-85.7614 Y52.8067 
G01 X-85.7736 Y52.8129 
G01 X-85.7868 Y52.8164 
G01 X-85.8337 Y52.8435 
G01 X-85.8821 Y52.8681 
G01 X-85.8922 Y52.8773 
G01 X-85.9041 Y52.8841 
G01 X-85.9424 Y52.9224 
G01 X-85.9827 Y52.9587 
G01 X-85.9902 Y52.9702 
G01 X-85.9998 Y52.9798 
G01 X-86.0269 Y53.0268 
G01 X-86.0565 Y53.0723 
G01 X-86.0607 Y53.0853 
G01 X-86.0675 Y53.0971 
G01 X-86.0816 Y53.1495 
G01 X-86.1102 Y53.2376 
G01 X-86.4713 Y53.7347 
G01 X-86.5383 Y53.7833 
G01 X-86.5736 Y53.8037 
G01 X-86.5928 Y53.8230 
G01 X-86.6149 Y53.8390 
G01 X-86.6405 Y53.8706 
G01 X-86.6693 Y53.8995 
G01 X-86.6830 Y53.9230 
G01 X-86.7001 Y53.9442 
G01 X-86.7167 Y53.9814 
G01 X-86.7370 Y54.0167 
G01 X-86.7441 Y54.0430 
G01 X-86.7552 Y54.0679 
G01 X-86.7615 Y54.1082 
G01 X-86.7721 Y54.1475 
G01 X-86.7721 Y54.1748 
G01 X-86.7764 Y54.2017 
G01 X-86.7721 Y54.2422 
G01 X-86.7721 Y54.2834 
G01 X-87.0732 Y55.0104 
G01 X-87.6296 Y55.5668 
G01 X-88.3566 Y55.8679 
G01 X-89.1434 Y55.8679 
G01 X-89.8704 Y55.5668 
G01 X-90.4268 Y55.0104 
G01 X-90.7279 Y54.2834 
G01 X-90.7279 Y53.4966 
G01 X-90.6398 Y53.2839 
G01 X-90.6228 Y53.2545 
G01 X-90.6140 Y53.2217 
G01 X-90.6010 Y53.1903 
G01 X-90.5966 Y53.1565 
G01 X-90.5878 Y53.1237 
G01 X-90.5878 Y53.0897 
G01 X-90.5833 Y53.0560 
G01 X-90.5878 Y53.0223 
G01 X-90.5878 Y52.9883 
G01 X-90.5966 Y52.9554 
G01 X-90.6010 Y52.9217 
G01 X-90.6140 Y52.8903 
G01 X-90.6228 Y52.8575 
G01 X-90.6398 Y52.8280 
G01 X-90.6528 Y52.7966 
G01 X-90.6735 Y52.7697 
G01 X-90.6905 Y52.7402 
G01 X-90.7146 Y52.7162 
G01 X-90.7353 Y52.6892 
G01 X-90.7623 Y52.6685 
G01 X-90.7863 Y52.6445 
G01 X-90.8157 Y52.6275 
G01 X-90.8427 Y52.6068 
G01 X-90.8741 Y52.5937 
G01 X-90.9036 Y52.5767 
G01 X-90.9364 Y52.5680 
G01 X-90.9678 Y52.5549 
G01 X-91.0015 Y52.5505 
G01 X-91.0344 Y52.5417 
G01 X-91.0684 Y52.5417 
G01 X-91.1021 Y52.5373 
G01 X-91.1358 Y52.5417 
G01 X-94.4294 Y52.5417 
G01 X-94.7608 Y52.4044 
G01 X-95.0144 Y52.1508 
G01 X-95.1517 Y51.8194 
G01 X-95.1517 Y49.7606 
G01 X-95.0144 Y49.4292 
G01 X-94.7608 Y49.1756 
G01 X-94.4294 Y49.0383 
G01 X-91.0706 Y49.0383 
G01 X-90.7392 Y49.1756 
G01 X-90.4856 Y49.4292 
G01 X-90.3483 Y49.7606 
G01 X-90.3483 Y51.6078 
G01 X-90.3527 Y51.6415 
G01 X-90.3483 Y51.6752 
G01 X-90.3483 Y51.7092 
G01 X-90.3395 Y51.7420 
G01 X-90.3351 Y51.7757 
G01 X-90.3220 Y51.8072 
G01 X-90.3132 Y51.8400 
G01 X-90.2963 Y51.8694 
G01 X-90.2832 Y51.9008 
G01 X-90.2625 Y51.9278 
G01 X-90.2455 Y51.9573 
G01 X-90.2215 Y51.9813 
G01 X-90.2008 Y52.0083 
G01 X-90.1738 Y52.0290 
G01 X-90.1498 Y52.0530 
G01 X-90.1203 Y52.0700 
G01 X-90.0934 Y52.0907 
G01 X-90.0620 Y52.1037 
G01 X-90.0325 Y52.1207 
G01 X-89.9997 Y52.1295 
G01 X-89.9683 Y52.1425 
G01 X-89.9346 Y52.1470 
G01 X-89.9017 Y52.1558 
G01 X-89.8677 Y52.1558 
G01 X-89.8340 Y52.1602 
G01 X-89.8003 Y52.1558 
G01 X-89.7663 Y52.1558 
G01 X-89.7335 Y52.1470 
G01 X-89.6997 Y52.1425 
G01 X-89.6683 Y52.1295 
G01 X-89.6355 Y52.1207 
G01 X-89.6060 Y52.1037 
G01 X-89.1434 Y51.9121 
G01 X-88.9014 Y51.9121 
G01 X-88.8473 Y51.9149 
G01 X-88.8339 Y51.9121 
G01 X-88.8203 Y51.9121 
G01 X-88.7679 Y51.8981 
G01 X-88.7148 Y51.8868 
G01 X-88.7027 Y51.8806 
G01 X-88.6895 Y51.8770 
G01 X-88.6425 Y51.8499 
G01 X-88.5942 Y51.8253 
G01 X-88.5840 Y51.8162 
G01 X-88.5722 Y51.8093 
G01 X-88.5339 Y51.7710 
G01 X-88.4935 Y51.7347 
G01 X-88.4861 Y51.7232 
G01 X-88.4765 Y51.7136 
G01 X-88.4493 Y51.6666 
G01 X-88.4198 Y51.6211 
G01 X-88.4156 Y51.6081 
G01 X-88.4087 Y51.5963 
G01 X-88.3947 Y51.5439 
G01 X-88.3018 Y51.2581 
G01 X-87.9407 Y50.7610 
G01 X-87.4436 Y50.3998 
G01 X-86.8592 Y50.2099 
G01 X-83.1758 Y50.2099 
G01 X-82.5915 Y50.3998 
G01 X-82.0944 Y50.7610 
G01 X-81.7332 Y51.2581 
G01 X-81.5433 Y51.8424 
G01 X-81.5433 Y52.7721 
G01 X-81.5083 Y52.9029 
G01 X-81.4406 Y53.0201 
G01 X-81.3448 Y53.1159 
G01 X-81.2276 Y53.1836 
G01 X-81.0968 Y53.2187 
G01 X-80.1844 Y53.2187 
G01 X-80.0536 Y53.1836 
G01 X-79.9363 Y53.1159 
G01 X-79.8405 Y53.0201 
G01 X-79.7728 Y52.9029 
G01 X-79.7378 Y52.7721 
G01 X-79.7378 Y51.8424 
G01 X-79.5479 Y51.2581 
G01 X-79.1868 Y50.7610 
G01 X-78.6897 Y50.3998 
G01 X-78.1053 Y50.2099 
G01 X-74.4219 Y50.2099 
G01 X-73.8376 Y50.3998 
G01 X-73.3405 Y50.7610 
G01 X-72.9793 Y51.2581 
G01 X-72.7894 Y51.8424 
G01 X-72.7894 Y52.7721 
G01 X-72.7544 Y52.9029 
G01 X-72.6867 Y53.0201 
G01 X-72.5909 Y53.1159 
G01 X-72.4737 Y53.1836 
G01 X-72.3428 Y53.2187 
G01 X-71.4305 Y53.2187 
G01 X-71.2997 Y53.1836 
G01 X-71.1824 Y53.1159 
G01 X-71.0866 Y53.0201 
G01 X-71.0189 Y52.9029 
G01 X-70.9839 Y52.7721 
G01 X-70.9839 Y51.8424 
G01 X-70.7940 Y51.2581 
G01 X-70.4329 Y50.7610 
G01 X-69.9358 Y50.3998 
G01 X-69.3514 Y50.2099 
G01 X-65.6680 Y50.2099 
G01 X-65.0836 Y50.3998 
G01 X-64.5866 Y50.7610 
G01 X-64.2254 Y51.2581 
G01 X-64.0355 Y51.8424 
G01 X-64.0355 Y52.7721 
G01 X-64.0005 Y52.9029 
G01 X-63.9328 Y53.0201 
G01 X-63.8370 Y53.1159 
G01 X-63.7197 Y53.1836 
G01 X-63.5889 Y53.2187 
G01 X-62.6766 Y53.2187 
G01 X-62.5458 Y53.1836 
G01 X-62.4285 Y53.1159 
G01 X-62.3327 Y53.0201 
G01 X-62.2650 Y52.9029 
G01 X-62.2300 Y52.7721 
G01 X-62.2300 Y51.8424 
G01 X-62.0401 Y51.2581 
G01 X-61.6790 Y50.7610 
G01 X-61.1819 Y50.3998 
G01 X-60.5975 Y50.2099 
G01 X-56.9141 Y50.2099 
G01 X-56.3297 Y50.3998 
G01 X-55.8327 Y50.7610 
G01 X-55.4715 Y51.2581 
G01 X-55.2816 Y51.8424 
G01 X-55.2816 Y52.7721 
G01 X-55.2466 Y52.9029 
G01 X-55.1789 Y53.0201 
G01 X-55.0831 Y53.1159 
G01 X-54.9658 Y53.1836 
G01 X-54.8350 Y53.2187 
G01 X-53.9227 Y53.2187 
G01 X-53.7919 Y53.1836 
G01 X-53.6746 Y53.1159 
G01 X-53.5788 Y53.0201 
G01 X-53.5111 Y52.9029 
G01 X-53.4761 Y52.7721 
G01 X-53.4761 Y51.8424 
G01 X-53.2862 Y51.2581 
G01 X-52.9250 Y50.7610 
G01 X-52.4280 Y50.3998 
G01 X-51.8436 Y50.2099 
G01 X-48.1602 Y50.2099 
G01 X-47.5758 Y50.3998 
G01 X-47.1775 Y50.6892 
G01 X-47.1583 Y50.7085 
G01 X-47.1230 Y50.7288 
G01 X-47.0900 Y50.7528 
G01 X-47.0646 Y50.7625 
G01 X-47.0410 Y50.7762 
G01 X-47.0016 Y50.7867 
G01 X-46.9636 Y50.8013 
G01 X-46.9365 Y50.8042 
G01 X-46.9102 Y50.8112 
G01 X-46.8694 Y50.8112 
G01 X-46.8289 Y50.8155 
G01 X-46.8020 Y50.8112 
G01 X-46.7748 Y50.8112 
G01 X-46.7354 Y50.8007 
G01 X-46.6952 Y50.7943 
G01 X-46.6703 Y50.7832 
G01 X-46.6440 Y50.7762 
G01 X-46.6087 Y50.7558 
G01 X-46.5714 Y50.7392 
G01 X-46.5503 Y50.7221 
G01 X-46.5267 Y50.7084 
G01 X-46.4979 Y50.6796 
G01 X-46.4662 Y50.6540 
G01 X-46.4502 Y50.6319 
G01 X-46.4338 Y50.6156 
G01 X-46.3885 Y50.5702 
G01 X-46.3472 Y50.4988 
G01 X-46.3207 Y50.4529 
G01 X-46.2961 Y50.3611 
G01 X-46.2857 Y50.3221 
G01 X-46.2857 Y50.2537 
G01 X-46.2857 Y27.7443 
G01 X-46.0900 Y27.2717 
G01 X-45.6081 Y26.7898 
G01 X-43.7283 Y24.9100 
G01 X-43.2557 Y24.7143 
G01 X-42.8098 Y24.7143 
G01 X-42.6790 Y24.6792 
G01 X-42.5617 Y24.6115 
G01 X-42.4660 Y24.5158 
G01 X-42.3025 Y24.3523 
G01 X-40.7323 Y24.3523 
G01 X-40.6015 Y24.3172 
G01 X-40.4842 Y24.2495 
G01 X-40.3885 Y24.1538 
G01 X-40.3207 Y24.0365 
G01 X-40.2857 Y23.9057 
G01 X-40.2857 Y20.6779 
G01 X-40.3207 Y20.5471 
G01 X-40.3885 Y20.4298 
G01 X-40.4842 Y20.3340 
G01 X-41.0678 Y19.7505 
G01 X-41.1851 Y19.6827 
G01 X-41.3159 Y19.6477 
G01 X-42.3025 Y19.6477 
G01 X-43.2677 Y18.6825 
G01 X-43.2677 Y17.3175 
G01 X-43.1617 Y17.2115 
G01 X-43.0722 Y17.1220 
G01 X-43.0660 Y17.1158 
G01 X-43.0003 Y17.0020 
G01 X-42.9983 Y16.9985 
G01 X-42.9632 Y16.8677 
G01 X-42.9632 Y16.7323 
G01 X-42.9722 Y16.6987 
G01 X-42.9983 Y16.6015 
G01 X-43.0660 Y16.4842 
G01 X-43.1617 Y16.3885 
G01 X-43.2755 Y16.3228 
G01 X-43.2790 Y16.3207 
G01 X-43.4098 Y16.2857 
G01 X-47.4199 Y16.2857 
G01 X-47.4613 Y16.2815 
G01 X-47.4873 Y16.2857 
G01 X-47.5136 Y16.2857 
G01 X-47.5539 Y16.2965 
G01 X-47.5950 Y16.3031 
G01 X-47.6190 Y16.3139 
G01 X-47.6444 Y16.3207 
G01 X-47.6805 Y16.3416 
G01 X-47.7185 Y16.3586 
G01 X-47.7389 Y16.3753 
G01 X-47.7617 Y16.3885 
G01 X-47.7912 Y16.4179 
G01 X-47.8234 Y16.4442 
G01 X-47.8388 Y16.4656 
G01 X-47.8575 Y16.4842 
G01 X-47.8783 Y16.5203 
G01 X-47.9026 Y16.5540 
G01 X-47.9120 Y16.5787 
G01 X-47.9252 Y16.6015 
G01 X-47.9359 Y16.6417 
G01 X-47.9507 Y16.6806 
G01 X-47.9534 Y16.7068 
G01 X-47.9602 Y16.7323 
G01 X-47.9602 Y16.7739 
G01 X-47.9644 Y16.8153 
G01 X-47.9602 Y16.8413 
G01 X-47.9602 Y16.8677 
G01 X-47.9494 Y16.9079 
G01 X-47.9428 Y16.9490 
G01 X-47.9320 Y16.9731 
G01 X-47.9252 Y16.9985 
G01 X-47.9044 Y17.0346 
G01 X-47.8873 Y17.0725 
G01 X-47.8706 Y17.0930 
G01 X-47.8575 Y17.1158 
G01 X-47.8280 Y17.1452 
G01 X-47.8017 Y17.1775 
G01 X-47.7803 Y17.1929 
G01 X-47.7617 Y17.2115 
G01 X-47.7257 Y17.2324 
G01 X-47.6919 Y17.2567 
G01 X-47.6673 Y17.2661 
G01 X-47.6444 Y17.2792 
G01 X-47.6042 Y17.2900 
G01 X-47.5653 Y17.3048 
G01 X-47.5579 Y17.3056 
G01 X-47.4919 Y17.3411 
G01 X-47.4710 Y17.3571 
G01 X-47.4325 Y17.3731 
G01 X-47.3959 Y17.3928 
G01 X-47.3702 Y17.3989 
G01 X-47.3010 Y17.4276 
G01 X-47.2710 Y17.4575 
G01 X-47.2643 Y17.4614 
G01 X-47.2587 Y17.4667 
G01 X-47.2214 Y17.4868 
G01 X-47.1740 Y17.5449 
G01 X-47.1609 Y17.5677 
G01 X-47.1314 Y17.5971 
G01 X-47.1051 Y17.6294 
G01 X-47.0837 Y17.6448 
G01 X-46.6448 Y18.0837 
G01 X-46.6294 Y18.1051 
G01 X-46.5971 Y18.1314 
G01 X-46.5677 Y18.1609 
G01 X-46.5449 Y18.1740 
G01 X-46.4868 Y18.2214 
G01 X-46.4667 Y18.2587 
G01 X-46.4614 Y18.2644 
G01 X-46.4575 Y18.2710 
G01 X-46.4275 Y18.3010 
G01 X-46.3989 Y18.3702 
G01 X-46.3928 Y18.3959 
G01 X-46.3731 Y18.4325 
G01 X-46.3571 Y18.4710 
G01 X-46.3411 Y18.4919 
G01 X-46.3056 Y18.5579 
G01 X-46.3013 Y18.6001 
G01 X-46.2985 Y18.6073 
G01 X-46.2975 Y18.6150 
G01 X-46.2813 Y18.6541 
G01 X-46.2813 Y18.7290 
G01 X-46.2855 Y18.7551 
G01 X-46.2813 Y18.7965 
G01 X-46.2813 Y18.8381 
G01 X-46.2745 Y18.8635 
G01 X-46.2669 Y18.9381 
G01 X-46.2791 Y18.9787 
G01 X-46.2793 Y18.9864 
G01 X-46.2813 Y18.9939 
G01 X-46.2813 Y19.0363 
G01 X-46.3192 Y19.1278 
G01 X-46.3221 Y19.1348 
G01 X-46.3338 Y19.2241 
G01 X-46.3398 Y19.2690 
G01 X-46.3283 Y19.3559 
G01 X-46.3221 Y19.4033 
G01 X-46.2993 Y19.4582 
G01 X-46.2703 Y19.5284 
G01 X-46.2657 Y19.5343 
G01 X-46.1878 Y19.6358 
G01 X-46.0893 Y19.7114 
G01 X-46.0804 Y19.7183 
G01 X-45.9819 Y19.7591 
G01 X-45.9520 Y19.7890 
G01 X-45.9453 Y19.7929 
G01 X-45.9396 Y19.7982 
G01 X-45.9023 Y19.8183 
G01 X-45.8549 Y19.8764 
G01 X-45.8418 Y19.8992 
G01 X-45.8123 Y19.9286 
G01 X-45.7860 Y19.9609 
G01 X-45.7646 Y19.9763 
G01 X-45.7117 Y20.0293 
G01 X-45.6954 Y20.0684 
G01 X-45.6907 Y20.0746 
G01 X-45.6876 Y20.0816 
G01 X-45.6608 Y20.1145 
G01 X-45.6393 Y20.1863 
G01 X-45.6358 Y20.2124 
G01 X-45.6199 Y20.2509 
G01 X-45.6079 Y20.2907 
G01 X-45.5941 Y20.3132 
G01 X-45.5654 Y20.3824 
G01 X-45.5654 Y20.4248 
G01 X-45.5634 Y20.4322 
G01 X-45.5632 Y20.4400 
G01 X-45.5510 Y20.4805 
G01 X-45.5586 Y20.5551 
G01 X-45.5654 Y20.5806 
G01 X-45.5654 Y20.6222 
G01 X-45.5696 Y20.6636 
G01 X-45.5654 Y20.6896 
G01 X-45.5654 Y21.3104 
G01 X-45.5696 Y21.3364 
G01 X-45.5654 Y21.3778 
G01 X-45.5654 Y21.4194 
G01 X-45.5586 Y21.4449 
G01 X-45.5510 Y21.5195 
G01 X-45.5632 Y21.5600 
G01 X-45.5634 Y21.5678 
G01 X-45.5654 Y21.5752 
G01 X-45.5654 Y21.6176 
G01 X-45.5941 Y21.6868 
G01 X-45.6079 Y21.7093 
G01 X-45.6199 Y21.7491 
G01 X-45.6358 Y21.7876 
G01 X-45.6393 Y21.8137 
G01 X-45.6608 Y21.8855 
G01 X-45.6876 Y21.9184 
G01 X-45.6907 Y21.9254 
G01 X-45.6954 Y21.9316 
G01 X-45.7117 Y21.9707 
G01 X-45.7646 Y22.0237 
G01 X-45.7860 Y22.0391 
G01 X-45.8123 Y22.0714 
G01 X-45.8418 Y22.1008 
G01 X-45.8549 Y22.1236 
G01 X-45.9023 Y22.1817 
G01 X-45.9396 Y22.2018 
G01 X-45.9453 Y22.2071 
G01 X-45.9520 Y22.2110 
G01 X-45.9819 Y22.2409 
G01 X-46.0804 Y22.2817 
G01 X-46.0863 Y22.2863 
G01 X-46.1878 Y22.3642 
G01 X-46.2634 Y22.4627 
G01 X-46.2703 Y22.4716 
G01 X-46.2988 Y22.5406 
G01 X-46.3221 Y22.5967 
G01 X-46.3279 Y22.6411 
G01 X-46.3398 Y22.7310 
G01 X-46.3340 Y22.7744 
G01 X-46.3221 Y22.8652 
G01 X-46.3200 Y22.8702 
G01 X-46.2813 Y22.9637 
G01 X-46.2813 Y23.0061 
G01 X-46.2793 Y23.0135 
G01 X-46.2791 Y23.0213 
G01 X-46.2669 Y23.0619 
G01 X-46.2745 Y23.1364 
G01 X-46.2813 Y23.1619 
G01 X-46.2813 Y23.2035 
G01 X-46.2855 Y23.2449 
G01 X-46.2813 Y23.2710 
G01 X-46.2813 Y23.3459 
G01 X-46.2975 Y23.3850 
G01 X-46.2985 Y23.3927 
G01 X-46.3013 Y23.3999 
G01 X-46.3056 Y23.4421 
G01 X-46.3411 Y23.5081 
G01 X-46.3571 Y23.5290 
G01 X-46.3731 Y23.5674 
G01 X-46.3928 Y23.6041 
G01 X-46.3989 Y23.6298 
G01 X-46.4276 Y23.6990 
G01 X-46.4575 Y23.7290 
G01 X-46.4614 Y23.7357 
G01 X-46.4667 Y23.7413 
G01 X-46.4868 Y23.7786 
G01 X-46.5449 Y23.8260 
G01 X-46.5677 Y23.8391 
G01 X-46.5971 Y23.8686 
G01 X-46.6294 Y23.8949 
G01 X-46.6448 Y23.9163 
G01 X-47.0837 Y24.3552 
G01 X-47.1051 Y24.3706 
G01 X-47.1314 Y24.4029 
G01 X-47.1609 Y24.4323 
G01 X-47.1740 Y24.4551 
G01 X-47.2214 Y24.5132 
G01 X-47.2587 Y24.5333 
G01 X-47.2643 Y24.5386 
G01 X-47.2710 Y24.5425 
G01 X-47.3010 Y24.5724 
G01 X-47.3702 Y24.6011 
G01 X-47.3959 Y24.6072 
G01 X-47.4325 Y24.6269 
G01 X-47.4710 Y24.6428 
G01 X-47.4919 Y24.6589 
G01 X-47.5579 Y24.6944 
G01 X-47.6001 Y24.6987 
G01 X-47.6073 Y24.7015 
G01 X-47.6149 Y24.7025 
G01 X-47.6541 Y24.7187 
G01 X-47.7290 Y24.7187 
G01 X-47.7551 Y24.7145 
G01 X-47.7965 Y24.7187 
G01 X-47.8381 Y24.7187 
G01 X-47.8635 Y24.7255 
G01 X-47.9381 Y24.7331 
G01 X-47.9787 Y24.7209 
G01 X-47.9864 Y24.7207 
G01 X-47.9939 Y24.7187 
G01 X-48.0363 Y24.7187 
G01 X-48.1079 Y24.6890 
G01 X-48.1347 Y24.6779 
G01 X-48.2145 Y24.6674 
G01 X-48.2690 Y24.6602 
G01 X-48.3145 Y24.6662 
G01 X-48.4033 Y24.6779 
G01 X-48.5284 Y24.7297 
G01 X-48.6358 Y24.8122 
G01 X-48.6698 Y24.8564 
G01 X-48.7183 Y24.9196 
G01 X-48.7591 Y25.0181 
G01 X-48.7890 Y25.0480 
G01 X-48.7929 Y25.0547 
G01 X-48.7982 Y25.0604 
G01 X-48.8183 Y25.0977 
G01 X-48.8764 Y25.1450 
G01 X-48.8992 Y25.1582 
G01 X-48.9286 Y25.1877 
G01 X-48.9609 Y25.2140 
G01 X-48.9763 Y25.2353 
G01 X-49.0293 Y25.2883 
G01 X-49.0684 Y25.3045 
G01 X-49.0746 Y25.3093 
G01 X-49.0816 Y25.3124 
G01 X-49.1145 Y25.3392 
G01 X-49.1863 Y25.3607 
G01 X-49.2124 Y25.3642 
G01 X-49.2508 Y25.3801 
G01 X-49.2907 Y25.3921 
G01 X-49.3132 Y25.4059 
G01 X-49.3824 Y25.4346 
G01 X-49.4248 Y25.4346 
G01 X-49.4322 Y25.4366 
G01 X-49.4400 Y25.4368 
G01 X-49.4805 Y25.4490 
G01 X-49.5551 Y25.4414 
G01 X-49.5806 Y25.4346 
G01 X-49.6222 Y25.4346 
G01 X-49.6636 Y25.4304 
G01 X-49.6896 Y25.4346 
G01 X-50.3104 Y25.4346 
G01 X-50.3364 Y25.4304 
G01 X-50.3778 Y25.4346 
G01 X-50.4194 Y25.4346 
G01 X-50.4449 Y25.4414 
G01 X-50.5195 Y25.4490 
G01 X-50.5600 Y25.4368 
G01 X-50.5678 Y25.4366 
G01 X-50.5752 Y25.4346 
G01 X-50.6176 Y25.4346 
G01 X-50.6868 Y25.4059 
G01 X-50.7092 Y25.3921 
G01 X-50.7491 Y25.3801 
G01 X-50.7876 Y25.3642 
G01 X-50.8137 Y25.3607 
G01 X-50.8855 Y25.3392 
G01 X-50.9184 Y25.3124 
G01 X-50.9254 Y25.3093 
G01 X-50.9316 Y25.3045 
G01 X-50.9707 Y25.2883 
G01 X-51.0237 Y25.2353 
G01 X-51.0391 Y25.2140 
G01 X-51.0714 Y25.1877 
G01 X-51.1008 Y25.1582 
G01 X-51.1236 Y25.1450 
G01 X-51.1817 Y25.0977 
G01 X-51.2018 Y25.0604 
G01 X-51.2071 Y25.0547 
G01 X-51.2110 Y25.0480 
G01 X-51.2409 Y25.0181 
G01 X-51.2817 Y24.9196 
G01 X-51.3332 Y24.8525 
G01 X-51.3642 Y24.8122 
G01 X-51.4716 Y24.7297 
G01 X-51.5967 Y24.6779 
G01 X-51.6828 Y24.6666 
G01 X-51.7310 Y24.6602 
G01 X-51.7825 Y24.6670 
G01 X-51.8652 Y24.6779 
G01 X-51.8896 Y24.6880 
G01 X-51.9637 Y24.7187 
G01 X-52.0061 Y24.7187 
G01 X-52.0135 Y24.7207 
G01 X-52.0213 Y24.7209 
G01 X-52.0619 Y24.7331 
G01 X-52.1364 Y24.7255 
G01 X-52.1619 Y24.7187 
G01 X-52.2035 Y24.7187 
G01 X-52.2449 Y24.7145 
G01 X-52.2710 Y24.7187 
G01 X-52.3459 Y24.7187 
G01 X-52.3850 Y24.7025 
G01 X-52.3927 Y24.7015 
G01 X-52.3999 Y24.6987 
G01 X-52.4421 Y24.6944 
G01 X-52.5081 Y24.6589 
G01 X-52.5290 Y24.6428 
G01 X-52.5674 Y24.6269 
G01 X-52.6041 Y24.6072 
G01 X-52.6298 Y24.6011 
G01 X-52.6990 Y24.5724 
G01 X-52.7290 Y24.5425 
G01 X-52.7356 Y24.5386 
G01 X-52.7413 Y24.5333 
G01 X-52.7786 Y24.5132 
G01 X-52.8260 Y24.4551 
G01 X-52.8391 Y24.4323 
G01 X-52.8686 Y24.4029 
G01 X-52.8949 Y24.3706 
G01 X-52.9163 Y24.3552 
G01 X-53.3552 Y23.9163 
G01 X-53.3706 Y23.8949 
G01 X-53.4029 Y23.8686 
G01 X-53.4323 Y23.8391 
G01 X-53.4551 Y23.8260 
G01 X-53.5132 Y23.7786 
G01 X-53.5333 Y23.7413 
G01 X-53.5386 Y23.7356 
G01 X-53.5425 Y23.7290 
G01 X-53.5724 Y23.6990 
G01 X-53.6011 Y23.6298 
G01 X-53.6072 Y23.6041 
G01 X-53.6269 Y23.5674 
G01 X-53.6429 Y23.5290 
G01 X-53.6589 Y23.5081 
G01 X-53.6944 Y23.4421 
G01 X-53.6987 Y23.3999 
G01 X-53.7015 Y23.3927 
G01 X-53.7025 Y23.3850 
G01 X-53.7187 Y23.3459 
G01 X-53.7187 Y23.2710 
G01 X-53.7145 Y23.2449 
G01 X-53.7187 Y23.2035 
G01 X-53.7187 Y23.1619 
G01 X-53.7255 Y23.1364 
G01 X-53.7331 Y23.0619 
G01 X-53.7209 Y23.0213 
G01 X-53.7207 Y23.0135 
G01 X-53.7187 Y23.0061 
G01 X-53.7187 Y22.9637 
G01 X-53.6808 Y22.8722 
G01 X-53.6779 Y22.8652 
G01 X-53.6661 Y22.7759 
G01 X-53.6602 Y22.7310 
G01 X-53.6717 Y22.6441 
G01 X-53.6779 Y22.5967 
G01 X-53.7006 Y22.5418 
G01 X-53.7297 Y22.4716 
G01 X-53.7343 Y22.4657 
G01 X-53.8122 Y22.3642 
G01 X-53.9107 Y22.2886 
G01 X-53.9196 Y22.2817 
G01 X-54.0181 Y22.2409 
G01 X-54.0480 Y22.2110 
G01 X-54.0547 Y22.2071 
G01 X-54.0604 Y22.2018 
G01 X-54.0977 Y22.1817 
G01 X-54.1450 Y22.1236 
G01 X-54.1582 Y22.1008 
G01 X-54.1877 Y22.0714 
G01 X-54.2140 Y22.0391 
G01 X-54.2353 Y22.0237 
G01 X-54.2883 Y21.9707 
G01 X-54.3045 Y21.9316 
G01 X-54.3093 Y21.9254 
G01 X-54.3124 Y21.9184 
G01 X-54.3392 Y21.8855 
G01 X-54.3607 Y21.8137 
G01 X-54.3642 Y21.7876 
G01 X-54.3801 Y21.7491 
G01 X-54.3921 Y21.7093 
G01 X-54.4059 Y21.6868 
G01 X-54.4346 Y21.6176 
G01 X-54.4346 Y21.5752 
G01 X-54.4366 Y21.5678 
G01 X-54.4368 Y21.5600 
G01 X-54.4490 Y21.5195 
G01 X-54.4414 Y21.4449 
G01 X-54.4346 Y21.4194 
G01 X-54.4346 Y21.3778 
G01 X-54.4304 Y21.3364 
G01 X-54.4346 Y21.3104 
G01 X-54.4346 Y20.6896 
G01 X-54.4304 Y20.6636 
G01 X-54.4346 Y20.6222 
G01 X-54.4346 Y20.5806 
G01 X-54.4414 Y20.5551 
G01 X-54.4490 Y20.4805 
G01 X-54.4368 Y20.4400 
G01 X-54.4366 Y20.4322 
G01 X-54.4346 Y20.4248 
G01 X-54.4346 Y20.3824 
G01 X-54.4059 Y20.3132 
G01 X-54.3921 Y20.2907 
G01 X-54.3801 Y20.2509 
G01 X-54.3642 Y20.2124 
G01 X-54.3607 Y20.1863 
G01 X-54.3392 Y20.1145 
G01 X-54.3124 Y20.0816 
G01 X-54.3093 Y20.0746 
G01 X-54.3045 Y20.0684 
G01 X-54.2883 Y20.0293 
G01 X-54.2353 Y19.9763 
G01 X-54.2140 Y19.9609 
G01 X-54.1877 Y19.9286 
G01 X-54.1582 Y19.8992 
G01 X-54.1450 Y19.8764 
G01 X-54.0977 Y19.8183 
G01 X-54.0604 Y19.7982 
G01 X-54.0547 Y19.7929 
G01 X-54.0480 Y19.7890 
G01 X-54.0181 Y19.7591 
G01 X-53.9196 Y19.7183 
G01 X-53.9137 Y19.7137 
G01 X-53.8122 Y19.6358 
G01 X-53.7366 Y19.5373 
G01 X-53.7297 Y19.5284 
G01 X-53.7012 Y19.4594 
G01 X-53.6779 Y19.4033 
G01 X-53.6721 Y19.3589 
G01 X-53.6602 Y19.2690 
G01 X-53.6660 Y19.2256 
G01 X-53.6779 Y19.1348 
G01 X-53.6800 Y19.1298 
G01 X-53.7187 Y19.0363 
G01 X-53.7187 Y18.9939 
G01 X-53.7207 Y18.9864 
G01 X-53.7209 Y18.9787 
G01 X-53.7331 Y18.9381 
G01 X-53.7255 Y18.8635 
G01 X-53.7187 Y18.8381 
G01 X-53.7187 Y18.7965 
G01 X-53.7145 Y18.7551 
G01 X-53.7187 Y18.7290 
G01 X-53.7187 Y18.6541 
G01 X-53.7025 Y18.6149 
G01 X-53.7015 Y18.6073 
G01 X-53.6987 Y18.6001 
G01 X-53.6944 Y18.5579 
G01 X-53.6589 Y18.4919 
G01 X-53.6429 Y18.4710 
G01 X-53.6269 Y18.4325 
G01 X-53.6072 Y18.3959 
G01 X-53.6011 Y18.3702 
G01 X-53.5724 Y18.3010 
G01 X-53.5425 Y18.2710 
G01 X-53.5386 Y18.2643 
G01 X-53.5333 Y18.2587 
G01 X-53.5132 Y18.2214 
G01 X-53.4551 Y18.1740 
G01 X-53.4323 Y18.1609 
G01 X-53.4029 Y18.1314 
G01 X-53.3706 Y18.1051 
G01 X-53.3552 Y18.0837 
G01 X-52.9163 Y17.6448 
G01 X-52.8949 Y17.6294 
G01 X-52.8686 Y17.5971 
G01 X-52.8391 Y17.5677 
G01 X-52.8260 Y17.5449 
G01 X-52.7786 Y17.4868 
G01 X-52.7413 Y17.4667 
G01 X-52.7356 Y17.4614 
G01 X-52.7290 Y17.4575 
G01 X-52.6990 Y17.4276 
G01 X-52.6298 Y17.3989 
G01 X-52.6041 Y17.3928 
G01 X-52.5674 Y17.3731 
G01 X-52.5290 Y17.3571 
G01 X-52.5081 Y17.3411 
G01 X-52.4421 Y17.3056 
G01 X-52.4347 Y17.3048 
G01 X-52.3958 Y17.2900 
G01 X-52.3556 Y17.2792 
G01 X-52.3327 Y17.2661 
G01 X-52.3081 Y17.2567 
G01 X-52.2743 Y17.2324 
G01 X-52.2383 Y17.2115 
G01 X-52.2197 Y17.1929 
G01 X-52.1983 Y17.1775 
G01 X-52.1720 Y17.1452 
G01 X-52.1425 Y17.1158 
G01 X-52.1294 Y17.0930 
G01 X-52.1127 Y17.0725 
G01 X-52.0956 Y17.0346 
G01 X-52.0748 Y16.9985 
G01 X-52.0680 Y16.9731 
G01 X-52.0572 Y16.9490 
G01 X-52.0505 Y16.9079 
G01 X-52.0398 Y16.8677 
G01 X-52.0398 Y16.8413 
G01 X-52.0356 Y16.8153 
G01 X-52.0398 Y16.7739 
G01 X-52.0398 Y16.7323 
G01 X-52.0466 Y16.7068 
G01 X-52.0493 Y16.6806 
G01 X-52.0640 Y16.6417 
G01 X-52.0748 Y16.6015 
G01 X-52.0880 Y16.5787 
G01 X-52.0973 Y16.5540 
G01 X-52.1217 Y16.5203 
G01 X-52.1425 Y16.4842 
G01 X-52.1612 Y16.4656 
G01 X-52.1766 Y16.4442 
G01 X-52.2088 Y16.4179 
G01 X-52.2383 Y16.3885 
G01 X-52.2611 Y16.3753 
G01 X-52.2815 Y16.3586 
G01 X-52.3195 Y16.3416 
G01 X-52.3556 Y16.3207 
G01 X-52.3810 Y16.3139 
G01 X-52.4050 Y16.3031 
G01 X-52.4461 Y16.2965 
G01 X-52.4864 Y16.2857 
G01 X-52.5127 Y16.2857 
G01 X-52.5387 Y16.2815 
G01 X-52.5801 Y16.2857 
G01 X-78.3221 Y16.2857 
G01 X-78.4529 Y16.3207 
G01 X-78.5702 Y16.3885 
G01 X-78.6660 Y16.4842 
G01 X-84.6115 Y22.4298 
G01 X-84.6792 Y22.5471 
G01 X-84.7143 Y22.6779 
G01 X-84.7143 Y32.2557 
G01 X-84.9100 Y32.7283 
G01 X-87.8856 Y35.7038 
G01 X-88.2717 Y36.0900 
G01 X-88.2757 Y36.0916 
G01 X-88.3027 Y36.1123 
G01 X-88.3322 Y36.1293 
G01 X-88.3562 Y36.1534 
G01 X-88.3832 Y36.1741 
G01 X-88.4039 Y36.2010 
G01 X-88.8796 Y36.6768 
G01 X-89.6066 Y36.9779 
G01 X-89.9017 Y36.9779 
G01 X-90.0325 Y37.0129 
G01 X-90.1498 Y37.0807 
G01 X-90.2455 Y37.1764 
G01 X-90.3132 Y37.2937 
G01 X-90.3483 Y37.4245 
G01 X-90.3483 Y39.1294 
G01 X-90.4856 Y39.4608 
G01 X-90.7392 Y39.7144 
G01 X-91.0706 Y39.8517 
G01 X-94.4294 Y39.8517 
G01 X-94.7608 Y39.7144 
G01 X-95.0144 Y39.4608 
G01 X-95.1517 Y39.1294 
G01 X-95.1517 Y37.0956 
G01 X-95.0144 Y36.7642 
G01 X-94.7608 Y36.5106 
G01 X-94.4294 Y36.3733 
G01 X-92.3754 Y36.3733 
G01 X-92.3417 Y36.3777 
G01 X-92.3080 Y36.3733 
G01 X-92.2740 Y36.3733 
G01 X-92.2412 Y36.3645 
G01 X-92.2075 Y36.3601 
G01 X-92.1760 Y36.3470 
G01 X-92.1432 Y36.3382 
G01 X-92.1138 Y36.3212 
G01 X-92.0823 Y36.3082 
G01 X-92.0554 Y36.2875 
G01 X-92.0259 Y36.2705 
G01 X-92.0019 Y36.2465 
G01 X-91.9749 Y36.2258 
G01 X-91.9542 Y36.1988 
G01 X-91.9302 Y36.1748 
G01 X-91.9132 Y36.1453 
G01 X-91.8925 Y36.1184 
G01 X-91.8795 Y36.0869 
G01 X-91.8625 Y36.0575 
G01 X-91.8537 Y36.0247 
G01 X-91.8407 Y35.9933 
G01 X-91.8362 Y35.9596 
G01 X-91.8274 Y35.9267 
G01 X-91.8274 Y35.8927 
G01 X-91.8230 Y35.8590 
G01 X-91.8274 Y35.8253 
G01 X-91.8274 Y35.7913 
G01 X-91.8362 Y35.7585 
G01 X-91.8407 Y35.7247 
G01 X-91.8537 Y35.6933 
G01 X-91.8625 Y35.6605 
G01 X-91.8795 Y35.6311 
G01 X-91.9779 Y35.3934 
G01 X-91.9779 Y34.6066 
G01 X-91.6768 Y33.8796 
G01 X-91.1204 Y33.3232 
G01 X-90.3934 Y33.0221 
G01 X-89.6066 Y33.0221 
G01 X-89.4134 Y33.1021 
G01 X-89.3840 Y33.1191 
G01 X-89.3511 Y33.1279 
G01 X-89.3197 Y33.1409 
G01 X-89.2860 Y33.1454 
G01 X-89.2532 Y33.1542 
G01 X-89.2191 Y33.1542 
G01 X-89.1854 Y33.1586 
G01 X-89.1517 Y33.1542 
G01 X-89.1177 Y33.1542 
G01 X-89.0849 Y33.1454 
G01 X-89.0512 Y33.1409 
G01 X-89.0198 Y33.1279 
G01 X-88.9869 Y33.1191 
G01 X-88.9575 Y33.1021 
G01 X-88.9261 Y33.0891 
G01 X-88.8991 Y33.0684 
G01 X-88.8697 Y33.0514 
G01 X-88.8456 Y33.0274 
G01 X-88.8186 Y33.0067 
G01 X-88.7979 Y32.9797 
G01 X-87.3885 Y31.5702 
G01 X-87.3207 Y31.4529 
G01 X-87.2857 Y31.3221 
G01 X-87.2857 Y29.3377 
G01 X-87.2813 Y29.3040 
G01 X-87.2857 Y29.2703 
G01 X-87.2857 Y29.2363 
G01 X-87.2945 Y29.2035 
G01 X-87.2989 Y29.1698 
G01 X-87.3119 Y29.1383 
G01 X-87.3207 Y29.1055 
G01 X-87.3377 Y29.0761 
G01 X-87.3508 Y29.0447 
G01 X-87.3715 Y29.0177 
G01 X-87.3885 Y28.9882 
G01 X-87.4125 Y28.9642 
G01 X-87.4332 Y28.9372 
G01 X-87.4602 Y28.9165 
G01 X-87.4842 Y28.8925 
G01 X-87.5137 Y28.8755 
G01 X-87.5406 Y28.8548 
G01 X-87.5720 Y28.8418 
G01 X-87.6015 Y28.8248 
G01 X-87.6343 Y28.8160 
G01 X-87.6657 Y28.8030 
G01 X-87.6994 Y28.7985 
G01 X-87.7323 Y28.7897 
G01 X-87.7663 Y28.7897 
G01 X-87.8000 Y28.7853 
G01 X-87.8337 Y28.7897 
G01 X-87.8677 Y28.7897 
G01 X-87.9005 Y28.7985 
G01 X-87.9343 Y28.8030 
G01 X-87.9657 Y28.8160 
G01 X-87.9985 Y28.8248 
G01 X-88.0279 Y28.8418 
G01 X-88.3566 Y28.9779 
G01 X-89.1434 Y28.9779 
G01 X-89.8704 Y28.6768 
G01 X-90.4268 Y28.1204 
G01 X-90.7279 Y27.3934 
G01 X-90.7279 Y26.6066 
G01 X-90.4268 Y25.8796 
G01 X-90.3885 Y25.8413 
G01 X-90.3207 Y25.7240 
G01 X-90.2857 Y25.5932 
G01 X-90.2857 Y20.7443 
G01 X-90.0900 Y20.2717 
G01 X-89.7220 Y19.9037 
G01 X-89.6353 Y19.8171 
G01 X-89.6262 Y19.8080 
G01 X-89.5606 Y19.6942 
G01 X-89.5585 Y19.6907 
G01 X-89.5235 Y19.5599 
G01 X-89.5235 Y19.4245 
G01 X-89.5325 Y19.3909 
G01 X-89.5585 Y19.2937 
G01 X-89.6262 Y19.1764 
G01 X-89.7220 Y19.0807 
G01 X-89.8357 Y19.0150 
G01 X-89.8393 Y19.0129 
G01 X-89.9701 Y18.9779 
G01 X-90.3934 Y18.9779 
G01 X-91.1204 Y18.6768 
G01 X-91.6768 Y18.1204 
G01 X-91.9779 Y17.3934 
G01 X-91.9779 Y16.6066 
G01 X-91.6768 Y15.8796 
G01 X-91.1204 Y15.3232 
G01 X-90.3934 Y15.0221 
G01 X-89.9857 Y15.0221 
G01 X-89.8549 Y14.9870 
G01 X-89.7391 Y14.9202 
G01 X-89.6783 Y14.8601 
G01 X-86.0298 Y11.2115 
G01 X-85.9933 Y11.1750 
G01 X-85.9340 Y11.1158 
G01 X-85.8663 Y10.9985 
G01 X-85.8313 Y10.8677 
G01 X-85.8313 Y10.7323 
G01 X-85.8663 Y10.6015 
G01 X-85.9340 Y10.4842 
G01 X-86.0298 Y10.3885 
G01 X-86.1471 Y10.3207 
G01 X-86.2779 Y10.2857 
G01 X-87.0932 Y10.2857 
G01 X-87.2240 Y10.3207 
G01 X-87.3413 Y10.3885 
G01 X-87.4370 Y10.4842 
G01 X-87.6296 Y10.6768 
G01 X-88.3566 Y10.9779 
G01 X-89.1434 Y10.9779 
G01 X-89.8704 Y10.6768 
G01 X-90.4268 Y10.1204 
G01 X-90.7279 Y9.3934  
G01 X-90.7279 Y8.6066  
G01 X-90.6398 Y8.3939  
G01 X-90.6228 Y8.3645  
G01 X-90.6140 Y8.3317  
G01 X-90.6010 Y8.3003  
G01 X-90.5966 Y8.2665  
G01 X-90.5878 Y8.2337  
G01 X-90.5878 Y8.1997  
G01 X-90.5833 Y8.1660  
G01 X-90.5878 Y8.1323  
G01 X-90.5878 Y8.0983  
G01 X-90.5966 Y8.0654  
G01 X-90.6010 Y8.0317  
G01 X-90.6140 Y8.0003  
G01 X-90.6228 Y7.9675  
G01 X-90.6398 Y7.9380  
G01 X-90.6528 Y7.9066  
G01 X-90.6735 Y7.8797  
G01 X-90.6905 Y7.8502  
G01 X-90.7146 Y7.8262  
G01 X-90.7353 Y7.7992  
G01 X-90.7623 Y7.7785  
G01 X-90.7863 Y7.7545  
G01 X-90.8157 Y7.7375  
G01 X-90.8427 Y7.7168  
G01 X-90.8741 Y7.7037  
G01 X-90.9036 Y7.6867  
G01 X-90.9364 Y7.6780  
G01 X-90.9678 Y7.6649  
G01 X-91.0015 Y7.6605  
G01 X-91.0344 Y7.6517  
G01 X-91.0684 Y7.6517  
G01 X-91.1021 Y7.6473  
G01 X-91.1358 Y7.6517  
G01 X-94.4294 Y7.6517  
G01 X-94.7608 Y7.5144  
G01 X-95.0144 Y7.2608  
G01 X-95.1517 Y6.9294  
G01 X-95.1517 Y4.8706  
G01 X-95.0144 Y4.5392  
G01 X-94.7608 Y4.2856  
G01 X-94.4294 Y4.1483  
G01 X-91.0706 Y4.1483  
G01 X-90.7392 Y4.2856  
G01 X-90.4856 Y4.5392  
G01 X-90.3483 Y4.8706  
G01 X-90.3483 Y6.7178  
G01 X-90.3527 Y6.7515  
G01 X-90.3483 Y6.7852  
G01 X-90.3483 Y6.8192  
G01 X-90.3395 Y6.8520  
G01 X-90.3351 Y6.8857  
G01 X-90.3220 Y6.9172  
G01 X-90.3132 Y6.9500  
G01 X-90.2963 Y6.9794  
G01 X-90.2832 Y7.0108  
G01 X-90.2625 Y7.0378  
G01 X-90.2455 Y7.0673  
G01 X-90.2215 Y7.0913  
G01 X-90.2008 Y7.1183  
G01 X-90.1738 Y7.1390  
G01 X-90.1498 Y7.1630  
G01 X-90.1203 Y7.1800  
G01 X-90.0934 Y7.2007  
G01 X-90.0620 Y7.2137  
G01 X-90.0325 Y7.2307  
G01 X-89.9997 Y7.2395  
G01 X-89.9683 Y7.2525  
G01 X-89.9346 Y7.2570  
G01 X-89.9017 Y7.2658  
G01 X-89.8677 Y7.2658  
G01 X-89.8340 Y7.2702  
G01 X-89.8003 Y7.2658  
G01 X-89.7663 Y7.2658  
G01 X-89.7335 Y7.2570  
G01 X-89.6997 Y7.2525  
G01 X-89.6683 Y7.2395  
G01 X-89.6355 Y7.2307  
G01 X-89.6060 Y7.2137  
G01 X-89.1434 Y7.0221  
G01 X-88.3566 Y7.0221  
G01 X-87.6296 Y7.3232  
G01 X-87.3413 Y7.6115  
G01 X-87.2240 Y7.6792  
G01 X-87.0932 Y7.7143  
G01 X-81.6562 Y7.7143  
G01 X-81.6479 Y7.7162  
G01 X-81.5886 Y7.7143  
G01 X-81.5293 Y7.7143  
G01 X-81.5211 Y7.7121  
G01 X-81.5125 Y7.7118  
G01 X-81.4558 Y7.6946  
G01 X-81.3985 Y7.6792  
G01 X-81.3911 Y7.6750  
G01 X-81.3830 Y7.6725  
G01 X-81.3326 Y7.6412  
G01 X-81.2813 Y7.6115  
G01 X-81.2752 Y7.6055  
G01 X-81.2680 Y7.6010  
G01 X-81.2275 Y7.5577  
G01 X-81.1855 Y7.5158  
G01 X-81.1812 Y7.5084  
G01 X-81.1754 Y7.5021  
G01 X-81.1475 Y7.4499  
G01 X-81.1178 Y7.3985  
G01 X-81.1156 Y7.3903  
G01 X-81.1116 Y7.3827  
G01 X-81.0981 Y7.3250  
G01 X-81.0828 Y7.2677  
G01 X-81.0828 Y7.2592  
G01 X-81.0808 Y7.2508  
G01 X-81.0828 Y7.1916  
G01 X-81.0828 Y7.1323  
G01 X-81.0850 Y7.1240  
G01 X-81.0852 Y7.1155  
G01 X-81.1025 Y7.0587  
G01 X-81.1178 Y7.0015  
G01 X-81.1221 Y6.9941  
G01 X-81.1246 Y6.9859  
G01 X-81.1559 Y6.9356  
G01 X-81.1855 Y6.8842  
G01 X-81.1916 Y6.8782  
G01 X-81.1961 Y6.8709  
G01 X-81.2393 Y6.8304  
G01 X-81.2813 Y6.7885  
G01 X-81.2887 Y6.7842  
G01 X-81.2949 Y6.7783  
G01 X-81.3472 Y6.7504  
G01 X-81.3985 Y6.7207  
G01 X-81.4068 Y6.7185  
G01 X-81.5754 Y6.6284  
G01 X-81.8255 Y6.4613  
G01 X-82.0579 Y6.2706  
G01 X-82.2706 Y6.0579  
G01 X-82.4613 Y5.8255  
G01 X-82.6284 Y5.5754  
G01 X-82.7702 Y5.3102  
G01 X-82.8853 Y5.0324  
G01 X-82.9362 Y4.8643  
G01 X-82.9133 Y4.8643  
G01 X-82.8087 Y5.1634  
G01 X-82.6607 Y5.4705  
G01 X-82.4794 Y5.7592  
G01 X-82.2668 Y6.0257  
G01 X-82.0257 Y6.2668  
G01 X-81.7592 Y6.4794  
G01 X-81.4705 Y6.6608  
G01 X-81.1634 Y6.8087  
G01 X-80.8416 Y6.9213  
G01 X-80.5092 Y6.9971  
G01 X-80.1705 Y7.0353  
G01 X-79.8295 Y7.0353  
G01 X-79.4908 Y6.9971  
G01 X-79.1584 Y6.9213  
G01 X-78.8366 Y6.8087  
G01 X-78.5295 Y6.6608  
G01 X-78.2408 Y6.4794  
G01 X-77.9742 Y6.2668  
G01 X-77.7332 Y6.0257  
G01 X-77.5206 Y5.7592  
G01 X-77.3392 Y5.4705  
G01 X-77.1913 Y5.1634  
G01 X-77.0867 Y4.8643  
G01 X-77.0638 Y4.8643  
G01 X-77.1147 Y5.0324  
G01 X-77.2298 Y5.3102  
G01 X-77.3716 Y5.5754  
G01 X-77.5387 Y5.8255  
G01 X-77.7294 Y6.0579  
G01 X-77.9421 Y6.2706  
G01 X-78.1745 Y6.4613  
G01 X-78.4246 Y6.6284  
G01 X-78.5932 Y6.7185  
G01 X-78.6015 Y6.7207  
G01 X-78.6528 Y6.7504  
G01 X-78.7051 Y6.7783  
G01 X-78.7113 Y6.7842  
G01 X-78.7187 Y6.7885  
G01 X-78.7607 Y6.8304  
G01 X-78.8039 Y6.8709  
G01 X-78.8084 Y6.8782  
G01 X-78.8145 Y6.8842  
G01 X-78.8441 Y6.9356  
G01 X-78.8754 Y6.9859  
G01 X-78.8779 Y6.9941  
G01 X-78.8822 Y7.0015  
G01 X-78.8975 Y7.0587  
G01 X-78.9147 Y7.1155  
G01 X-78.9150 Y7.1240  
G01 X-78.9172 Y7.1323  
G01 X-78.9172 Y7.1916  
G01 X-78.9192 Y7.2508  
G01 X-78.9172 Y7.2592  
G01 X-78.9172 Y7.2677  
G01 X-78.9019 Y7.3250  
G01 X-78.8884 Y7.3827  
G01 X-78.8844 Y7.3903  
G01 X-78.8822 Y7.3985  
G01 X-78.8525 Y7.4499  
G01 X-78.8246 Y7.5021  
G01 X-78.8188 Y7.5084  
G01 X-78.8145 Y7.5158  
G01 X-78.7725 Y7.5577  
G01 X-78.7320 Y7.6010  
G01 X-78.7248 Y7.6055  
G01 X-78.7187 Y7.6115  
G01 X-78.6674 Y7.6412  
G01 X-78.6170 Y7.6725  
G01 X-78.6089 Y7.6750  
G01 X-78.6015 Y7.6792  
G01 X-78.5442 Y7.6946  
G01 X-78.4874 Y7.7118  
G01 X-78.4789 Y7.7121  
G01 X-78.4707 Y7.7143  
G01 X-78.4114 Y7.7143  
G01 X-78.3521 Y7.7162  
G01 X-78.3438 Y7.7143  
G01 X-10.7443 Y7.7143  
G01 X-10.2717 Y7.9100  
G01 X-9.7898 Y8.3919  
G01 X-3.9100 Y14.2717 
G01 X-3.7143 Y14.7443 
G01 X-3.7143 Y18.3215 
G01 X-3.6792 Y18.4523 
G01 X-3.6115 Y18.5696 
G01 X-3.5158 Y18.6653 
G01 X-3.3603 Y18.8208 
G01 X-3.3603 Y20.1792 
G01 X-3.3656 Y20.1845 
G01 X-3.3938 Y20.2333 
G01 X-3.4333 Y20.3018 
G01 X-3.4684 Y20.4326 
G01 X-3.4684 Y20.5680 
G01 X-3.4406 Y20.6717 
G01 X-3.4334 Y20.6988 
G01 X-3.3912 Y20.7719 
G01 X-3.3656 Y20.8161 
G01 X-3.2699 Y20.9118 
G01 X-1.9100 Y22.2717 
G01 X-1.9040 Y22.2862 
G01 X-1.8952 Y22.3190 
G01 X-1.8782 Y22.3485 
G01 X-1.8652 Y22.3799 
G01 X-1.8445 Y22.4068 
G01 X-1.8275 Y22.4363 
G01 X-1.8035 Y22.4603 
G01 X-1.7828 Y22.4873 
G01 X-1.7558 Y22.5080 
G01 X-1.7318 Y22.5320 
G01 X-1.7023 Y22.5490 
G01 X-1.6754 Y22.5697 
G01 X-1.6439 Y22.5828 
G01 X-1.6145 Y22.5998 
G01 X-1.5817 Y22.6085 
G01 X-1.5503 Y22.6216 
G01 X-1.5166 Y22.6260 
G01 X-1.4837 Y22.6348 
G01 X-1.4497 Y22.6348 
G01 X-1.4160 Y22.6392 
G01 X-1.3823 Y22.6348 
G01 X-1.3483 Y22.6348 
G01 X-1.3155 Y22.6260 
G01 X-1.2817 Y22.6216 
G01 X-1.2503 Y22.6085 
G01 X-1.2175 Y22.5998 
G01 X-1.1880 Y22.5828 
G01 X-1.1566 Y22.5697 
G01 X-1.1297 Y22.5490 
G01 X-1.1002 Y22.5320 
G01 X-1.0762 Y22.5080 
G01 X-1.0492 Y22.4873 
G01 X-1.0285 Y22.4603 
G01 X-1.0045 Y22.4363 
G01 X-0.9875 Y22.4068 
G01 X-0.9668 Y22.3799 
G01 X-0.9537 Y22.3484 
G01 X-0.9367 Y22.3190 
G01 X-0.9280 Y22.2862 
G01 X-0.9149 Y22.2548 
G01 X-0.9105 Y22.2211 
G01 X-0.9017 Y22.1882 
G01 X-0.9017 Y22.1542 
G01 X-0.8973 Y22.1205 
G01 X-0.9017 Y22.0868 
G01 X-0.9017 Y6.4041  
G01 X-0.9367 Y6.2733  
G01 X-1.0045 Y6.1560  
G01 X-1.0987 Y6.0618  
G01 X-1.1835 Y6.0122  
G01 X-1.2175 Y5.9926  
G01 X-1.2767 Y5.9767  
G01 X-1.3483 Y5.9575  
G01 X-1.4837 Y5.9575  
G01 X-1.6145 Y5.9926  
G01 X-1.7318 Y6.0603  
G01 X-1.9421 Y6.2706  
G01 X-2.1745 Y6.4613  
G01 X-2.4246 Y6.6284  
G01 X-2.6898 Y6.7702  
G01 X-2.9676 Y6.8853  
G01 X-3.1357 Y6.9362  
G01 X-3.1357 Y6.9133  
G01 X-2.8366 Y6.8087  
G01 X-2.5295 Y6.6608  
G01 X-2.2408 Y6.4794  
G01 X-1.9743 Y6.2668  
G01 X-1.7332 Y6.0257  
G01 X-1.5206 Y5.7592  
G01 X-1.3392 Y5.4705  
G01 X-1.1913 Y5.1634  
G01 X-1.0787 Y4.8416  
G01 X-1.0029 Y4.5092  
G01 X-0.9647 Y4.1705  
G01 X-0.9647 Y3.8295  
G01 X-1.0029 Y3.4908  
G01 X-1.0787 Y3.1584  
G01 X-1.1913 Y2.8366  
G01 X-1.3392 Y2.5295  
G01 X-1.5206 Y2.2408  
G01 X-1.7332 Y1.9743  
G00 Z2.5400  
G00 X-4.8643 Y6.9133  
G01 Z-0.1778 F254   
G01 X-4.8643 Y6.9362  F508   
G01 X-5.0324 Y6.8853  
G01 X-5.3102 Y6.7702  
G01 X-5.5754 Y6.6284  
G01 X-5.8255 Y6.4613  
G01 X-6.0579 Y6.2706  
G01 X-6.2706 Y6.0579  
G01 X-6.4613 Y5.8255  
G01 X-6.6284 Y5.5754  
G01 X-6.7702 Y5.3102  
G01 X-6.8853 Y5.0324  
G01 X-6.9362 Y4.8643  
G01 X-6.9133 Y4.8643  
G01 X-6.8087 Y5.1634  
G01 X-6.6608 Y5.4705  
G01 X-6.4794 Y5.7592  
G01 X-6.2668 Y6.0257  
G01 X-6.0257 Y6.2668  
G01 X-5.7592 Y6.4794  
G01 X-5.4705 Y6.6608  
G01 X-5.1634 Y6.8087  
G01 X-4.8643 Y6.9133  
G00 Z2.5400  
G00 X-10.5885 Y8.6842  
G01 Z-0.1778 F254   
G01 X-10.6842 Y8.5885  F508   
G01 X-10.8015 Y8.5207  
G01 X-10.9323 Y8.4857  
G01 X-87.6580 Y8.4857  
G01 X-87.7181 Y8.3677  
G01 X-87.8297 Y8.2140  
G01 X-87.9640 Y8.0797  
G01 X-88.1177 Y7.9681  
G01 X-88.2869 Y7.8819  
G01 X-88.4675 Y7.8232  
G01 X-88.6550 Y7.7935  
G01 X-88.8450 Y7.7935  
G01 X-89.0325 Y7.8232  
G01 X-89.2131 Y7.8819  
G01 X-89.3823 Y7.9681  
G01 X-89.5360 Y8.0797  
G01 X-89.6703 Y8.2140  
G01 X-89.7819 Y8.3677  
G01 X-89.8681 Y8.5369  
G01 X-89.9268 Y8.7175  
G01 X-89.9565 Y8.9050  
G01 X-89.9565 Y9.0950  
G01 X-89.9268 Y9.2825  
G01 X-89.8681 Y9.4631  
G01 X-89.7819 Y9.6323  
G01 X-89.6703 Y9.7860  
G01 X-89.5360 Y9.9203  
G01 X-89.3823 Y10.0319 
G01 X-89.2131 Y10.1181 
G01 X-89.0325 Y10.1768 
G01 X-88.8450 Y10.2065 
G01 X-88.6550 Y10.2065 
G01 X-88.4675 Y10.1768 
G01 X-88.2869 Y10.1181 
G01 X-88.1177 Y10.0319 
G01 X-87.9640 Y9.9203  
G01 X-87.8297 Y9.7860  
G01 X-87.7181 Y9.6323  
G01 X-87.6580 Y9.5143  
G01 X-11.2130 Y9.5143  
G01 X-5.5143 Y15.2130 
G01 X-5.5143 Y18.7863 
G01 X-5.8683 Y19.1403 
G01 X-5.8683 Y19.8597 
G01 X-5.3597 Y20.3683 
G01 X-4.6403 Y20.3683 
G01 X-4.1317 Y19.8597 
G01 X-4.1317 Y19.1403 
G01 X-4.4857 Y18.7863 
G01 X-4.4857 Y14.9323 
G01 X-4.5207 Y14.8015 
G01 X-4.5885 Y14.6842 
G01 X-10.5885 Y8.6842  
G00 Z2.5400  
G00 X-11.5885 Y10.6842 
G01 Z-0.1778 F254   
G01 X-11.6842 Y10.5885 F508   
G01 X-11.8015 Y10.5207 
G01 X-11.9323 Y10.4857 
G01 X-84.0677 Y10.4857 
G01 X-84.1985 Y10.5207 
G01 X-84.3158 Y10.5885 
G01 X-84.4115 Y10.6842 
G01 X-89.5915 Y15.8642 
G01 X-89.7175 Y15.8232 
G01 X-89.9050 Y15.7935 
G01 X-90.0950 Y15.7935 
G01 X-90.2825 Y15.8232 
G01 X-90.4631 Y15.8819 
G01 X-90.6323 Y15.9681 
G01 X-90.7860 Y16.0797 
G01 X-90.9203 Y16.2140 
G01 X-91.0319 Y16.3677 
G01 X-91.1181 Y16.5369 
G01 X-91.1768 Y16.7175 
G01 X-91.2065 Y16.9050 
G01 X-91.2065 Y17.0950 
G01 X-91.1768 Y17.2825 
G01 X-91.1181 Y17.4631 
G01 X-91.0319 Y17.6323 
G01 X-90.9203 Y17.7860 
G01 X-90.7860 Y17.9203 
G01 X-90.6323 Y18.0319 
G01 X-90.4631 Y18.1181 
G01 X-90.2825 Y18.1768 
G01 X-90.0950 Y18.2065 
G01 X-89.9050 Y18.2065 
G01 X-89.7175 Y18.1768 
G01 X-89.5369 Y18.1181 
G01 X-89.3677 Y18.0319 
G01 X-89.2140 Y17.9203 
G01 X-89.0797 Y17.7860 
G01 X-88.9681 Y17.6323 
G01 X-88.8819 Y17.4631 
G01 X-88.8232 Y17.2825 
G01 X-88.7935 Y17.0950 
G01 X-88.7935 Y16.9050 
G01 X-88.8232 Y16.7175 
G01 X-88.8641 Y16.5915 
G01 X-83.7870 Y11.5143 
G01 X-12.2130 Y11.5143 
G01 X-8.0143 Y15.7130 
G01 X-8.0143 Y18.7863 
G01 X-8.3683 Y19.1403 
G01 X-8.3683 Y19.8597 
G01 X-7.8597 Y20.3683 
G01 X-7.1403 Y20.3683 
G01 X-6.6317 Y19.8597 
G01 X-6.6317 Y19.1403 
G01 X-6.9857 Y18.7863 
G01 X-6.9857 Y15.4323 
G01 X-7.0207 Y15.3015 
G01 X-7.0885 Y15.1842 
G01 X-11.5885 Y10.6842 
G00 Z2.5400  
G00 X-12.4298 Y12.3885 
G01 Z-0.1778 F254   
G01 X-12.5471 Y12.3207 F508   
G01 X-12.6443 Y12.2947 
G01 X-12.6779 Y12.2857 
G01 X-32.7221 Y12.2857 
G01 X-32.8529 Y12.3207 
G01 X-32.9702 Y12.3885 
G01 X-33.0645 Y12.4827 
G01 X-33.1140 Y12.5675 
G01 X-33.1337 Y12.6015 
G01 X-33.1495 Y12.6607 
G01 X-33.1687 Y12.7323 
G01 X-33.1687 Y12.8677 
G01 X-33.1337 Y12.9985 
G01 X-33.0660 Y13.1158 
G01 X-32.9100 Y13.2717 
G01 X-32.7143 Y13.7443 
G01 X-32.7143 Y30.3221 
G01 X-32.6792 Y30.4529 
G01 X-32.6115 Y30.5702 
G01 X-32.5158 Y30.6660 
G01 X-30.5702 Y32.6115 
G01 X-30.4529 Y32.6792 
G01 X-30.3221 Y32.7143 
G01 X-27.0714 Y32.7143 
G01 X-26.9406 Y32.6792 
G01 X-26.8233 Y32.6115 
G01 X-26.7276 Y32.5158 
G01 X-26.7255 Y32.5123 
G01 X-26.6598 Y32.3985 
G01 X-26.6346 Y32.3042 
G01 X-26.6248 Y32.2677 
G01 X-26.6248 Y32.1323 
G01 X-26.6598 Y32.0015 
G01 X-26.7276 Y31.8842 
G01 X-26.8233 Y31.7885 
G01 X-27.0975 Y31.5143 
G01 X-27.0615 Y31.5143 
G01 X-26.4616 Y32.1143 
G01 X-25.5384 Y32.1143 
G01 X-24.9385 Y31.5143 
G01 X-24.0615 Y31.5143 
G01 X-23.4616 Y32.1143 
G01 X-22.5384 Y32.1143 
G01 X-21.9385 Y31.5143 
G01 X-21.0615 Y31.5143 
G01 X-20.4616 Y32.1143 
G01 X-19.5384 Y32.1143 
G01 X-18.9385 Y31.5143 
G01 X-18.9025 Y31.5143 
G01 X-19.1767 Y31.7885 
G01 X-19.2629 Y31.8747 
G01 X-19.2724 Y31.8842 
G01 X-19.3381 Y31.9980 
G01 X-19.3401 Y32.0015 
G01 X-19.3752 Y32.1323 
G01 X-19.3752 Y32.2677 
G01 X-19.3662 Y32.3013 
G01 X-19.3401 Y32.3985 
G01 X-19.2724 Y32.5158 
G01 X-19.1767 Y32.6115 
G01 X-19.0629 Y32.6772 
G01 X-19.0594 Y32.6792 
G01 X-18.9286 Y32.7143 
G01 X-16.2779 Y32.7143 
G01 X-16.1471 Y32.6792 
G01 X-16.0298 Y32.6115 
G01 X-15.9340 Y32.5158 
G01 X-15.8663 Y32.3985 
G01 X-15.8317 Y32.2692 
G01 X-15.8313 Y32.1323 
G01 X-15.8663 Y32.0015 
G01 X-15.9340 Y31.8842 
G01 X-16.0298 Y31.7885 
G01 X-20.4298 Y27.3885 
G01 X-20.5471 Y27.3207 
G01 X-20.6779 Y27.2857 
G01 X-25.1902 Y27.2857 
G01 X-25.3210 Y27.3207 
G01 X-25.4383 Y27.3885 
G01 X-25.5340 Y27.4842 
G01 X-25.6975 Y27.6477 
G01 X-27.0625 Y27.6477 
G01 X-28.0277 Y26.6825 
G01 X-28.0277 Y25.3175 
G01 X-27.0625 Y24.3523 
G01 X-25.6975 Y24.3523 
G01 X-25.4383 Y24.6115 
G01 X-25.3210 Y24.6792 
G01 X-25.1902 Y24.7143 
G01 X-19.7443 Y24.7143 
G01 X-19.2717 Y24.9100 
G01 X-14.2622 Y29.9195 
G01 X-14.1449 Y29.9872 
G01 X-14.0141 Y30.0223 
G01 X-13.2765 Y30.0223 
G01 X-13.2428 Y30.0267 
G01 X-13.2091 Y30.0223 
G01 X-13.1751 Y30.0223 
G01 X-13.1422 Y30.0135 
G01 X-13.1085 Y30.0091 
G01 X-13.0771 Y29.9960 
G01 X-13.0443 Y29.9872 
G01 X-13.0148 Y29.9702 
G01 X-12.9834 Y29.9572 
G01 X-12.9564 Y29.9365 
G01 X-12.9270 Y29.9195 
G01 X-12.9030 Y29.8955 
G01 X-12.8760 Y29.8748 
G01 X-12.8553 Y29.8478 
G01 X-12.8312 Y29.8238 
G01 X-12.8143 Y29.7943 
G01 X-12.7935 Y29.7674 
G01 X-12.7805 Y29.7359 
G01 X-12.7635 Y29.7065 
G01 X-12.7547 Y29.6737 
G01 X-12.7417 Y29.6423 
G01 X-12.7373 Y29.6086 
G01 X-12.7285 Y29.5757 
G01 X-12.7285 Y29.5417 
G01 X-12.7241 Y29.5080 
G01 X-12.7285 Y29.4743 
G01 X-12.7285 Y29.4403 
G01 X-12.7373 Y29.4075 
G01 X-12.7417 Y29.3737 
G01 X-12.7547 Y29.3423 
G01 X-12.7635 Y29.3095 
G01 X-12.7805 Y29.2800 
G01 X-12.8857 Y29.0262 
G01 X-12.8857 Y26.2738 
G01 X-12.7509 Y25.9483 
G01 X-12.6666 Y25.8641 
G01 X-12.6446 Y25.8481 
G01 X-12.6190 Y25.8164 
G01 X-12.5901 Y25.7876 
G01 X-12.5796 Y25.7692 
G01 X-12.5612 Y25.7586 
G01 X-12.5324 Y25.7298 
G01 X-12.5007 Y25.7042 
G01 X-12.4951 Y25.6964 
G01 X-12.1762 Y25.5643 
G01 X-9.4238 Y25.5643 
G01 X-9.0983 Y25.6991 
G01 X-8.8491 Y25.9483 
G01 X-8.7143 Y26.2738 
G01 X-8.7143 Y28.7221 
G01 X-8.6792 Y28.8529 
G01 X-8.6115 Y28.9702 
G01 X-8.5158 Y29.0660 
G01 X-8.3985 Y29.1337 
G01 X-8.2677 Y29.1687 
G01 X-8.1323 Y29.1687 
G01 X-8.0015 Y29.1337 
G01 X-7.8842 Y29.0660 
G01 X-7.7885 Y28.9702 
G01 X-5.0420 Y26.2238 
G01 X-4.9743 Y26.1065 
G01 X-4.9393 Y25.9757 
G01 X-4.9393 Y25.8403 
G01 X-4.9743 Y25.7095 
G01 X-5.0420 Y25.5922 
G01 X-5.1378 Y25.4965 
G01 X-5.2551 Y25.4287 
G01 X-5.3644 Y25.3994 
G01 X-5.7496 Y25.0143 
G01 X-5.7136 Y25.0143 
G01 X-5.3597 Y25.3683 
G01 X-4.6403 Y25.3683 
G01 X-4.1317 Y24.8597 
G01 X-4.1317 Y24.1403 
G01 X-4.6403 Y23.6317 
G01 X-5.3597 Y23.6317 
G01 X-5.7136 Y23.9857 
G01 X-6.7864 Y23.9857 
G01 X-7.1403 Y23.6317 
G01 X-7.8597 Y23.6317 
G01 X-8.2136 Y23.9857 
G01 X-8.3085 Y23.9857 
G01 X-8.2769 Y23.8677 
G01 X-8.2769 Y23.7323 
G01 X-8.2953 Y23.6637 
G01 X-8.3119 Y23.6015 
G01 X-8.3286 Y23.5726 
G01 X-8.3797 Y23.4842 
G01 X-8.4754 Y23.3885 
G01 X-8.5242 Y23.3603 
G01 X-8.5927 Y23.3207 
G01 X-8.7235 Y23.2857 
G01 X-12.0258 Y23.2857 
G01 X-12.0338 Y23.2811 
G01 X-12.0862 Y23.2670 
G01 X-12.1378 Y23.2503 
G01 X-12.1514 Y23.2495 
G01 X-12.1646 Y23.2460 
G01 X-12.2188 Y23.2460 
G01 X-12.2730 Y23.2432 
G01 X-12.2864 Y23.2460 
G01 X-12.3001 Y23.2460 
G01 X-12.3524 Y23.2600 
G01 X-12.4055 Y23.2713 
G01 X-12.4177 Y23.2775 
G01 X-12.4309 Y23.2811 
G01 X-12.4778 Y23.3082 
G01 X-12.5261 Y23.3328 
G01 X-12.5363 Y23.3419 
G01 X-12.5481 Y23.3488 
G01 X-12.5865 Y23.3871 
G01 X-12.6268 Y23.4234 
G01 X-12.6342 Y23.4349 
G01 X-12.6439 Y23.4445 
G01 X-12.6710 Y23.4915 
G01 X-12.7005 Y23.5370 
G01 X-12.7048 Y23.5500 
G01 X-12.7116 Y23.5618 
G01 X-12.7256 Y23.6142 
G01 X-12.7424 Y23.6658 
G01 X-12.7431 Y23.6794 
G01 X-12.7466 Y23.6926 
G01 X-12.7466 Y23.7468 
G01 X-12.7495 Y23.8010 
G01 X-12.7466 Y23.8144 
G01 X-12.7466 Y23.9697 
G01 X-12.9365 Y24.5540 
G01 X-13.2693 Y25.0121 
G01 X-13.2886 Y25.0313 
G01 X-13.2991 Y25.0497 
G01 X-13.3175 Y25.0602 
G01 X-13.3367 Y25.0795 
G01 X-13.7948 Y25.4123 
G01 X-14.3791 Y25.6022 
G01 X-15.3424 Y25.6022 
G01 X-15.9268 Y25.4123 
G01 X-16.4238 Y25.0511 
G01 X-16.7850 Y24.5540 
G01 X-16.9749 Y23.9697 
G01 X-16.9749 Y23.8144 
G01 X-16.9720 Y23.8010 
G01 X-16.9749 Y23.7468 
G01 X-16.9749 Y23.6926 
G01 X-16.9784 Y23.6794 
G01 X-16.9791 Y23.6658 
G01 X-16.9959 Y23.6142 
G01 X-17.0099 Y23.5618 
G01 X-17.0167 Y23.5500 
G01 X-17.0210 Y23.5370 
G01 X-17.0505 Y23.4915 
G01 X-17.0776 Y23.4445 
G01 X-17.0873 Y23.4349 
G01 X-17.0947 Y23.4234 
G01 X-17.1350 Y23.3871 
G01 X-17.1734 Y23.3488 
G01 X-17.1852 Y23.3419 
G01 X-17.1954 Y23.3328 
G01 X-17.2437 Y23.3082 
G01 X-17.2906 Y23.2811 
G01 X-17.3038 Y23.2775 
G01 X-17.3160 Y23.2713 
G01 X-17.3691 Y23.2600 
G01 X-17.4215 Y23.2460 
G01 X-17.4351 Y23.2460 
G01 X-17.4485 Y23.2432 
G01 X-17.5027 Y23.2460 
G01 X-17.5569 Y23.2460 
G01 X-17.5701 Y23.2495 
G01 X-17.5837 Y23.2503 
G01 X-17.6353 Y23.2670 
G01 X-17.6877 Y23.2811 
G01 X-17.6957 Y23.2857 
G01 X-18.2557 Y23.2857 
G01 X-18.7283 Y23.0900 
G01 X-22.4298 Y19.3885 
G01 X-22.5471 Y19.3207 
G01 X-22.6779 Y19.2857 
G01 X-25.1902 Y19.2857 
G01 X-25.3210 Y19.3207 
G01 X-25.4383 Y19.3885 
G01 X-25.5340 Y19.4842 
G01 X-25.6975 Y19.6477 
G01 X-27.0625 Y19.6477 
G01 X-28.0277 Y18.6825 
G01 X-28.0277 Y17.3175 
G01 X-27.0625 Y16.3523 
G01 X-25.6975 Y16.3523 
G01 X-25.5340 Y16.5158 
G01 X-25.4454 Y16.6044 
G01 X-25.4383 Y16.6115 
G01 X-25.3245 Y16.6772 
G01 X-25.3210 Y16.6792 
G01 X-25.1902 Y16.7143 
G01 X-21.7443 Y16.7143 
G01 X-21.2717 Y16.9100 
G01 X-19.0104 Y19.1714 
G01 X-18.9847 Y19.2030 
G01 X-18.9627 Y19.2190 
G01 X-18.9434 Y19.2383 
G01 X-18.9081 Y19.2587 
G01 X-18.8752 Y19.2826 
G01 X-18.8498 Y19.2924 
G01 X-18.8262 Y19.3060 
G01 X-18.7868 Y19.3165 
G01 X-18.7488 Y19.3312 
G01 X-18.7217 Y19.3340 
G01 X-18.6954 Y19.3411 
G01 X-18.6546 Y19.3411 
G01 X-18.6141 Y19.3453 
G01 X-18.5872 Y19.3411 
G01 X-18.5599 Y19.3411 
G01 X-18.5206 Y19.3305 
G01 X-18.4803 Y19.3241 
G01 X-18.4555 Y19.3131 
G01 X-18.4291 Y19.3060 
G01 X-18.3938 Y19.2856 
G01 X-18.3566 Y19.2691 
G01 X-18.3355 Y19.2519 
G01 X-18.3119 Y19.2383 
G01 X-18.2830 Y19.2095 
G01 X-18.2514 Y19.1838 
G01 X-18.2354 Y19.1618 
G01 X-18.2161 Y19.1425 
G01 X-18.1957 Y19.1072 
G01 X-18.0807 Y18.9489 
G01 X-17.5836 Y18.5877 
G01 X-16.9992 Y18.3978 
G01 X-16.0359 Y18.3978 
G01 X-15.4516 Y18.5877 
G01 X-15.1740 Y18.7894 
G01 X-15.1318 Y18.8236 
G01 X-15.1193 Y18.8291 
G01 X-15.1083 Y18.8371 
G01 X-15.0576 Y18.8566 
G01 X-15.0081 Y18.8786 
G01 X-14.9946 Y18.8808 
G01 X-14.9818 Y18.8857 
G01 X-14.9279 Y18.8913 
G01 X-14.8743 Y18.8998 
G01 X-14.8607 Y18.8984 
G01 X-14.8472 Y18.8998 
G01 X-14.7936 Y18.8913 
G01 X-14.7397 Y18.8857 
G01 X-14.7269 Y18.8808 
G01 X-14.7134 Y18.8786 
G01 X-14.6639 Y18.8566 
G01 X-14.6132 Y18.8371 
G01 X-14.6022 Y18.8291 
G01 X-14.5897 Y18.8236 
G01 X-14.5476 Y18.7894 
G01 X-14.2699 Y18.5877 
G01 X-13.6856 Y18.3978 
G01 X-13.4109 Y18.3978 
G01 X-13.3772 Y18.4023 
G01 X-13.3435 Y18.3978 
G01 X-13.3095 Y18.3978 
G01 X-13.2766 Y18.3890 
G01 X-13.2429 Y18.3846 
G01 X-13.2115 Y18.3716 
G01 X-13.1787 Y18.3628 
G01 X-13.1492 Y18.3458 
G01 X-13.1178 Y18.3328 
G01 X-13.0908 Y18.3121 
G01 X-13.0614 Y18.2951 
G01 X-13.0373 Y18.2710 
G01 X-13.0104 Y18.2503 
G01 X-12.9897 Y18.2233 
G01 X-12.9656 Y18.1993 
G01 X-12.9486 Y18.1699 
G01 X-12.9279 Y18.1429 
G01 X-12.9149 Y18.1115 
G01 X-12.8979 Y18.0821 
G01 X-12.8891 Y18.0492 
G01 X-12.8761 Y18.0178 
G01 X-12.8717 Y17.9841 
G01 X-12.8629 Y17.9513 
G01 X-12.8629 Y17.9172 
G01 X-12.8584 Y17.8835 
G01 X-12.8629 Y17.8498 
G01 X-12.8629 Y17.8158 
G01 X-12.8717 Y17.7830 
G01 X-12.8761 Y17.7493 
G01 X-12.8857 Y17.7262 
G01 X-12.8857 Y14.9738 
G01 X-12.7509 Y14.6483 
G01 X-12.5017 Y14.3991 
G01 X-12.1762 Y14.2643 
G01 X-11.7279 Y14.2643 
G01 X-11.5971 Y14.2292 
G01 X-11.5945 Y14.2278 
G01 X-11.4798 Y14.1615 
G01 X-11.3855 Y14.0673 
G01 X-11.3820 Y14.0623 
G01 X-11.3163 Y13.9485 
G01 X-11.2911 Y13.8542 
G01 X-11.2813 Y13.8177 
G01 X-11.2813 Y13.6823 
G01 X-11.3163 Y13.5515 
G01 X-11.3178 Y13.5489 
G01 X-11.3840 Y13.4342 
G01 X-12.4298 Y12.3885 
G00 Z2.5400  
G00 X-12.0647 Y15.0531 
G01 Z-0.1778 F254   
G01 X-12.0969 Y15.0853 F508   
G01 X-12.1143 Y15.1273 
G01 X-12.1143 Y17.5727 
G01 X-12.0969 Y17.6147 
G01 X-12.0647 Y17.6469 
G01 X-12.0227 Y17.6643 
G01 X-9.5773 Y17.6643 
G01 X-9.5353 Y17.6469 
G01 X-9.5031 Y17.6147 
G01 X-9.4857 Y17.5727 
G01 X-9.4857 Y15.1273 
G01 X-9.5031 Y15.0853 
G01 X-9.5353 Y15.0531 
G01 X-9.5773 Y15.0357 
G01 X-12.0227 Y15.0357 
G01 X-12.0647 Y15.0531 
G00 Z2.5400  
G00 X-12.2002 Y19.5083 
G01 Z-0.1778 F254   
G01 X-12.2002 Y19.5083 F508   
G01 X-12.3568 Y19.3769 
G01 X-12.5339 Y19.2747 
G01 X-12.7260 Y19.2047 
G01 X-12.9273 Y19.1692 
G01 X-13.4805 Y19.1692 
G01 X-13.6819 Y19.2047 
G01 X-13.8740 Y19.2747 
G01 X-14.0510 Y19.3769 
G01 X-14.2076 Y19.5083 
G01 X-14.3390 Y19.6649 
G01 X-14.4412 Y19.8419 
G01 X-14.5111 Y20.0340 
G01 X-14.5466 Y20.2353 
G01 X-14.5466 Y23.6625 
G01 X-14.5472 Y23.6746 
G01 X-14.5514 Y23.6986 
G01 X-14.5597 Y23.7215 
G01 X-14.5719 Y23.7426 
G01 X-14.5876 Y23.7612 
G01 X-14.6062 Y23.7769 
G01 X-14.6273 Y23.7891 
G01 X-14.6502 Y23.7974 
G01 X-14.6742 Y23.8016 
G01 X-14.6863 Y23.8022 
G01 X-15.0352 Y23.8022 
G01 X-15.0473 Y23.8016 
G01 X-15.0713 Y23.7974 
G01 X-15.0942 Y23.7891 
G01 X-15.1153 Y23.7769 
G01 X-15.1340 Y23.7612 
G01 X-15.1496 Y23.7426 
G01 X-15.1618 Y23.7215 
G01 X-15.1701 Y23.6986 
G01 X-15.1743 Y23.6746 
G01 X-15.1749 Y23.6625 
G01 X-15.1749 Y20.2353 
G01 X-15.2104 Y20.0340 
G01 X-15.2803 Y19.8419 
G01 X-15.3825 Y19.6649 
G01 X-15.5139 Y19.5083 
G01 X-15.6705 Y19.3769 
G01 X-15.8475 Y19.2747 
G01 X-16.0396 Y19.2047 
G01 X-16.2410 Y19.1692 
G01 X-16.7942 Y19.1692 
G01 X-16.9955 Y19.2047 
G01 X-17.1876 Y19.2747 
G01 X-17.3647 Y19.3769 
G01 X-17.5213 Y19.5083 
G01 X-17.6527 Y19.6649 
G01 X-17.7549 Y19.8419 
G01 X-17.8248 Y20.0340 
G01 X-17.8603 Y20.2353 
G01 X-17.8603 Y21.3460 
G01 X-17.8608 Y21.3582 
G01 X-17.8651 Y21.3822 
G01 X-17.8718 Y21.4008 
G01 X-21.6842 Y17.5885 
G01 X-21.8015 Y17.5207 
G01 X-21.9323 Y17.4857 
G01 X-25.6550 Y17.4857 
G01 X-26.0170 Y17.1237 
G01 X-26.7430 Y17.1237 
G01 X-27.2563 Y17.6370 
G01 X-27.2563 Y18.3630 
G01 X-26.7430 Y18.8763 
G01 X-26.0170 Y18.8763 
G01 X-25.6550 Y18.5143 
G01 X-22.2130 Y18.5143 
G01 X-18.4115 Y22.3158 
G01 X-18.3158 Y22.4115 
G01 X-18.1985 Y22.4792 
G01 X-18.0677 Y22.5143 
G01 X-17.8978 Y22.5143 
G01 X-17.6965 Y22.4788 
G01 X-17.5044 Y22.4089 
G01 X-17.3273 Y22.3067 
G01 X-17.1707 Y22.1753 
G01 X-17.0393 Y22.0187 
G01 X-16.9371 Y21.8416 
G01 X-16.8672 Y21.6495 
G01 X-16.8317 Y21.4482 
G01 X-16.8317 Y20.3375 
G01 X-16.8312 Y20.3254 
G01 X-16.8269 Y20.3014 
G01 X-16.8186 Y20.2785 
G01 X-16.8064 Y20.2574 
G01 X-16.7908 Y20.2388 
G01 X-16.7721 Y20.2231 
G01 X-16.7510 Y20.2109 
G01 X-16.7282 Y20.2026 
G01 X-16.7042 Y20.1984 
G01 X-16.6920 Y20.1978 
G01 X-16.3432 Y20.1978 
G01 X-16.3310 Y20.1984 
G01 X-16.3070 Y20.2026 
G01 X-16.2841 Y20.2109 
G01 X-16.2630 Y20.2231 
G01 X-16.2444 Y20.2388 
G01 X-16.2287 Y20.2574 
G01 X-16.2166 Y20.2785 
G01 X-16.2082 Y20.3014 
G01 X-16.2040 Y20.3254 
G01 X-16.2035 Y20.3375 
G01 X-16.2035 Y23.7647 
G01 X-16.1680 Y23.9660 
G01 X-16.0981 Y24.1581 
G01 X-15.9958 Y24.3351 
G01 X-15.8644 Y24.4917 
G01 X-15.7078 Y24.6231 
G01 X-15.5308 Y24.7253 
G01 X-15.3387 Y24.7953 
G01 X-15.1374 Y24.8308 
G01 X-14.5841 Y24.8308 
G01 X-14.3828 Y24.7953 
G01 X-14.1907 Y24.7253 
G01 X-14.0137 Y24.6231 
G01 X-13.8571 Y24.4917 
G01 X-13.7257 Y24.3351 
G01 X-13.6235 Y24.1581 
G01 X-13.5535 Y23.9660 
G01 X-13.5180 Y23.7647 
G01 X-13.5180 Y20.3375 
G01 X-13.5175 Y20.3254 
G01 X-13.5133 Y20.3014 
G01 X-13.5049 Y20.2785 
G01 X-13.4928 Y20.2574 
G01 X-13.4771 Y20.2388 
G01 X-13.4585 Y20.2231 
G01 X-13.4374 Y20.2109 
G01 X-13.4145 Y20.2026 
G01 X-13.3905 Y20.1984 
G01 X-13.3783 Y20.1978 
G01 X-13.0295 Y20.1978 
G01 X-13.0173 Y20.1984 
G01 X-12.9933 Y20.2026 
G01 X-12.9705 Y20.2109 
G01 X-12.9494 Y20.2231 
G01 X-12.9307 Y20.2388 
G01 X-12.9151 Y20.2574 
G01 X-12.9029 Y20.2785 
G01 X-12.8946 Y20.3014 
G01 X-12.8903 Y20.3254 
G01 X-12.8898 Y20.3375 
G01 X-12.8898 Y21.4482 
G01 X-12.8543 Y21.6495 
G01 X-12.7844 Y21.8416 
G01 X-12.6822 Y22.0187 
G01 X-12.5508 Y22.1753 
G01 X-12.3942 Y22.3067 
G01 X-12.2171 Y22.4089 
G01 X-12.0250 Y22.4788 
G01 X-11.8237 Y22.5143 
G01 X-8.2137 Y22.5143 
G01 X-7.8597 Y22.8683 
G01 X-7.1403 Y22.8683 
G01 X-6.6317 Y22.3597 
G01 X-6.6317 Y21.6403 
G01 X-7.1403 Y21.1317 
G01 X-7.8597 Y21.1317 
G01 X-8.2137 Y21.4857 
G01 X-11.7215 Y21.4857 
G01 X-11.7337 Y21.4852 
G01 X-11.7577 Y21.4809 
G01 X-11.7805 Y21.4726 
G01 X-11.8016 Y21.4604 
G01 X-11.8203 Y21.4448 
G01 X-11.8359 Y21.4261 
G01 X-11.8481 Y21.4050 
G01 X-11.8565 Y21.3822 
G01 X-11.8607 Y21.3582 
G01 X-11.8612 Y21.3460 
G01 X-11.8612 Y20.2353 
G01 X-11.8967 Y20.0340 
G01 X-11.9666 Y19.8419 
G01 X-12.0688 Y19.6649 
G01 X-12.2002 Y19.5083 
G00 Z2.5400  
G00 X-12.0647 Y26.3531 
G01 Z-0.1778 F254   
G01 X-12.0969 Y26.3853 F508   
G01 X-12.1143 Y26.4273 
G01 X-12.1143 Y28.8727 
G01 X-12.0969 Y28.9147 
G01 X-12.0647 Y28.9469 
G01 X-12.0227 Y28.9643 
G01 X-9.5773 Y28.9643 
G01 X-9.5353 Y28.9469 
G01 X-9.5031 Y28.9147 
G01 X-9.4857 Y28.8727 
G01 X-9.4857 Y26.4273 
G01 X-9.5031 Y26.3853 
G01 X-9.5353 Y26.3531 
G01 X-9.5773 Y26.3357 
G01 X-12.0227 Y26.3357 
G01 X-12.0647 Y26.3531 
G00 Z2.5400  
G00 X-8.2496 Y25.0143 
G01 Z-0.1778 F254   
G01 X-8.2136 Y25.0143 F508   
G01 X-8.0143 Y25.2136 
G01 X-8.0143 Y25.2496 
G01 X-8.2496 Y25.0143 
G00 Z2.5400  
G00 X-6.9857 Y25.2136 
G01 Z-0.1778 F254   
G01 X-6.7863 Y25.0143 F508   
G01 X-6.7504 Y25.0143 
G01 X-6.9857 Y25.2496 
G01 X-6.9857 Y25.2136 
G00 Z2.5400  
G00 X-5.8683 Y22.3597 
G01 Z-0.1778 F254   
G01 X-5.3597 Y22.8683 F508   
G01 X-4.6403 Y22.8683 
G01 X-4.2497 Y22.4776 
G01 X-3.5143 Y23.2130 
G01 X-3.5143 Y25.7870 
G01 X-8.5210 Y30.7937 
G01 X-14.4790 Y30.7937 
G01 X-19.6842 Y25.5885 
G01 X-19.8015 Y25.5207 
G01 X-19.9323 Y25.4857 
G01 X-25.6550 Y25.4857 
G01 X-26.0170 Y25.1237 
G01 X-26.7430 Y25.1237 
G01 X-27.2563 Y25.6370 
G01 X-27.2563 Y26.3630 
G01 X-26.7430 Y26.8763 
G01 X-26.0170 Y26.8763 
G01 X-25.6550 Y26.5143 
G01 X-20.2130 Y26.5143 
G01 X-15.1035 Y31.6238 
G01 X-15.0078 Y31.7195 
G01 X-14.8905 Y31.7872 
G01 X-14.7597 Y31.8223 
G01 X-8.2403 Y31.8223 
G01 X-8.1095 Y31.7872 
G01 X-7.9922 Y31.7195 
G01 X-2.5885 Y26.3158 
G01 X-2.5208 Y26.1985 
G01 X-2.4857 Y26.0677 
G01 X-2.4857 Y22.9323 
G01 X-2.5208 Y22.8015 
G01 X-2.5885 Y22.6842 
G01 X-3.6842 Y21.5885 
G01 X-3.8015 Y21.5207 
G01 X-3.9323 Y21.4857 
G01 X-4.0677 Y21.4857 
G01 X-4.1985 Y21.5207 
G01 X-4.2320 Y21.5401 
G01 X-4.6403 Y21.1317 
G01 X-5.3597 Y21.1317 
G01 X-5.8683 Y21.6403 
G01 X-5.8683 Y22.3597 
G00 Z2.5400  
G00 X-9.5885 Y33.6842 
G01 Z-0.1778 F254   
G01 X-9.6842 Y33.5885 F508   
G01 X-9.8015 Y33.5207 
G01 X-9.9323 Y33.4857 
G01 X-30.7870 Y33.4857 
G01 X-33.4857 Y30.7870 
G01 X-33.4857 Y13.9323 
G01 X-33.5207 Y13.8015 
G01 X-33.5885 Y13.6842 
G01 X-34.5885 Y12.6842 
G01 X-34.6842 Y12.5885 
G01 X-34.8015 Y12.5207 
G01 X-34.9323 Y12.4857 
G01 X-81.0677 Y12.4857 
G01 X-81.1985 Y12.5207 
G01 X-81.3158 Y12.5885 
G01 X-89.3158 Y20.5885 
G01 X-89.4115 Y20.6842 
G01 X-89.4792 Y20.8015 
G01 X-89.5143 Y20.9323 
G01 X-89.5143 Y26.0640 
G01 X-89.5360 Y26.0797 
G01 X-89.6703 Y26.2140 
G01 X-89.7819 Y26.3677 
G01 X-89.8681 Y26.5369 
G01 X-89.9268 Y26.7175 
G01 X-89.9565 Y26.9050 
G01 X-89.9565 Y27.0950 
G01 X-89.9268 Y27.2825 
G01 X-89.8681 Y27.4631 
G01 X-89.7819 Y27.6323 
G01 X-89.6703 Y27.7860 
G01 X-89.5360 Y27.9203 
G01 X-89.3823 Y28.0319 
G01 X-89.2131 Y28.1181 
G01 X-89.0325 Y28.1768 
G01 X-88.8450 Y28.2065 
G01 X-88.6550 Y28.2065 
G01 X-88.4675 Y28.1768 
G01 X-88.2869 Y28.1181 
G01 X-88.1177 Y28.0319 
G01 X-87.9640 Y27.9203 
G01 X-87.8297 Y27.7860 
G01 X-87.7181 Y27.6323 
G01 X-87.6319 Y27.4631 
G01 X-87.5783 Y27.2982 
G01 X-87.5208 Y27.1985 
G01 X-87.4857 Y27.0677 
G01 X-87.4857 Y26.9323 
G01 X-87.5208 Y26.8015 
G01 X-87.5783 Y26.7018 
G01 X-87.6319 Y26.5369 
G01 X-87.7181 Y26.3677 
G01 X-87.8297 Y26.2140 
G01 X-87.9640 Y26.0797 
G01 X-88.1177 Y25.9681 
G01 X-88.2869 Y25.8819 
G01 X-88.4675 Y25.8232 
G01 X-88.4857 Y25.8203 
G01 X-88.4857 Y21.2130 
G01 X-80.7870 Y13.5143 
G01 X-35.2130 Y13.5143 
G01 X-34.5143 Y14.2130 
G01 X-34.5143 Y31.0677 
G01 X-34.4792 Y31.1985 
G01 X-34.4115 Y31.3158 
G01 X-34.3158 Y31.4115 
G01 X-31.3158 Y34.4115 
G01 X-31.1985 Y34.4792 
G01 X-31.0677 Y34.5143 
G01 X-10.2130 Y34.5143 
G01 X-5.5143 Y39.2130 
G01 X-5.5143 Y45.7863 
G01 X-5.8683 Y46.1403 
G01 X-5.8683 Y46.8597 
G01 X-5.3597 Y47.3683 
G01 X-4.6403 Y47.3683 
G01 X-4.1317 Y46.8597 
G01 X-4.1317 Y46.1403 
G01 X-4.4857 Y45.7863 
G01 X-4.4857 Y38.9323 
G01 X-4.5207 Y38.8015 
G01 X-4.5885 Y38.6842 
G01 X-9.5885 Y33.6842 
G00 Z2.5400  
G00 X-10.5885 Y35.6842 
G01 Z-0.1778 F254   
G01 X-10.6842 Y35.5885 F508   
G01 X-10.8015 Y35.5207 
G01 X-10.9323 Y35.4857 
G01 X-31.7870 Y35.4857 
G01 X-35.4857 Y31.7870 
G01 X-35.4857 Y17.9323 
G01 X-35.5207 Y17.8015 
G01 X-35.5885 Y17.6842 
G01 X-38.5885 Y14.6842 
G01 X-38.6842 Y14.5885 
G01 X-38.8015 Y14.5207 
G01 X-38.9323 Y14.4857 
G01 X-79.0677 Y14.4857 
G01 X-79.1985 Y14.5207 
G01 X-79.3158 Y14.5885 
G01 X-86.3158 Y21.5885 
G01 X-86.4115 Y21.6842 
G01 X-86.4792 Y21.8015 
G01 X-86.5143 Y21.9323 
G01 X-86.5143 Y31.7870 
G01 X-89.0215 Y34.2942 
G01 X-89.0797 Y34.2140 
G01 X-89.2140 Y34.0797 
G01 X-89.3677 Y33.9681 
G01 X-89.5369 Y33.8819 
G01 X-89.7175 Y33.8232 
G01 X-89.9050 Y33.7935 
G01 X-90.0950 Y33.7935 
G01 X-90.2825 Y33.8232 
G01 X-90.4631 Y33.8819 
G01 X-90.6323 Y33.9681 
G01 X-90.7860 Y34.0797 
G01 X-90.9203 Y34.2140 
G01 X-91.0319 Y34.3677 
G01 X-91.1181 Y34.5369 
G01 X-91.1768 Y34.7175 
G01 X-91.2065 Y34.9050 
G01 X-91.2065 Y35.0950 
G01 X-91.1768 Y35.2825 
G01 X-91.1181 Y35.4631 
G01 X-91.0319 Y35.6323 
G01 X-90.9203 Y35.7860 
G01 X-90.7860 Y35.9203 
G01 X-90.6323 Y36.0319 
G01 X-90.4631 Y36.1181 
G01 X-90.2825 Y36.1768 
G01 X-90.0950 Y36.2065 
G01 X-89.9050 Y36.2065 
G01 X-89.7175 Y36.1768 
G01 X-89.5369 Y36.1181 
G01 X-89.3677 Y36.0319 
G01 X-89.2140 Y35.9203 
G01 X-89.0797 Y35.7860 
G01 X-88.9681 Y35.6323 
G01 X-88.9041 Y35.5067 
G01 X-88.8015 Y35.4792 
G01 X-88.6842 Y35.4115 
G01 X-88.5885 Y35.3158 
G01 X-85.6842 Y32.4115 
G01 X-85.5885 Y32.3158 
G01 X-85.5208 Y32.1985 
G01 X-85.4857 Y32.0677 
G01 X-85.4857 Y22.2130 
G01 X-78.7870 Y15.5143 
G01 X-39.2130 Y15.5143 
G01 X-36.5143 Y18.2130 
G01 X-36.5143 Y32.0677 
G01 X-36.4792 Y32.1985 
G01 X-36.4115 Y32.3158 
G01 X-36.3158 Y32.4115 
G01 X-32.3158 Y36.4115 
G01 X-32.1985 Y36.4792 
G01 X-32.0677 Y36.5143 
G01 X-11.2130 Y36.5143 
G01 X-8.0143 Y39.7130 
G01 X-8.0143 Y45.7863 
G01 X-8.3683 Y46.1403 
G01 X-8.3683 Y46.8597 
G01 X-7.8597 Y47.3683 
G01 X-7.1403 Y47.3683 
G01 X-6.6317 Y46.8597 
G01 X-6.6317 Y46.1403 
G01 X-6.9857 Y45.7863 
G01 X-6.9857 Y39.4323 
G01 X-7.0207 Y39.3015 
G01 X-7.0885 Y39.1842 
G01 X-10.5885 Y35.6842 
G00 Z2.5400  
G00 X-9.5773 Y42.0357 
G01 Z-0.1778 F254   
G01 X-12.0227 Y42.0357 F508   
G01 X-12.0647 Y42.0531 
G01 X-12.0969 Y42.0853 
G01 X-12.1143 Y42.1273 
G01 X-12.1143 Y44.5727 
G01 X-12.0969 Y44.6147 
G01 X-12.0647 Y44.6469 
G01 X-12.0227 Y44.6643 
G01 X-9.5773 Y44.6643 
G01 X-9.5353 Y44.6469 
G01 X-9.5031 Y44.6147 
G01 X-9.4857 Y44.5727 
G01 X-9.4857 Y42.1273 
G01 X-9.5031 Y42.0853 
G01 X-9.5353 Y42.0531 
G01 X-9.5773 Y42.0357 
G00 Z2.5400  
G00 X-12.3689 Y46.3416 
G01 Z-0.1778 F254   
G01 X-12.3689 Y46.3416 F508   
G01 X-12.5255 Y46.2102 
G01 X-12.7025 Y46.1080 
G01 X-12.8946 Y46.0381 
G01 X-13.0959 Y46.0026 
G01 X-13.5930 Y46.0026 
G01 X-13.7943 Y46.0381 
G01 X-13.9864 Y46.1080 
G01 X-14.1634 Y46.2102 
G01 X-14.3200 Y46.3416 
G01 X-14.4514 Y46.4982 
G01 X-14.5537 Y46.6752 
G01 X-14.6236 Y46.8673 
G01 X-14.6591 Y47.0687 
G01 X-14.6591 Y50.8291 
G01 X-14.6596 Y50.8413 
G01 X-14.6638 Y50.8653 
G01 X-14.6722 Y50.8882 
G01 X-14.6843 Y50.9093 
G01 X-14.7000 Y50.9279 
G01 X-14.7186 Y50.9436 
G01 X-14.7397 Y50.9557 
G01 X-14.7626 Y50.9641 
G01 X-14.7866 Y50.9683 
G01 X-14.7988 Y50.9688 
G01 X-15.0914 Y50.9688 
G01 X-15.1036 Y50.9683 
G01 X-15.1275 Y50.9641 
G01 X-15.1504 Y50.9557 
G01 X-15.1715 Y50.9436 
G01 X-15.1902 Y50.9279 
G01 X-15.2058 Y50.9093 
G01 X-15.2180 Y50.8882 
G01 X-15.2263 Y50.8653 
G01 X-15.2306 Y50.8413 
G01 X-15.2311 Y50.8291 
G01 X-15.2311 Y47.0687 
G01 X-15.2666 Y46.8673 
G01 X-15.3365 Y46.6752 
G01 X-15.4387 Y46.4982 
G01 X-15.5701 Y46.3416 
G01 X-15.7267 Y46.2102 
G01 X-15.9038 Y46.1080 
G01 X-16.0959 Y46.0381 
G01 X-16.2972 Y46.0026 
G01 X-16.7942 Y46.0026 
G01 X-16.9955 Y46.0381 
G01 X-17.1876 Y46.1080 
G01 X-17.3647 Y46.2102 
G01 X-17.5213 Y46.3416 
G01 X-17.6527 Y46.4982 
G01 X-17.7549 Y46.6752 
G01 X-17.8248 Y46.8673 
G01 X-17.8603 Y47.0687 
G01 X-17.8603 Y48.3460 
G01 X-17.8608 Y48.3582 
G01 X-17.8651 Y48.3822 
G01 X-17.8718 Y48.4008 
G01 X-21.5885 Y44.6842 
G01 X-21.6842 Y44.5885 
G01 X-21.8015 Y44.5207 
G01 X-21.9323 Y44.4857 
G01 X-25.6550 Y44.4857 
G01 X-26.0170 Y44.1237 
G01 X-26.7430 Y44.1237 
G01 X-27.2563 Y44.6370 
G01 X-27.2563 Y45.3630 
G01 X-26.7430 Y45.8763 
G01 X-26.0170 Y45.8763 
G01 X-25.6550 Y45.5143 
G01 X-22.2130 Y45.5143 
G01 X-18.4115 Y49.3158 
G01 X-18.3158 Y49.4115 
G01 X-18.1985 Y49.4792 
G01 X-18.0677 Y49.5143 
G01 X-17.8978 Y49.5143 
G01 X-17.6965 Y49.4788 
G01 X-17.5044 Y49.4089 
G01 X-17.3273 Y49.3067 
G01 X-17.1707 Y49.1753 
G01 X-17.0393 Y49.0187 
G01 X-16.9371 Y48.8416 
G01 X-16.8672 Y48.6495 
G01 X-16.8317 Y48.4482 
G01 X-16.8317 Y48.4137 
G01 X-16.8317 Y47.1709 
G01 X-16.8312 Y47.1587 
G01 X-16.8269 Y47.1347 
G01 X-16.8186 Y47.1118 
G01 X-16.8064 Y47.0907 
G01 X-16.7908 Y47.0721 
G01 X-16.7721 Y47.0564 
G01 X-16.7510 Y47.0443 
G01 X-16.7282 Y47.0359 
G01 X-16.7042 Y47.0317 
G01 X-16.6920 Y47.0312 
G01 X-16.3994 Y47.0312 
G01 X-16.3872 Y47.0317 
G01 X-16.3632 Y47.0359 
G01 X-16.3403 Y47.0443 
G01 X-16.3193 Y47.0564 
G01 X-16.3006 Y47.0721 
G01 X-16.2849 Y47.0907 
G01 X-16.2728 Y47.1118 
G01 X-16.2644 Y47.1347 
G01 X-16.2602 Y47.1587 
G01 X-16.2597 Y47.1709 
G01 X-16.2597 Y50.9313 
G01 X-16.2242 Y51.1326 
G01 X-16.1543 Y51.3247 
G01 X-16.0521 Y51.5018 
G01 X-15.9207 Y51.6584 
G01 X-15.7641 Y51.7898 
G01 X-15.5870 Y51.8920 
G01 X-15.3949 Y51.9619 
G01 X-15.1936 Y51.9974 
G01 X-14.6966 Y51.9974 
G01 X-14.4952 Y51.9619 
G01 X-14.3031 Y51.8920 
G01 X-14.1261 Y51.7898 
G01 X-13.9695 Y51.6584 
G01 X-13.8381 Y51.5018 
G01 X-13.7359 Y51.3248 
G01 X-13.6660 Y51.1327 
G01 X-13.6305 Y50.9313 
G01 X-13.6305 Y47.1709 
G01 X-13.6299 Y47.1587 
G01 X-13.6257 Y47.1347 
G01 X-13.6174 Y47.1118 
G01 X-13.6052 Y47.0907 
G01 X-13.5896 Y47.0721 
G01 X-13.5709 Y47.0564 
G01 X-13.5498 Y47.0443 
G01 X-13.5269 Y47.0359 
G01 X-13.5029 Y47.0317 
G01 X-13.4908 Y47.0312 
G01 X-13.1982 Y47.0312 
G01 X-13.1860 Y47.0317 
G01 X-13.1620 Y47.0359 
G01 X-13.1391 Y47.0443 
G01 X-13.1180 Y47.0564 
G01 X-13.0994 Y47.0721 
G01 X-13.0837 Y47.0907 
G01 X-13.0715 Y47.1118 
G01 X-13.0632 Y47.1347 
G01 X-13.0590 Y47.1587 
G01 X-13.0585 Y47.1709 
G01 X-13.0585 Y48.4482 
G01 X-13.0230 Y48.6495 
G01 X-12.9530 Y48.8416 
G01 X-12.8508 Y49.0187 
G01 X-12.7194 Y49.1753 
G01 X-12.5628 Y49.3067 
G01 X-12.3858 Y49.4089 
G01 X-12.1937 Y49.4788 
G01 X-11.9924 Y49.5143 
G01 X-8.2137 Y49.5143 
G01 X-7.8597 Y49.8683 
G01 X-7.1403 Y49.8683 
G01 X-6.6317 Y49.3597 
G01 X-6.6317 Y48.6403 
G01 X-7.1403 Y48.1317 
G01 X-7.8597 Y48.1317 
G01 X-8.2137 Y48.4857 
G01 X-11.8902 Y48.4857 
G01 X-11.9023 Y48.4852 
G01 X-11.9263 Y48.4809 
G01 X-11.9492 Y48.4726 
G01 X-11.9703 Y48.4604 
G01 X-11.9889 Y48.4448 
G01 X-12.0046 Y48.4261 
G01 X-12.0168 Y48.4050 
G01 X-12.0251 Y48.3822 
G01 X-12.0293 Y48.3582 
G01 X-12.0299 Y48.3460 
G01 X-12.0299 Y47.0687 
G01 X-12.0654 Y46.8673 
G01 X-12.1353 Y46.6752 
G01 X-12.2375 Y46.4982 
G01 X-12.3689 Y46.3416 
G00 Z2.5400  
G00 X-12.0647 Y53.3531 
G01 Z-0.1778 F254   
G01 X-12.0969 Y53.3853 F508   
G01 X-12.1143 Y53.4273 
G01 X-12.1143 Y55.8727 
G01 X-12.0969 Y55.9147 
G01 X-12.0647 Y55.9469 
G01 X-12.0227 Y55.9643 
G01 X-9.5773 Y55.9643 
G01 X-9.5353 Y55.9469 
G01 X-9.5031 Y55.9147 
G01 X-9.4857 Y55.8727 
G01 X-9.4857 Y53.4273 
G01 X-9.5031 Y53.3853 
G01 X-9.5353 Y53.3531 
G01 X-9.5773 Y53.3357 
G01 X-12.0227 Y53.3357 
G01 X-12.0647 Y53.3531 
G00 Z2.5400  
G00 X-8.2496 Y52.0143 
G01 Z-0.1778 F254   
G01 X-8.2136 Y52.0143 F508   
G01 X-8.0143 Y52.2136 
G01 X-8.0143 Y52.2496 
G01 X-8.2496 Y52.0143 
G00 Z2.5400  
G00 X-6.9857 Y52.2136 
G01 Z-0.1778 F254   
G01 X-6.7864 Y52.0143 F508   
G01 X-6.7504 Y52.0143 
G01 X-6.9857 Y52.2496 
G01 X-6.9857 Y52.2136 
G00 Z2.5400  
G00 X-5.8683 Y49.3597 
G01 Z-0.1778 F254   
G01 X-5.3597 Y49.8683 F508   
G01 X-4.6403 Y49.8683 
G01 X-4.2863 Y49.5143 
G01 X-4.2130 Y49.5143 
G01 X-3.5143 Y50.2130 
G01 X-3.5143 Y52.7870 
G01 X-8.5210 Y57.7937 
G01 X-14.4790 Y57.7937 
G01 X-19.5885 Y52.6842 
G01 X-19.6842 Y52.5885 
G01 X-19.8015 Y52.5207 
G01 X-19.9323 Y52.4857 
G01 X-25.6550 Y52.4857 
G01 X-26.0170 Y52.1237 
G01 X-26.7430 Y52.1237 
G01 X-27.2563 Y52.6370 
G01 X-27.2563 Y53.3630 
G01 X-26.7430 Y53.8763 
G01 X-26.0170 Y53.8763 
G01 X-25.6550 Y53.5143 
G01 X-20.2130 Y53.5143 
G01 X-15.1035 Y58.6238 
G01 X-15.0078 Y58.7195 
G01 X-14.8905 Y58.7872 
G01 X-14.7597 Y58.8223 
G01 X-8.2403 Y58.8223 
G01 X-8.1095 Y58.7872 
G01 X-7.9922 Y58.7195 
G01 X-2.5885 Y53.3158 
G01 X-2.5208 Y53.1985 
G01 X-2.4857 Y53.0677 
G01 X-2.4857 Y49.9323 
G01 X-2.5208 Y49.8015 
G01 X-2.5885 Y49.6842 
G01 X-3.5885 Y48.6842 
G01 X-3.6842 Y48.5885 
G01 X-3.8015 Y48.5207 
G01 X-3.9323 Y48.4857 
G01 X-4.2863 Y48.4857 
G01 X-4.6403 Y48.1317 
G01 X-5.3597 Y48.1317 
G01 X-5.8683 Y48.6403 
G01 X-5.8683 Y49.3597 
G00 Z2.5400  
G00 X-5.8255 Y64.5387 
G01 Z-0.1778 F254   
G01 X-5.5754 Y64.3716 F508   
G01 X-5.3102 Y64.2298 
G01 X-5.0324 Y64.1147 
G01 X-4.8643 Y64.0638 
G01 X-4.8643 Y64.0867 
G01 X-5.1634 Y64.1913 
G01 X-5.4705 Y64.3392 
G01 X-5.7592 Y64.5206 
G01 X-6.0257 Y64.7332 
G01 X-6.2668 Y64.9742 
G01 X-6.4794 Y65.2408 
G01 X-6.6608 Y65.5295 
G01 X-6.8087 Y65.8366 
G01 X-6.9133 Y66.1357 
G01 X-6.9362 Y66.1357 
G01 X-6.8853 Y65.9676 
G01 X-6.7702 Y65.6898 
G01 X-6.6284 Y65.4246 
G01 X-6.4613 Y65.1745 
G01 X-6.2706 Y64.9421 
G01 X-6.0579 Y64.7294 
G01 X-5.8255 Y64.5387 
G00 Z2.5400  
G00 X-39.5742 Y62.3015 
G01 Z-0.1778 F254   
G01 X-37.6842 Y60.4115 F508   
G01 X-37.5885 Y60.3158 
G01 X-37.5207 Y60.1985 
G01 X-37.4857 Y60.0677 
G01 X-37.4857 Y46.9323 
G01 X-37.5207 Y46.8015 
G01 X-37.5885 Y46.6842 
G01 X-39.2727 Y45.0000 
G01 X-38.5885 Y44.3158 
G01 X-38.5207 Y44.1985 
G01 X-38.4857 Y44.0677 
G01 X-38.4857 Y19.9323 
G01 X-38.5207 Y19.8015 
G01 X-38.5885 Y19.6842 
G01 X-38.6842 Y19.5885 
G01 X-40.6842 Y17.5885 
G01 X-40.8015 Y17.5207 
G01 X-40.8814 Y17.4993 
G01 X-41.2570 Y17.1237 
G01 X-41.9830 Y17.1237 
G01 X-42.4963 Y17.6370 
G01 X-42.4963 Y18.3630 
G01 X-41.9830 Y18.8763 
G01 X-41.2570 Y18.8763 
G01 X-41.0540 Y18.6733 
G01 X-39.5143 Y20.2130 
G01 X-39.5143 Y43.7870 
G01 X-40.2130 Y44.4857 
G01 X-40.8950 Y44.4857 
G01 X-41.2570 Y44.1237 
G01 X-41.9830 Y44.1237 
G01 X-42.4963 Y44.6370 
G01 X-42.4963 Y45.3630 
G01 X-41.9830 Y45.8763 
G01 X-41.2570 Y45.8763 
G01 X-40.8950 Y45.5143 
G01 X-40.2130 Y45.5143 
G01 X-38.5143 Y47.2130 
G01 X-38.5143 Y59.7870 
G01 X-40.1030 Y61.3757 
G01 X-88.9080 Y61.3757 
G01 X-88.9681 Y61.2577 
G01 X-89.0797 Y61.1040 
G01 X-89.2140 Y60.9697 
G01 X-89.3677 Y60.8581 
G01 X-89.5369 Y60.7719 
G01 X-89.7175 Y60.7132 
G01 X-89.9050 Y60.6835 
G01 X-90.0950 Y60.6835 
G01 X-90.2825 Y60.7132 
G01 X-90.4631 Y60.7719 
G01 X-90.6323 Y60.8581 
G01 X-90.7860 Y60.9697 
G01 X-90.9203 Y61.1040 
G01 X-91.0319 Y61.2577 
G01 X-91.1181 Y61.4269 
G01 X-91.1768 Y61.6075 
G01 X-91.2065 Y61.7950 
G01 X-91.2065 Y61.9850 
G01 X-91.1768 Y62.1725 
G01 X-91.1181 Y62.3531 
G01 X-91.0319 Y62.5223 
G01 X-90.9203 Y62.6760 
G01 X-90.7860 Y62.8103 
G01 X-90.6323 Y62.9219 
G01 X-90.4631 Y63.0081 
G01 X-90.2825 Y63.0668 
G01 X-90.0950 Y63.0965 
G01 X-89.9050 Y63.0965 
G01 X-89.7175 Y63.0668 
G01 X-89.5369 Y63.0081 
G01 X-89.3677 Y62.9219 
G01 X-89.2140 Y62.8103 
G01 X-89.0797 Y62.6760 
G01 X-88.9681 Y62.5223 
G01 X-88.9080 Y62.4043 
G01 X-39.8223 Y62.4043 
G01 X-39.6915 Y62.3692 
G01 X-39.5742 Y62.3015 
G00 Z2.5400  
G00 X-41.2570 Y53.8763 
G01 Z-0.1778 F254   
G01 X-40.7437 Y53.3630 F508   
G01 X-40.7437 Y52.6370 
G01 X-41.2570 Y52.1237 
G01 X-41.9830 Y52.1237 
G01 X-42.3450 Y52.4857 
G01 X-45.7584 Y52.4857 
G01 X-44.6842 Y51.4115 
G01 X-44.5885 Y51.3158 
G01 X-44.5207 Y51.1985 
G01 X-44.4857 Y51.0677 
G01 X-44.4857 Y28.2130 
G01 X-42.7870 Y26.5143 
G01 X-42.3450 Y26.5143 
G01 X-41.9830 Y26.8763 
G01 X-41.2570 Y26.8763 
G01 X-40.7437 Y26.3630 
G01 X-40.7437 Y25.6370 
G01 X-41.2570 Y25.1237 
G01 X-41.9830 Y25.1237 
G01 X-42.3450 Y25.4857 
G01 X-43.0677 Y25.4857 
G01 X-43.1985 Y25.5207 
G01 X-43.3158 Y25.5885 
G01 X-45.3158 Y27.5885 
G01 X-45.4115 Y27.6842 
G01 X-45.4792 Y27.8015 
G01 X-45.5143 Y27.9323 
G01 X-45.5143 Y50.7870 
G01 X-47.2049 Y52.4776 
G01 X-47.2185 Y52.4726 
G01 X-47.2396 Y52.4604 
G01 X-47.2582 Y52.4448 
G01 X-47.2739 Y52.4261 
G01 X-47.2860 Y52.4050 
G01 X-47.2944 Y52.3822 
G01 X-47.2986 Y52.3582 
G01 X-47.2991 Y52.3460 
G01 X-47.2991 Y52.0474 
G01 X-47.3346 Y51.8461 
G01 X-47.4045 Y51.6540 
G01 X-47.5067 Y51.4770 
G01 X-47.6382 Y51.3204 
G01 X-47.7948 Y51.1890 
G01 X-47.9718 Y51.0868 
G01 X-48.1639 Y51.0168 
G01 X-48.3652 Y50.9813 
G01 X-51.6386 Y50.9813 
G01 X-51.8399 Y51.0168 
G01 X-52.0320 Y51.0868 
G01 X-52.2090 Y51.1890 
G01 X-52.3656 Y51.3204 
G01 X-52.4970 Y51.4770 
G01 X-52.5993 Y51.6540 
G01 X-52.6692 Y51.8461 
G01 X-52.7047 Y52.0474 
G01 X-52.7047 Y53.8504 
G01 X-52.7052 Y53.8625 
G01 X-52.7094 Y53.8865 
G01 X-52.7178 Y53.9094 
G01 X-52.7299 Y53.9305 
G01 X-52.7456 Y53.9491 
G01 X-52.7642 Y53.9648 
G01 X-52.7853 Y53.9770 
G01 X-52.8082 Y53.9853 
G01 X-52.8322 Y53.9895 
G01 X-52.8444 Y53.9901 
G01 X-55.9133 Y53.9901 
G01 X-55.9255 Y53.9895 
G01 X-55.9495 Y53.9853 
G01 X-55.9724 Y53.9770 
G01 X-55.9935 Y53.9648 
G01 X-56.0121 Y53.9491 
G01 X-56.0278 Y53.9305 
G01 X-56.0399 Y53.9094 
G01 X-56.0483 Y53.8865 
G01 X-56.0525 Y53.8625 
G01 X-56.0530 Y53.8504 
G01 X-56.0530 Y52.0474 
G01 X-56.0885 Y51.8461 
G01 X-56.1584 Y51.6540 
G01 X-56.2607 Y51.4770 
G01 X-56.3921 Y51.3204 
G01 X-56.5487 Y51.1890 
G01 X-56.7257 Y51.0868 
G01 X-56.9178 Y51.0168 
G01 X-57.1191 Y50.9813 
G01 X-60.3925 Y50.9813 
G01 X-60.5938 Y51.0168 
G01 X-60.7859 Y51.0868 
G01 X-60.9629 Y51.1890 
G01 X-61.1195 Y51.3204 
G01 X-61.2510 Y51.4770 
G01 X-61.3532 Y51.6540 
G01 X-61.4231 Y51.8461 
G01 X-61.4586 Y52.0474 
G01 X-61.4586 Y53.8504 
G01 X-61.4591 Y53.8625 
G01 X-61.4633 Y53.8865 
G01 X-61.4717 Y53.9094 
G01 X-61.4838 Y53.9305 
G01 X-61.4995 Y53.9491 
G01 X-61.5181 Y53.9648 
G01 X-61.5392 Y53.9770 
G01 X-61.5621 Y53.9853 
G01 X-61.5861 Y53.9895 
G01 X-61.5983 Y53.9901 
G01 X-64.6672 Y53.9901 
G01 X-64.6794 Y53.9895 
G01 X-64.7034 Y53.9853 
G01 X-64.7263 Y53.9770 
G01 X-64.7474 Y53.9648 
G01 X-64.7660 Y53.9491 
G01 X-64.7817 Y53.9305 
G01 X-64.7938 Y53.9094 
G01 X-64.8022 Y53.8865 
G01 X-64.8064 Y53.8625 
G01 X-64.8069 Y53.8504 
G01 X-64.8069 Y52.0474 
G01 X-64.8424 Y51.8461 
G01 X-64.9124 Y51.6540 
G01 X-65.0146 Y51.4770 
G01 X-65.1460 Y51.3204 
G01 X-65.3026 Y51.1890 
G01 X-65.4796 Y51.0868 
G01 X-65.6717 Y51.0168 
G01 X-65.8730 Y50.9813 
G01 X-69.1464 Y50.9813 
G01 X-69.3477 Y51.0168 
G01 X-69.5398 Y51.0868 
G01 X-69.7169 Y51.1890 
G01 X-69.8735 Y51.3204 
G01 X-70.0049 Y51.4770 
G01 X-70.1071 Y51.6540 
G01 X-70.1770 Y51.8461 
G01 X-70.2125 Y52.0474 
G01 X-70.2125 Y53.8504 
G01 X-70.2130 Y53.8625 
G01 X-70.2172 Y53.8865 
G01 X-70.2256 Y53.9094 
G01 X-70.2378 Y53.9305 
G01 X-70.2534 Y53.9491 
G01 X-70.2721 Y53.9648 
G01 X-70.2931 Y53.9770 
G01 X-70.3160 Y53.9853 
G01 X-70.3400 Y53.9895 
G01 X-70.3522 Y53.9901 
G01 X-73.4211 Y53.9901 
G01 X-73.4333 Y53.9895 
G01 X-73.4573 Y53.9853 
G01 X-73.4802 Y53.9770 
G01 X-73.5013 Y53.9648 
G01 X-73.5199 Y53.9491 
G01 X-73.5356 Y53.9305 
G01 X-73.5477 Y53.9094 
G01 X-73.5561 Y53.8865 
G01 X-73.5603 Y53.8625 
G01 X-73.5608 Y53.8504 
G01 X-73.5608 Y52.0474 
G01 X-73.5963 Y51.8461 
G01 X-73.6663 Y51.6540 
G01 X-73.7685 Y51.4770 
G01 X-73.8999 Y51.3204 
G01 X-74.0565 Y51.1890 
G01 X-74.2335 Y51.0868 
G01 X-74.4256 Y51.0168 
G01 X-74.6269 Y50.9813 
G01 X-77.9003 Y50.9813 
G01 X-78.1016 Y51.0168 
G01 X-78.2937 Y51.0868 
G01 X-78.4708 Y51.1890 
G01 X-78.6274 Y51.3204 
G01 X-78.7588 Y51.4770 
G01 X-78.8610 Y51.6540 
G01 X-78.9309 Y51.8461 
G01 X-78.9664 Y52.0474 
G01 X-78.9664 Y53.8504 
G01 X-78.9669 Y53.8625 
G01 X-78.9711 Y53.8865 
G01 X-78.9795 Y53.9094 
G01 X-78.9917 Y53.9305 
G01 X-79.0073 Y53.9491 
G01 X-79.0260 Y53.9648 
G01 X-79.0471 Y53.9770 
G01 X-79.0699 Y53.9853 
G01 X-79.0939 Y53.9895 
G01 X-79.1061 Y53.9901 
G01 X-82.1750 Y53.9901 
G01 X-82.1872 Y53.9895 
G01 X-82.2112 Y53.9853 
G01 X-82.2341 Y53.9770 
G01 X-82.2552 Y53.9648 
G01 X-82.2738 Y53.9491 
G01 X-82.2895 Y53.9305 
G01 X-82.3017 Y53.9094 
G01 X-82.3100 Y53.8865 
G01 X-82.3142 Y53.8625 
G01 X-82.3147 Y53.8504 
G01 X-82.3147 Y52.0474 
G01 X-82.3502 Y51.8461 
G01 X-82.4202 Y51.6540 
G01 X-82.5224 Y51.4770 
G01 X-82.6538 Y51.3204 
G01 X-82.8104 Y51.1890 
G01 X-82.9874 Y51.0868 
G01 X-83.1795 Y51.0168 
G01 X-83.3808 Y50.9813 
G01 X-86.6542 Y50.9813 
G01 X-86.8555 Y51.0168 
G01 X-87.0476 Y51.0868 
G01 X-87.2247 Y51.1890 
G01 X-87.3813 Y51.3204 
G01 X-87.5127 Y51.4770 
G01 X-87.6149 Y51.6540 
