(.../EAGLE-7.7.0/ulp/pcb-gcode-3/pcb-gcode.ulp)
(Copyright 2005 - 2012 by John Johnson)
(See readme.txt for licensing terms.)
(This file generated from the board:)
(.../Documents/eagle/Mixer/Board.brd)
(Current profile is .../pcb-gcode-3/profiles/mach.pp  )
(This file generated 12/01/2017 10:35)
(Settings from pcb-machine.h)
(spindle on time = 3.0000)
(spindle speed = 15000.0000)
(milling depth = -2.0000)
(tool change at 0.0000  0.0000  25.4000 )
(feed rate xy = F254   )
(feed rate z  = F127   )
(Z Axis Settings)
(  High     Up        Down     Drill)
(12.7000 	2.5400  	-0.1778 	-2.0000 )
(Settings from pcb-defaults.h)
(isolate min = 0.0254)
(isolate max = 0.3080)
(isolate step = 0.1000)
(Generated bottom outlines, bottom drill, )
(Unit of measure: mm)
(Metric Mode)
G21
(Absolute Coordinates)
G90
S15000
G00 Z12.7000 
G00 X0.0000  Y0.0000  
M03
G04 P3.000000
G00 Z2.5400  
G00 X4.0000  Y-0.5000 
G01 Z-2.0000 F127   
G01 X96.0000 Y-0.5000 F254   
G03 X100.5000 Y4.0000  R4.5000  F254   
G01 X100.5000 Y67.0000 
G03 X96.0000 Y71.5000 R4.5000  F254   
G01 X4.0000  Y71.5000 
G03 X-0.5000 Y67.0000 R4.5000  F254   
G01 X-0.5000 Y4.0000  
G03 X4.0000  Y-0.5000 R4.5000  F254   
G00 Z2.5400  
G00 X4.0000  Y3.0000  
G01 Z-2.0000 F127   
G03 X5.0000  Y4.0000  R1.0000  F254   
G03 X4.0000  Y5.0000  R1.0000  F254   
G03 X3.0000  Y4.0000  R1.0000  F254   
G03 X4.0000  Y3.0000  R1.0000  F254   
G00 Z2.5400  
G00 X10.5000 Y16.0000 
G01 Z-2.0000 F127   
G01 X11.0000 Y16.0000 F254   
G01 X11.0000 Y16.5000 
G01 X10.5000 Y16.5000 
G01 X10.5000 Y16.0000 
G00 Z2.5400  
G00 X10.5000 Y27.5000 
G01 Z-2.0000 F127   
G01 X11.0000 Y27.5000 F254   
G01 X11.0000 Y28.0000 
G01 X10.5000 Y28.0000 
G01 X10.5000 Y27.5000 
G00 Z2.5400  
G00 X10.5000 Y43.0000 
G01 Z-2.0000 F127   
G01 X11.0000 Y43.0000 F254   
G01 X11.0000 Y43.5000 
G01 X10.5000 Y43.5000 
G01 X10.5000 Y43.0000 
G00 Z2.5400  
G00 X10.5000 Y54.5000 
G01 Z-2.0000 F127   
G01 X11.0000 Y54.5000 F254   
G01 X11.0000 Y55.0000 
G01 X10.5000 Y55.0000 
G01 X10.5000 Y54.5000 
G00 Z2.5400  
G00 X4.0000  Y66.0000 
G01 Z-2.0000 F127   
G02 X3.0000  Y67.0000 R1.0000  F254   
G02 X4.0000  Y68.0000 R1.0000  F254   
G02 X5.0000  Y67.0000 R1.0000  F254   
G02 X4.0000  Y66.0000 R1.0000  F254   
G00 Z2.5400  
G00 X79.0000 Y67.0000 
G01 Z-2.0000 F127   
G03 X80.0000 Y66.0000 R1.0000  F254   
G03 X81.0000 Y67.0000 R1.0000  F254   
G03 X80.0000 Y68.0000 R1.0000  F254   
G03 X79.0000 Y67.0000 R1.0000  F254   
G00 Z2.5400  
G00 X91.5000 Y66.0000 
G01 Z-2.0000 F127   
G01 X91.5000 Y64.5000 F254   
G01 X94.0000 Y64.5000 
G01 X94.0000 Y66.0000 
G01 X91.5000 Y66.0000 
G00 Z2.5400  
G00 X91.5000 Y51.5000 
G01 Z-2.0000 F127   
G01 X94.0000 Y51.5000 F254   
G01 X94.0000 Y50.0000 
G01 X91.5000 Y50.0000 
G01 X91.5000 Y51.5000 
G00 Z2.5400  
G00 X96.0000 Y45.0000 
G01 Z-2.0000 F127   
G03 X95.0000 Y44.0000 R1.0000  F254   
G03 X96.0000 Y43.0000 R1.0000  F254   
G03 X97.0000 Y44.0000 R1.0000  F254   
G03 X96.0000 Y45.0000 R1.0000  F254   
G00 Z2.5400  
G00 X94.0000 Y39.0000 
G01 Z-2.0000 F127   
G01 X94.0000 Y37.5000 F254   
G01 X91.5000 Y37.5000 
G01 X91.5000 Y39.0000 
G01 X94.0000 Y39.0000 
G00 Z2.5400  
G00 X94.0000 Y6.5000  
G01 Z-2.0000 F127   
G01 X91.5000 Y6.5000  F254   
G01 X91.5000 Y5.0000  
G01 X94.0000 Y5.0000  
G01 X94.0000 Y6.5000  
G00 Z2.5400  
G00 X81.0000 Y4.0000  
G01 Z-2.0000 F127   
G03 X80.0000 Y5.0000  R1.0000  F254   
G03 X79.0000 Y4.0000  R1.0000  F254   
G03 X80.0000 Y3.0000  R1.0000  F254   
G03 X81.0000 Y4.0000  R1.0000  F254   
G00 Z12.7000 
M05
M02
